app/src/main/assets/luts/era_1970s.cube
TITLE "Generation Camera 1970s"
LUT_3D_SIZE 17
DOMAIN_MIN 0.0 0.0 0.0
DOMAIN_MAX 1.0 1.0 1.0
0.186716 0.182538 0.173853
0.229748 0.186749 0.179398
0.272563 0.190951 0.184935
0.315161 0.195143 0.190464
0.357541 0.199326 0.195984
0.399704 0.203499 0.201496
0.441651 0.207663 0.206998
0.483380 0.211817 0.212491
0.524892 0.215961 0.217975
0.566187 0.220096 0.223449
0.607265 0.224221 0.228914
0.648125 0.228337 0.234368
0.688769 0.232442 0.239812
0.729195 0.236538 0.245246
0.769405 0.240624 0.250669
0.807533 0.244509 0.255829
0.807533 0.244509 0.255829
0.194561 0.226527 0.183568
0.237380 0.230647 0.189099
0.279982 0.234756 0.194621
0.322367 0.238856 0.200134
0.364535 0.242946 0.205638
0.406485 0.247026 0.211133
0.448219 0.251097 0.216619
0.489735 0.255157 0.222095
0.531035 0.259207 0.227561
0.572117 0.263248 0.233017
0.612982 0.267278 0.238464
0.653630 0.271298 0.243899
0.694061 0.275308 0.249324
0.734274 0.279308 0.254739
0.774271 0.283298 0.260142
0.812196 0.287091 0.265283
0.812196 0.287091 0.265283
0.202368 0.270207 0.193257
0.244974 0.274233 0.198772
0.287363 0.278250 0.204277
0.329535 0.282256 0.209774
0.371490 0.286252 0.215262
0.413228 0.290238 0.220740
0.454749 0.294214 0.226208
0.496053 0.298179 0.231666
0.537139 0.302134 0.237114
0.578009 0.306079 0.242552
0.618661 0.310013 0.247979
0.659096 0.313937 0.253396
0.699314 0.317851 0.258801
0.739315 0.321753 0.264196
0.779099 0.325645 0.269579
0.816822 0.329346 0.274699
0.816822 0.329346 0.274699
0.210136 0.313573 0.202917
0.252530 0.317506 0.208415
0.294706 0.321428 0.213905
0.336666 0.325339 0.219384
0.378408 0.329241 0.224855
0.419933 0.333131 0.230315
0.461241 0.337011 0.235765
0.502332 0.340880 0.241205
0.543206 0.344739 0.246634
0.583863 0.348587 0.252053
0.624302 0.352424 0.257460
0.664525 0.356250 0.262857
0.704530 0.360066 0.268242
0.744318 0.363870 0.273616
0.783890 0.367664 0.278977
0.821409 0.371269 0.284078
0.821409 0.371269 0.284078
0.217867 0.356624 0.212547
0.260048 0.360461 0.218029
0.302012 0.364288 0.223501
0.343758 0.368103 0.228963
0.385288 0.371908 0.234415
0.426600 0.375702 0.239857
0.467696 0.379485 0.245288
0.508574 0.383257 0.250709
0.549235 0.387018 0.256119
0.589679 0.390768 0.261517
0.629906 0.394507 0.266905
0.669915 0.398234 0.272281
0.709708 0.401950 0.277645
0.749284 0.405655 0.282997
0.788642 0.409349 0.288337
0.825959 0.412859 0.293416
0.825959 0.412859 0.293416
0.225560 0.399355 0.222147
0.267528 0.403096 0.227611
0.309279 0.406826 0.233065
0.350813 0.410544 0.238509
0.392130 0.414252 0.243942
0.433229 0.417948 0.249365
0.474112 0.421633 0.254777
0.514777 0.425307 0.260178
0.555226 0.428969 0.265567
0.595457 0.432619 0.270945
0.635471 0.436258 0.276312
0.675268 0.439886 0.281666
0.714848 0.443502 0.287009
0.754211 0.447106 0.292339
0.793356 0.450699 0.297657
0.830471 0.454113 0.302715
0.830471 0.454113 0.302715
0.233214 0.441764 0.231714
0.274970 0.445407 0.237160
0.316508 0.449039 0.242595
0.357829 0.452660 0.248020
0.398933 0.456269 0.253434
0.439820 0.459866 0.258837
0.480490 0.463451 0.264229
0.520943 0.467025 0.269610
0.561178 0.470587 0.274978
0.601197 0.474137 0.280335
0.640998 0.477676 0.285680
0.680583 0.481202 0.291013
0.719950 0.484717 0.296333
0.759100 0.488219 0.301641
0.798033 0.491709 0.306935
0.834944 0.495026 0.311971
0.834944 0.495026 0.311971
0.240831 0.483847 0.241249
0.282374 0.487392 0.246676
0.323699 0.490925 0.252092
0.364808 0.494446 0.257497
0.405699 0.497955 0.262891
0.446373 0.501452 0.268273
0.486830 0.504937 0.273644
0.527070 0.508410 0.279004
0.567093 0.511871 0.284351
0.606899 0.515319 0.289686
0.646488 0.518756 0.295009
0.685859 0.522180 0.300319
0.725014 0.525592 0.305616
0.763951 0.528991 0.310900
0.802671 0.532378 0.316171
0.839380 0.535595 0.321184
0.839380 0.535595 0.321184
0.248409 0.525601 0.250749
0.289739 0.529046 0.256156
0.330852 0.532479 0.261552
0.371748 0.535899 0.266937
0.412427 0.539308 0.272310
0.452888 0.542703 0.277672
0.493133 0.546087 0.283021
0.533160 0.549458 0.288359
0.572970 0.552816 0.293684
0.612563 0.556162 0.298996
0.651939 0.559495 0.304296
0.691098 0.562816 0.309583
0.730039 0.566124 0.314857
0.768764 0.569419 0.320117
0.807271 0.572701 0.325364
0.843777 0.575818 0.330352
0.843777 0.575818 0.330352
0.255950 0.567024 0.260213
0.297067 0.570368 0.265600
0.337967 0.573699 0.270976
0.378650 0.577018 0.276339
0.419116 0.580324 0.281691
0.459365 0.583617 0.287031
0.499397 0.586897 0.292359
0.539211 0.590165 0.297674
0.578809 0.593420 0.302976
0.618189 0.596662 0.308265
0.657352 0.599891 0.313542
0.696298 0.603107 0.318804
0.735027 0.606310 0.324054
0.773539 0.609499 0.329289
0.811834 0.612676 0.334511
0.848137 0.615692 0.339475
0.848137 0.615692 0.339475
0.263453 0.608112 0.269641
0.304357 0.611353 0.275007
0.345045 0.614582 0.280361
0.385515 0.617798 0.285703
0.425768 0.621000 0.291033
0.465804 0.624190 0.296351
0.505623 0.627366 0.301655
0.545225 0.630529 0.306947
0.584609 0.633679 0.312226
0.623777 0.636816 0.317491
0.662728 0.639939 0.322743
0.701461 0.643050 0.327982
0.739977 0.646146 0.333206
0.778276 0.649229 0.338416
0.816358 0.652299 0.343612
0.852459 0.655213 0.348552
0.852459 0.655213 0.348552
0.270917 0.648861 0.279030
0.311609 0.651999 0.284375
0.352084 0.655124 0.289707
0.392341 0.658235 0.295027
0.432382 0.661334 0.300334
0.472205 0.664418 0.305629
0.511811 0.667489 0.310910
0.551200 0.670547 0.316178
0.590372 0.673591 0.321433
0.629327 0.676621 0.326674
0.668065 0.679638 0.331901
0.706585 0.682641 0.337114
0.744889 0.685630 0.342312
0.782975 0.688606 0.347497
0.820845 0.691567 0.352666
0.856742 0.694377 0.357580
0.856742 0.694377 0.357580
0.278344 0.689269 0.288381
0.318823 0.692302 0.293703
0.359085 0.695322 0.299013
0.399130 0.698328 0.304310
0.438957 0.701321 0.309593
0.478568 0.704299 0.314864
0.517961 0.707264 0.320121
0.557138 0.710215 0.325365
0.596097 0.713152 0.330595
0.634839 0.716075 0.335811
0.673364 0.718983 0.341012
0.711672 0.721878 0.346199
0.749763 0.724759 0.351372
0.787636 0.727625 0.356529
0.825293 0.730477 0.361672
0.860988 0.733183 0.366560
0.860988 0.733183 0.366560
0.285733 0.729332 0.297691
0.325999 0.732260 0.302990
0.366048 0.735174 0.308276
0.405880 0.738073 0.313550
0.445495 0.740959 0.318810
0.484893 0.743830 0.324056
0.524074 0.746687 0.329288
0.563037 0.749530 0.334507
0.601784 0.752358 0.339711
0.640313 0.755173 0.344901
0.678625 0.757972 0.350077
0.716721 0.760758 0.355237
0.754599 0.763528 0.360383
0.792260 0.766285 0.365513
0.829703 0.769026 0.370628
0.865195 0.771626 0.375489
0.865195 0.771626 0.375489
0.293083 0.769048 0.306959
0.333137 0.771869 0.312235
0.372973 0.774675 0.317497
0.412593 0.777467 0.322746
0.451995 0.780244 0.327982
0.491180 0.783007 0.333203
0.530148 0.785755 0.338410
0.568899 0.788489 0.343603
0.607433 0.791208 0.348781
0.645749 0.793912 0.353944
0.683849 0.796602 0.359093
0.721731 0.799276 0.364226
0.759396 0.801936 0.369344
0.796845 0.804581 0.374446
0.834076 0.807211 0.379533
0.869365 0.809704 0.384367
0.869365 0.809704 0.384367
0.300396 0.808413 0.316185
0.340237 0.811125 0.321436
0.379860 0.813823 0.326674
0.419267 0.816506 0.331898
0.458457 0.819174 0.337108
0.497429 0.821827 0.342304
0.536184 0.824465 0.347485
0.574722 0.827088 0.352651
0.613043 0.829697 0.357803
0.651147 0.832290 0.362939
0.689034 0.834868 0.368060
0.726704 0.837431 0.373165
0.764156 0.839979 0.378255
0.801392 0.842511 0.383328
0.838410 0.845028 0.388386
0.873496 0.847413 0.393192
0.873496 0.847413 0.393192
0.305392 0.835223 0.322491
0.345087 0.837860 0.327725
0.384565 0.840483 0.332946
0.423826 0.843090 0.338153
0.462869 0.845683 0.343345
0.501695 0.848260 0.348522
0.540305 0.850822 0.353685
0.578697 0.853369 0.358833
0.616872 0.855901 0.363965
0.654830 0.858417 0.369083
0.692571 0.860918 0.374184
0.730094 0.863403 0.379270
0.767401 0.865873 0.384340
0.804490 0.868328 0.389393
0.841363 0.870767 0.394431
0.876310 0.873077 0.399217
0.876310 0.873077 0.399217
0.187931 0.183753 0.200822
0.230931 0.187961 0.206346
0.273715 0.192160 0.211861
0.316281 0.196350 0.217367
0.358631 0.200530 0.222864
0.400763 0.204700 0.228351
0.442678 0.208861 0.233829
0.484376 0.213012 0.239298
0.525857 0.217154 0.244756
0.567121 0.221286 0.250204
0.608167 0.225409 0.255642
0.648997 0.229521 0.261069
0.689609 0.233624 0.266485
0.730004 0.237717 0.271890
0.770183 0.241800 0.277285
0.808281 0.245683 0.282416
0.808281 0.245683 0.282416
0.195769 0.227717 0.210497
0.238557 0.231833 0.216005
0.281128 0.235940 0.221504
0.323482 0.240037 0.226993
0.365619 0.244124 0.232473
0.407538 0.248202 0.237943
0.449240 0.252269 0.243403
0.490726 0.256327 0.248853
0.531994 0.260374 0.254293
0.573045 0.264412 0.259722
0.613879 0.268439 0.265140
0.654495 0.272457 0.270548
0.694895 0.276464 0.275944
0.735078 0.280461 0.281329
0.775043 0.284447 0.286702
0.812939 0.288238 0.291813
0.812939 0.288238 0.291813
0.203570 0.271371 0.220143
0.246145 0.275394 0.225634
0.288503 0.279408 0.231116
0.330644 0.283411 0.236588
0.372568 0.287405 0.242050
0.414275 0.291388 0.247502
0.455765 0.295361 0.252943
0.497037 0.299323 0.258375
0.538093 0.303275 0.263795
0.578931 0.307217 0.269205
0.619552 0.311148 0.274603
0.659956 0.315069 0.279990
0.700143 0.318979 0.285366
0.740113 0.322879 0.290729
0.779865 0.326768 0.296081
0.817558 0.330465 0.301172
0.817558 0.330465 0.301172
0.211333 0.314711 0.229758
0.253695 0.318641 0.235232
0.295841 0.322560 0.240696
0.337769 0.326469 0.246150
0.379480 0.330367 0.251594
0.420974 0.334255 0.257027
0.462251 0.338131 0.262449
0.503311 0.341998 0.267861
0.544153 0.345853 0.273262
0.584779 0.349698 0.278651
0.625187 0.353532 0.284029
0.665379 0.357355 0.289395
0.705353 0.361167 0.294749
0.745110 0.364969 0.300091
0.784650 0.368759 0.305420
0.822140 0.372362 0.310489
0.822140 0.372362 0.310489
0.219058 0.357736 0.239342
0.261207 0.361570 0.244798
0.303140 0.365394 0.250244
0.344856 0.369206 0.255679
0.386354 0.373008 0.261104
0.427635 0.376799 0.266517
0.468699 0.380579 0.271920
0.509546 0.384348 0.277311
0.550176 0.388106 0.282691
0.590589 0.391852 0.288060
0.630785 0.395588 0.293416
0.670763 0.399312 0.298760
0.710525 0.403025 0.304092
0.750069 0.406727 0.309412
0.789396 0.410417 0.314719
0.826684 0.413924 0.319766
0.826684 0.413924 0.319766
0.226744 0.400441 0.248893
0.268681 0.404178 0.254331
0.310401 0.407905 0.259757
0.351904 0.411621 0.265173
0.393190 0.415325 0.270578
0.434258 0.419018 0.275971
0.475110 0.422700 0.281353
0.515744 0.426370 0.286724
0.556161 0.430029 0.292083
0.596361 0.433676 0.297429
0.636344 0.437312 0.302764
0.676110 0.440936 0.308086
0.715659 0.444549 0.313395
0.754990 0.448150 0.318692
0.794105 0.451739 0.323975
0.831190 0.455150 0.328999
0.831190 0.455150 0.328999
0.234393 0.442823 0.258411
0.276117 0.446463 0.263828
0.317625 0.450092 0.269235
0.358915 0.453709 0.274631
0.399988 0.457314 0.280015
0.440843 0.460908 0.285388
0.481482 0.464491 0.290749
0.521904 0.468061 0.296098
0.562108 0.471620 0.301435
0.602095 0.475167 0.306759
0.641866 0.478702 0.312071
0.681419 0.482225 0.317370
0.720755 0.485736 0.322656
0.759874 0.489235 0.327929
0.798775 0.492722 0.333188
0.835657 0.496034 0.338189
0.835657 0.496034 0.338189
0.242004 0.484879 0.267892
0.283515 0.488420 0.273290
0.324810 0.491950 0.278677
0.365887 0.495468 0.284052
0.406747 0.498973 0.289415
0.447390 0.502467 0.294766
0.487816 0.505949 0.300106
0.528025 0.509418 0.305432
0.568017 0.512875 0.310747
0.607792 0.516321 0.316048
0.647349 0.519754 0.321337
0.686689 0.523174 0.326612
0.725813 0.526582 0.331874
0.764719 0.529978 0.337122
0.803408 0.533362 0.342357
0.840087 0.536575 0.347334
0.840087 0.536575 0.347334
0.249577 0.526606 0.277338
0.290875 0.530047 0.282715
0.331957 0.533477 0.288081
0.372822 0.536894 0.293434
0.413469 0.540298 0.298776
0.453900 0.543691 0.304105
0.494113 0.547070 0.309422
0.534109 0.550438 0.314726
0.573888 0.553793 0.320017
0.613450 0.557135 0.325294
0.652795 0.560465 0.330559
0.691922 0.563782 0.335810
0.730833 0.567086 0.341047
0.769526 0.570377 0.346271
0.808002 0.573656 0.351480
0.844479 0.576770 0.356432
0.844479 0.576770 0.356432
0.257111 0.568001 0.286746
0.298197 0.571341 0.292102
0.339066 0.574669 0.297446
0.379718 0.577984 0.302777
0.420153 0.581286 0.308096
0.460371 0.584576 0.313403
0.500371 0.587853 0.318696
0.540155 0.591117 0.323977
0.579721 0.594368 0.329244
0.619070 0.597606 0.334497
0.658202 0.600831 0.339737
0.697117 0.604044 0.344963
0.735815 0.607243 0.350175
0.774295 0.610429 0.355373
0.812559 0.613602 0.360556
0.848832 0.616614 0.365483
0.848832 0.616614 0.365483
0.264608 0.609061 0.296115
0.305482 0.612298 0.301449
0.346138 0.615523 0.306771
0.386577 0.618735 0.312079
0.426799 0.621934 0.317375
0.466804 0.625120 0.322658
0.506591 0.628293 0.327928
0.546162 0.631452 0.333184
0.585516 0.634599 0.338427
0.624652 0.637732 0.343655
0.663571 0.640851 0.348870
0.702274 0.643957 0.354070
0.740759 0.647050 0.359256
0.779027 0.650130 0.364427
0.817077 0.653195 0.369584
0.853148 0.656105 0.374485
0.853148 0.656105 0.374485
0.272067 0.649782 0.305444
0.312728 0.652916 0.310756
0.353171 0.656037 0.316054
0.393397 0.659145 0.321340
0.433407 0.662239 0.326612
0.473199 0.665320 0.331871
0.512774 0.668387 0.337116
0.552132 0.671441 0.342347
0.591273 0.674481 0.347565
0.630196 0.677508 0.352768
0.668903 0.680520 0.357956
0.707392 0.683520 0.363130
0.745665 0.686505 0.368289
0.783720 0.689476 0.373433
0.821558 0.692434 0.378562
0.857426 0.695240 0.383437
0.857426 0.695240 0.383437
0.279488 0.690161 0.314732
0.319936 0.693190 0.320020
0.360166 0.696206 0.325295
0.400180 0.699209 0.330557
0.439977 0.702197 0.335804
0.479556 0.705172 0.341038
0.518918 0.708133 0.346259
0.558063 0.711079 0.351464
0.596991 0.714012 0.356656
0.635702 0.716931 0.361833
0.674196 0.719836 0.366995
0.712473 0.722727 0.372142
0.750533 0.725603 0.377273
0.788375 0.728466 0.382390
0.826000 0.731314 0.387491
0.861665 0.734016 0.392338
0.861665 0.734016 0.392338
0.286870 0.730195 0.323978
0.327106 0.733119 0.329242
0.367124 0.736029 0.334493
0.406925 0.738924 0.339729
0.446508 0.741806 0.344952
0.485875 0.744673 0.350161
0.525025 0.747526 0.355355
0.563957 0.750365 0.360535
0.602672 0.753189 0.365699
0.641171 0.755999 0.370849
0.679452 0.758795 0.375984
0.717516 0.761576 0.381103
0.755363 0.764343 0.386207
0.792992 0.767095 0.391295
0.830405 0.769833 0.396367
0.865867 0.772429 0.401187
0.865867 0.772429 0.401187
0.294215 0.769881 0.333180
0.334238 0.772698 0.338420
0.374043 0.775500 0.343645
0.413631 0.778288 0.348856
0.453002 0.781061 0.354053
0.492156 0.783820 0.359236
0.531093 0.786564 0.364404
0.569813 0.789294 0.369557
0.608315 0.792008 0.374694
0.646601 0.794709 0.379817
0.684669 0.797394 0.384923
0.722520 0.800064 0.390014
0.760155 0.802720 0.395089
0.797572 0.805361 0.400148
0.834771 0.807987 0.405191
0.870031 0.810476 0.409982
0.870031 0.810476 0.409982
0.301522 0.809216 0.342338
0.341332 0.811925 0.347552
0.380924 0.814618 0.352752
0.420300 0.817297 0.357937
0.459458 0.819961 0.363107
0.498399 0.822610 0.368263
0.537123 0.825244 0.373404
0.575630 0.827863 0.378529
0.613920 0.830467 0.383639
0.651993 0.833056 0.388733
0.689849 0.835630 0.393811
0.727487 0.838188 0.398873
0.764909 0.840732 0.403919
0.802113 0.843260 0.408948
0.839100 0.845773 0.413961
0.874157 0.848154 0.418723
0.874157 0.848154 0.418723
0.306514 0.836006 0.348596
0.346178 0.838640 0.353792
0.385625 0.841258 0.358974
0.424854 0.843861 0.364141
0.463866 0.846449 0.369293
0.502662 0.849022 0.374430
0.541240 0.851580 0.379552
0.579601 0.854123 0.384658
0.617745 0.856650 0.389748
0.655671 0.859162 0.394822
0.693381 0.861658 0.399880
0.730874 0.864139 0.404922
0.768149 0.866605 0.409947
0.805207 0.869055 0.414956
0.842049 0.871490 0.419947
0.876966 0.873796 0.424689
0.876966 0.873796 0.424689
0.189144 0.184967 0.227780
0.232114 0.189172 0.233282
0.274866 0.193369 0.238775
0.317401 0.197555 0.244258
0.359719 0.201733 0.249731
0.401820 0.205900 0.255195
0.443704 0.210059 0.260648
0.485371 0.214207 0.266091
0.526821 0.218346 0.271523
0.568053 0.222475 0.276945
0.609069 0.226595 0.282356
0.649867 0.230705 0.287755
0.690449 0.234805 0.293143
0.730813 0.238895 0.298520
0.770960 0.242975 0.303885
0.809028 0.246855 0.308988
0.809028 0.246855 0.308988
0.196977 0.228906 0.237414
0.239734 0.233019 0.242899
0.282273 0.237123 0.248374
0.324596 0.241218 0.253840
0.366701 0.245302 0.259295
0.408590 0.249377 0.264740
0.450261 0.253441 0.270174
0.491715 0.257496 0.275598
0.532952 0.261541 0.281011
0.573972 0.265575 0.286412
0.614774 0.269600 0.291803
0.655360 0.273614 0.297181
0.695729 0.277618 0.302548
0.735880 0.281612 0.307903
0.775814 0.285596 0.313246
0.813680 0.289384 0.318328
0.813680 0.289384 0.318328
0.204772 0.272534 0.247017
0.247316 0.276555 0.252484
0.289643 0.280565 0.257941
0.331753 0.284566 0.263388
0.373645 0.288556 0.268825
0.415321 0.292536 0.274250
0.456779 0.296506 0.279665
0.498021 0.300466 0.285069
0.539045 0.304415 0.290461
0.579852 0.308354 0.295842
0.620442 0.312282 0.301211
0.660815 0.316200 0.306569
0.700971 0.320107 0.311914
0.740909 0.324004 0.317247
0.780631 0.327890 0.322567
0.818294 0.331584 0.327627
0.818294 0.331584 0.327627
0.212529 0.315849 0.256587
0.254860 0.319776 0.262036
0.296974 0.323692 0.267475
0.338871 0.327597 0.272902
0.380551 0.331492 0.278319
0.422014 0.335377 0.283725
0.463260 0.339251 0.289120
0.504288 0.343114 0.294503
0.545100 0.346967 0.299874
0.585694 0.350808 0.305234
0.626072 0.354639 0.310581
0.666232 0.358459 0.315917
0.706175 0.362268 0.321239
0.745901 0.366066 0.326549
0.785409 0.369854 0.331847
0.822870 0.373454 0.336884
0.822870 0.373454 0.336884
0.220247 0.358847 0.266124
0.262366 0.362678 0.271554
0.304268 0.366499 0.276973
0.345952 0.370308 0.282381
0.387419 0.374107 0.287778
0.428669 0.377895 0.293163
0.469702 0.381672 0.298537
0.510518 0.385437 0.303898
0.551117 0.389192 0.309248
0.591499 0.392935 0.314586
0.631663 0.396668 0.319911
0.671611 0.400389 0.325223
0.711341 0.404099 0.330523
0.750854 0.407797 0.335810
0.790150 0.411484 0.341083
0.827408 0.414988 0.346097
0.827408 0.414988 0.346097
0.227928 0.401525 0.275626
0.269834 0.405260 0.281036
0.311523 0.408984 0.286435
0.352995 0.412696 0.291823
0.394249 0.416397 0.297199
0.435286 0.420087 0.302563
0.476107 0.423765 0.307915
0.516710 0.427432 0.313255
0.557096 0.431088 0.318582
0.597265 0.434732 0.323897
0.637217 0.438365 0.329199
0.676951 0.441985 0.334488
0.716469 0.445595 0.339764
0.755769 0.449192 0.345027
0.794853 0.452778 0.350275
0.831908 0.456186 0.355266
0.831908 0.456186 0.355266
0.235571 0.443881 0.285093
0.277264 0.447518 0.290482
0.318740 0.451143 0.295860
0.359999 0.454757 0.301227
0.401041 0.458359 0.306581
0.441866 0.461950 0.311923
0.482473 0.465529 0.317253
0.522864 0.469096 0.322570
0.563037 0.472651 0.327875
0.602993 0.476195 0.333166
0.642732 0.479726 0.338445
0.682254 0.483246 0.343710
0.721559 0.486754 0.348961
0.760647 0.490249 0.354199
0.799517 0.493733 0.359423
0.836369 0.497042 0.364389
0.836369 0.497042 0.364389
0.243176 0.485910 0.294521
0.284656 0.489448 0.299890
0.325920 0.492974 0.305247
0.366966 0.496489 0.310591
0.407795 0.499991 0.315923
0.448407 0.503481 0.321243
0.488802 0.506959 0.326550
0.528979 0.510425 0.331844
0.568940 0.513879 0.337125
0.608683 0.517321 0.342393
0.648210 0.520750 0.347647
0.687519 0.524167 0.352887
0.726611 0.527572 0.358113
0.765486 0.530965 0.363325
0.804144 0.534344 0.368523
0.840793 0.537555 0.373464
0.840793 0.537555 0.373464
0.250743 0.527610 0.303912
0.292011 0.531048 0.309259
0.333061 0.534473 0.314593
0.373895 0.537887 0.319915
0.414511 0.541288 0.325225
0.454910 0.544677 0.330521
0.495092 0.548053 0.335805
0.535057 0.551417 0.341075
0.574805 0.554768 0.346332
0.614336 0.558107 0.351574
0.653649 0.561433 0.356803
0.692746 0.564746 0.362018
0.731625 0.568047 0.367219
0.770287 0.571335 0.372405
0.808733 0.574610 0.377576
0.845179 0.577720 0.382492
0.845179 0.577720 0.382492
0.258272 0.568977 0.313263
0.299327 0.572314 0.318587
0.340165 0.575638 0.323899
0.380785 0.578949 0.329198
0.421189 0.582248 0.334484
0.461375 0.585534 0.339757
0.501345 0.588807 0.345016
0.541097 0.592068 0.350261
0.580632 0.595315 0.355493
0.619950 0.598550 0.360711
0.659051 0.601771 0.365914
0.697935 0.604980 0.371103
0.736601 0.608175 0.376277
0.775051 0.611357 0.381436
0.813283 0.614527 0.386580
0.849527 0.617535 0.391470
0.849527 0.617535 0.391470
0.265763 0.610008 0.322573
0.306605 0.613243 0.327875
0.347230 0.616464 0.333163
0.387638 0.619672 0.338438
0.427829 0.622867 0.343700
0.467802 0.626050 0.348948
0.507559 0.629219 0.354182
0.547099 0.632374 0.359403
0.586421 0.635517 0.364609
0.625526 0.638646 0.369800
0.664414 0.641762 0.374977
0.703085 0.644864 0.380139
0.741539 0.647953 0.385286
0.779776 0.651029 0.390418
0.817796 0.654091 0.395534
0.853837 0.656997 0.400397
0.853837 0.656997 0.400397
0.273216 0.650701 0.331841
0.313845 0.653832 0.337119
0.354257 0.656949 0.342384
0.394453 0.660053 0.347634
0.434431 0.663143 0.352871
0.474192 0.666220 0.358094
0.513736 0.669284 0.363303
0.553062 0.672334 0.368497
0.592172 0.675370 0.373677
0.631065 0.678393 0.378842
0.669740 0.681402 0.383992
0.708198 0.684397 0.389126
0.746439 0.687378 0.394246
0.784463 0.690346 0.399349
0.822270 0.693300 0.404437
0.858109 0.696102 0.409272
0.858109 0.696102 0.409272
0.280630 0.691052 0.341067
0.321047 0.694077 0.346320
0.361247 0.697089 0.351560
0.401229 0.700088 0.356785
0.440995 0.703072 0.361997
0.480543 0.706043 0.367194
0.519874 0.709000 0.372376
0.558988 0.711943 0.377544
0.597885 0.714872 0.382697
0.636565 0.717787 0.387834
0.675027 0.720688 0.392957
0.713273 0.723574 0.398063
0.751301 0.726447 0.403154
0.789113 0.729305 0.408229
0.826707 0.732150 0.413287
0.862342 0.734848 0.418094
0.862342 0.734848 0.418094
0.288007 0.731057 0.350247
0.328211 0.733977 0.355476
0.368198 0.736882 0.360690
0.407968 0.739774 0.365890
0.447521 0.742651 0.371075
0.486856 0.745515 0.376246
0.525975 0.748364 0.381401
0.564876 0.751198 0.386542
0.603560 0.754019 0.391667
0.642027 0.756825 0.396777
0.680277 0.759617 0.401870
0.718310 0.762394 0.406948
0.756126 0.765156 0.412010
0.793724 0.767904 0.417055
0.831106 0.770638 0.422084
0.866538 0.773230 0.426862
0.866538 0.773230 0.426862
0.295346 0.770714 0.359383
0.335337 0.773526 0.364585
0.375112 0.776325 0.369773
0.414669 0.779108 0.374947
0.454009 0.781877 0.380105
0.493131 0.784632 0.385249
0.532037 0.787372 0.390377
0.570726 0.790097 0.395489
0.609197 0.792808 0.400586
0.647451 0.795504 0.405667
0.685489 0.798185 0.410732
0.723309 0.800851 0.415781
0.760912 0.803503 0.420813
0.798298 0.806139 0.425828
0.835466 0.808761 0.430826
0.870696 0.811246 0.435575
0.870696 0.811246 0.435575
0.302647 0.810019 0.368471
0.342426 0.812723 0.373647
0.381987 0.815413 0.378809
0.421331 0.818087 0.383955
0.460459 0.820747 0.389086
0.499369 0.823392 0.394202
0.538062 0.826022 0.399302
0.576537 0.828636 0.404386
0.614796 0.831236 0.409454
0.652838 0.833821 0.414505
0.690662 0.836390 0.419540
0.728270 0.838945 0.424559
0.765660 0.841484 0.429560
0.802833 0.844008 0.434545
0.839789 0.846516 0.439512
0.874816 0.848893 0.444231
0.874816 0.848893 0.444231
0.307636 0.836788 0.374681
0.347268 0.839417 0.379839
0.386684 0.842032 0.384981
0.425882 0.844631 0.390108
0.464863 0.847214 0.395220
0.503627 0.849783 0.400316
0.542174 0.852337 0.405397
0.580504 0.854875 0.410461
0.618617 0.857398 0.415508
0.656512 0.859905 0.420539
0.694191 0.862398 0.425554
0.731652 0.864874 0.430551
0.768896 0.867336 0.435532
0.805923 0.869781 0.440495
0.842733 0.872212 0.445440
0.877621 0.874514 0.450138
0.877621 0.874514 0.450138
0.190356 0.186180 0.254727
0.233295 0.190383 0.260207
0.276016 0.194576 0.265677
0.318520 0.198760 0.271137
0.360807 0.202935 0.276586
0.402877 0.207100 0.282025
0.444730 0.211255 0.287454
0.486365 0.215401 0.292871
0.527784 0.219537 0.298277
0.568985 0.223664 0.303672
0.609970 0.227781 0.309056
0.650737 0.231888 0.314427
0.691287 0.235985 0.319787
0.731620 0.240072 0.325135
0.771736 0.244149 0.330470
0.809775 0.248027 0.335544
0.809775 0.248027 0.335544
0.198183 0.230094 0.264320
