app/src/main/assets/luts/era_1950s.cube
TITLE "Generation Camera 1950s"
LUT_3D_SIZE 5
DOMAIN_MIN 0.0 0.0 0.0
DOMAIN_MAX 1.0 1.0 1.0
0.020000 0.020000 0.020000
0.322272 0.020000 0.020000
0.718890 0.020000 0.020000
0.970000 0.020000 0.020000
0.970000 0.020000 0.020000
0.020000 0.249313 0.020000
0.266684 0.221552 0.020000
0.663989 0.193669 0.020000
0.968640 0.166900 0.020000
0.970000 0.154701 0.020000
0.020000 0.567379 0.020000
0.212983 0.537219 0.020000
0.605347 0.504554 0.020000
0.937723 0.471792 0.020000
0.970000 0.455283 0.020000
0.020000 0.860145 0.020000
0.162753 0.837971 0.020000
0.545376 0.812083 0.020000
0.900602 0.784836 0.020000
0.970000 0.769735 0.020000
0.020000 0.970000 0.020000
0.118609 0.970000 0.020000
0.486246 0.970000 0.020000
0.858486 0.970000 0.020000
0.970000 0.970000 0.020000
0.020000 0.020000 0.251990
0.300431 0.020000 0.219954
0.697785 0.020000 0.188328
0.970000 0.020000 0.158179
0.970000 0.020000 0.143780
0.020000 0.242446 0.219875
0.245673 0.215850 0.190748
0.641892 0.188405 0.161206
0.957794 0.162078 0.133214
0.970000 0.149362 0.119265
0.020000 0.559733 0.189005
0.193165 0.530532 0.162056
0.582496 0.498055 0.134016
0.924360 0.465569 0.107679
0.970000 0.448263 0.093926
0.020000 0.854407 0.159537
0.144504 0.832738 0.134819
0.522042 0.806634 0.108429
0.884965 0.779390 0.083895
0.970000 0.763474 0.070535
0.020000 0.970000 0.134176
0.102129 0.970000 0.110934
0.462831 0.970000 0.085611
0.840843 0.970000 0.062392
0.970000 0.970000 0.049250
0.020000 0.020000 0.573300
0.278690 0.020000 0.538170
0.675817 0.020000 0.500863
0.970000 0.020000 0.463530
0.970000 0.020000 0.444000
0.020000 0.235630 0.537082
0.225030 0.210103 0.503782
0.619176 0.182879 0.467365
0.945663 0.156797 0.431068
0.970000 0.143448 0.411224
0.020000 0.552075 0.500681
0.173918 0.523839 0.468438
0.559285 0.491351 0.432135
0.909846 0.458876 0.396105
0.970000 0.440591 0.375411
0.020000 0.848592 0.464255
0.126934 0.827452 0.433203
0.498619 0.801103 0.397162
0.868349 0.773639 0.361546
0.970000 0.756728 0.340118
0.020000 0.970000 0.431354
0.086433 0.970000 0.400675
0.439473 0.970000 0.364115
0.822425 0.970000 0.328154
0.970000 0.970000 0.305503
0.020000 0.020000 0.866726
0.257347 0.020000 0.840955
0.653520 0.020000 0.811305
0.963233 0.020000 0.780125
0.970000 0.020000 0.762347
0.020000 0.228866 0.839338
0.204892 0.204399 0.813680
0.596236 0.177402 0.783397
0.932580 0.151569 0.751803
0.970000 0.137607 0.733033
0.020000 0.544406 0.810340
0.155284 0.517141 0.784309
0.535960 0.484647 0.752752
0.894488 0.452189 0.720035
0.970000 0.432929 0.699679
0.020000 0.842704 0.779891
0.110087 0.822113 0.753700
0.475190 0.795526 0.721015
0.850998 0.767845 0.687325
0.970000 0.749930 0.665418
0.020000 0.970000 0.751173
0.071563 0.970000 0.724263
0.416214 0.970000 0.689802
0.803379 0.970000 0.654437
0.970000 0.970000 0.630408
0.020000 0.020000 0.970000
0.236442 0.020000 0.970000
0.630936 0.020000 0.970000
0.951571 0.020000 0.970000
0.970000 0.020000 0.970000
0.020000 0.222156 0.970000
0.185301 0.198740 0.970000
0.573114 0.171974 0.970000
0.918587 0.146395 0.970000
0.970000 0.131842 0.967486
0.020000 0.536728 0.970000
0.137305 0.510441 0.970000
0.512561 0.477945 0.970000
0.878328 0.445508 0.961197
0.970000 0.425279 0.949525
0.020000 0.836742 0.970000
0.094002 0.816724 0.970000
0.451797 0.789901 0.961716
0.832954 0.762009 0.942960
0.970000 0.743081 0.929231
0.020000 0.970000 0.970000
0.057561 0.970000 0.963424
0.393097 0.970000 0.944401
0.783749 0.970000 0.922969
0.970000 0.970000 0.906760
