app/src/main/assets/luts/era_2020s.cube
TITLE "Generation Camera 2020s"
LUT_3D_SIZE 5
DOMAIN_MIN 0.0 0.0 0.0
DOMAIN_MAX 1.0 1.0 1.0
0.000000 0.000000 0.000000
0.249442 0.000000 0.000000
0.522290 0.000000 0.000000
0.793082 0.000000 0.000000
1.000000 0.000000 0.000000
0.000000 0.245045 0.000000
0.240486 0.240486 0.000000
0.512958 0.235935 0.000000
0.784235 0.231391 0.000000
1.000000 0.226854 0.000000
0.000000 0.513133 0.000000
0.231558 0.508379 0.000000
0.503625 0.503625 0.000000
0.775358 0.498871 0.000000
1.000000 0.494117 0.000000
0.000000 0.780050 0.000000
0.222658 0.775525 0.000000
0.494292 0.770992 0.000000
0.766452 0.766452 0.000000
1.000000 0.761905 0.000000
0.000000 1.000000 0.000000
0.213788 1.000000 0.000000
0.484959 1.000000 0.000000
0.757517 1.000000 0.000000
1.000000 1.000000 0.000000
0.000000 0.000000 0.252271
0.247701 0.000000 0.247701
0.520477 0.000000 0.243138
0.791366 0.000000 0.238583
1.000000 0.000000 0.234034
0.000000 0.243306 0.243306
0.238750 0.238750 0.238750
0.511146 0.234201 0.234201
0.782514 0.229660 0.229660
1.000000 0.225126 0.225126
0.000000 0.511321 0.234369
0.229827 0.506567 0.229827
0.501813 0.501813 0.225293
0.773631 0.497059 0.220767
1.000000 0.492304 0.216248
0.000000 0.778326 0.225460
0.220933 0.773798 0.220933
0.492479 0.769262 0.216414
0.764719 0.764719 0.211903
1.000000 0.760169 0.207400
0.000000 1.000000 0.216580
0.212069 1.000000 0.212069
0.483147 1.000000 0.207565
0.755779 1.000000 0.203070
1.000000 1.000000 0.198583
0.000000 0.000000 0.528170
0.245960 0.000000 0.523418
0.518665 0.000000 0.518665
0.789649 0.000000 0.513912
1.000000 0.000000 0.509158
0.000000 0.241568 0.518840
0.237015 0.237015 0.514087
0.509333 0.232469 0.509333
0.780791 0.227931 0.504579
1.000000 0.223400 0.499825
0.000000 0.509508 0.509508
0.228097 0.504754 0.504754
0.500000 0.500000 0.500000
0.771903 0.495246 0.495246
1.000000 0.490492 0.490492
0.000000 0.776600 0.500175
0.219209 0.772069 0.495421
0.490667 0.767531 0.490667
0.762985 0.762985 0.485913
1.000000 0.758432 0.481160
0.000000 1.000000 0.490842
0.210351 1.000000 0.486088
0.481335 1.000000 0.481335
0.754040 1.000000 0.476582
1.000000 1.000000 0.471830
0.000000 0.000000 0.801417
0.244221 0.000000 0.796930
0.516853 0.000000 0.792435
0.787931 0.000000 0.787931
1.000000 0.000000 0.783420
0.000000 0.239831 0.792600
0.235281 0.235281 0.788097
0.507521 0.230738 0.783586
0.779067 0.226202 0.779067
1.000000 0.221674 0.774540
0.000000 0.507696 0.783752
0.226369 0.502941 0.779233
0.498187 0.498187 0.774707
0.770173 0.493433 0.770173
1.000000 0.488679 0.765631
0.000000 0.774874 0.774874
0.217486 0.770340 0.770340
0.488854 0.765799 0.765799
0.761250 0.761250 0.761250
1.000000 0.756694 0.756694
0.000000 1.000000 0.765966
0.208634 1.000000 0.761417
0.479523 1.000000 0.756862
0.752299 1.000000 0.752299
1.000000 1.000000 0.747729
0.000000 0.000000 1.000000
0.242483 0.000000 1.000000
0.515041 0.000000 1.000000
0.786212 0.000000 1.000000
1.000000 0.000000 1.000000
0.000000 0.238095 1.000000
0.233548 0.233548 1.000000
0.505708 0.229008 1.000000
0.777342 0.224475 1.000000
1.000000 0.219950 1.000000
0.000000 0.505883 1.000000
0.224642 0.501129 1.000000
0.496375 0.496375 1.000000
0.768442 0.491621 1.000000
1.000000 0.486867 1.000000
0.000000 0.773146 1.000000
0.215765 0.768609 1.000000
0.487042 0.764065 1.000000
0.759514 0.759514 1.000000
1.000000 0.754955 1.000000
0.000000 1.000000 1.000000
0.206918 1.000000 1.000000
0.477710 1.000000 1.000000
0.750558 1.000000 1.000000
1.000000 1.000000 1.000000
