app/src/main/assets/luts/era_2010s.cube
TITLE "Generation Camera 2010s"
LUT_3D_SIZE 9
DOMAIN_MIN 0.0 0.0 0.0
DOMAIN_MAX 1.0 1.0 1.0
0.024529 0.024529 0.024529
0.145649 0.020835 0.020835
0.281262 0.017164 0.017164
0.425584 0.013515 0.013515
0.572829 0.009889 0.009889
0.717213 0.006287 0.006287
0.852951 0.002707 0.002707
0.974259 0.000000 0.000000
1.000000 0.000000 0.000000
0.017440 0.139090 0.017440
0.137440 0.134842 0.013789
0.272303 0.130611 0.010162
0.416242 0.126397 0.006557
0.563474 0.122199 0.002976
0.708212 0.118018 0.000000
0.844674 0.113855 0.000000
0.967073 0.109709 0.000000
1.000000 0.106227 0.000000
0.010434 0.266972 0.010434
0.129292 0.262343 0.006828
0.263380 0.257725 0.003244
0.406914 0.253117 0.000000
0.554108 0.248520 0.000000
0.699178 0.243934 0.000000
0.836339 0.239359 0.000000
0.959807 0.234796 0.000000
1.000000 0.230958 0.000000
0.003513 0.403230 0.003513
0.121205 0.398392 0.000000
0.254496 0.393559 0.000000
0.397600 0.388730 0.000000
0.544734 0.383906 0.000000
0.690112 0.379088 0.000000
0.827949 0.374274 0.000000
0.952462 0.369466 0.000000
1.000000 0.365416 0.000000
0.000000 0.542916 0.000000
0.113182 0.538042 0.000000
0.245651 0.533167 0.000000
0.388303 0.528290 0.000000
0.535353 0.523412 0.000000
0.681015 0.518532 0.000000
0.819505 0.513652 0.000000
0.945039 0.508772 0.000000
1.000000 0.504656 0.000000
0.000000 0.681086 0.000000
0.105223 0.676348 0.000000
0.236848 0.671602 0.000000
0.379024 0.666850 0.000000
0.525966 0.662089 0.000000
0.671889 0.657322 0.000000
0.811009 0.652548 0.000000
0.937540 0.647768 0.000000
1.000000 0.643732 0.000000
0.000000 0.812792 0.000000
0.097331 0.808362 0.000000
0.228088 0.803919 0.000000
0.369764 0.799463 0.000000
0.516575 0.794994 0.000000
0.662735 0.790511 0.000000
0.802461 0.786015 0.000000
0.929967 0.781507 0.000000
1.000000 0.777697 0.000000
0.000000 0.933088 0.000000
0.089506 0.929139 0.000000
0.219372 0.925172 0.000000
0.360525 0.921184 0.000000
0.507181 0.917178 0.000000
0.653555 0.913152 0.000000
0.793864 0.909108 0.000000
0.922320 0.905045 0.000000
1.000000 0.901605 0.000000
0.000000 1.000000 0.000000
0.081751 1.000000 0.000000
0.210701 1.000000 0.000000
0.351308 1.000000 0.000000
0.497786 1.000000 0.000000
0.644351 1.000000 0.000000
0.785218 1.000000 0.000000
0.914602 1.000000 0.000000
1.000000 1.000000 0.000000
0.023174 0.023174 0.143124
0.144082 0.019488 0.138862
0.279554 0.015825 0.134615
0.423805 0.012184 0.130385
0.571049 0.008567 0.126171
0.715503 0.004973 0.121974
0.851380 0.001402 0.117795
0.972897 0.000000 0.113632
1.000000 0.000000 0.110136
0.016100 0.137532 0.134934
0.135885 0.133291 0.130703
0.270602 0.129065 0.126488
0.414465 0.124857 0.122290
0.561692 0.120666 0.118109
0.706496 0.116491 0.113945
0.843092 0.112334 0.109798
0.965696 0.108195 0.105670
1.000000 0.104718 0.102203
0.009110 0.265275 0.126804
0.127748 0.260650 0.122605
0.261686 0.256036 0.118423
0.405140 0.251432 0.114258
0.552324 0.246839 0.110110
0.697455 0.242257 0.105980
0.834747 0.237686 0.101868
0.958415 0.233127 0.097774
1.000000 0.229293 0.094336
0.002206 0.401457 0.118737
0.119673 0.396621 0.114571
0.252809 0.391790 0.110422
0.395829 0.386963 0.106290
0.542949 0.382141 0.102177
0.688383 0.377324 0.098081
0.826346 0.372512 0.094004
0.951055 0.367706 0.089945
1.000000 0.363658 0.086538
0.000000 0.541131 0.110733
0.111662 0.536257 0.106601
0.243972 0.531380 0.102486
0.386536 0.526503 0.098389
0.533566 0.521624 0.094310
0.679280 0.516745 0.090250
0.817892 0.511864 0.086209
0.943618 0.506984 0.082186
1.000000 0.502868 0.078809
0.000000 0.679351 0.102795
0.103716 0.674610 0.098697
0.235177 0.669862 0.094617
0.377260 0.665107 0.090555
0.524179 0.660344 0.086512
0.670149 0.655574 0.082488
0.809386 0.650798 0.078483
0.936105 0.646015 0.074498
1.000000 0.641977 0.071152
0.000000 0.811171 0.094923
0.095837 0.806736 0.090860
0.226425 0.802289 0.086816
0.368004 0.797827 0.082791
0.514787 0.793353 0.078784
0.660990 0.788866 0.074797
0.800828 0.784366 0.070830
0.928517 0.779853 0.066882
1.000000 0.776039 0.063568
0.000000 0.931644 0.087120
0.088025 0.927688 0.083093
0.217718 0.923713 0.079085
0.358769 0.919719 0.075097
0.505393 0.915705 0.071128
0.651806 0.911673 0.067178
0.792222 0.907622 0.063248
0.920857 0.903552 0.059339
1.000000 0.900106 0.056058
0.000000 1.000000 0.079386
0.080283 1.000000 0.075396
0.209057 1.000000 0.071426
0.349556 1.000000 0.067475
0.495998 1.000000 0.063544
0.642597 1.000000 0.059633
0.783567 1.000000 0.055742
0.913126 1.000000 0.051871
1.000000 1.000000 0.048624
0.021821 0.021821 0.275761
0.142517 0.018143 0.271113
0.277847 0.014489 0.266475
0.422026 0.010857 0.261847
0.569269 0.007248 0.257230
0.713791 0.003662 0.252623
0.849807 0.000099 0.248027
0.971533 0.000000 0.243443
1.000000 0.000000 0.239586
0.014763 0.135976 0.266824
0.134331 0.131741 0.262195
0.268902 0.127522 0.257577
0.412690 0.123320 0.252970
0.559910 0.119134 0.248373
0.704777 0.114966 0.243787
0.841508 0.110816 0.239213
0.964317 0.106683 0.234650
1.000000 0.103212 0.230812
0.007790 0.263580 0.257924
0.126206 0.258959 0.253316
0.259994 0.254348 0.248719
0.403367 0.249748 0.244132
0.550541 0.245159 0.239557
0.695731 0.240581 0.234993
0.833152 0.236015 0.230441
0.957020 0.231460 0.225901
1.000000 0.227629 0.222082
0.000902 0.399685 0.249064
0.118144 0.394851 0.244477
0.251124 0.390021 0.239901
0.394059 0.385196 0.235336
0.541164 0.380375 0.230783
0.686653 0.375560 0.226242
0.824742 0.370751 0.221713
0.949645 0.365947 0.217196
1.000000 0.361901 0.213397
0.000000 0.539346 0.240245
0.110145 0.534471 0.235680
0.242295 0.529594 0.231126
0.384769 0.524716 0.226583
0.531780 0.519837 0.222053
0.677544 0.514957 0.217536
0.816277 0.510077 0.213030
0.942193 0.505196 0.208537
1.000000 0.501080 0.204759
0.000000 0.677615 0.231468
0.102211 0.672872 0.226925
0.233508 0.668121 0.222394
0.375497 0.663363 0.217875
0.522391 0.658597 0.213369
0.668408 0.653825 0.208875
0.807761 0.649046 0.204394
0.934666 0.644261 0.199926
1.000000 0.640222 0.196170
0.000000 0.809548 0.222735
0.094345 0.805109 0.218215
0.224765 0.800656 0.213708
0.366244 0.796190 0.209213
0.512999 0.791711 0.204731
0.659244 0.787219 0.200262
0.799194 0.782714 0.195807
0.927065 0.778197 0.191365
1.000000 0.774379 0.187630
0.000000 0.930197 0.214047
0.086546 0.926234 0.209551
0.216066 0.922252 0.205068
0.357014 0.918251 0.200598
0.503605 0.914230 0.196142
0.650055 0.910191 0.191699
0.790578 0.906133 0.187269
0.919391 0.902056 0.182854
1.000000 0.898605 0.179142
0.000000 1.000000 0.205405
0.078818 1.000000 0.200934
0.207413 1.000000 0.196477
0.347806 1.000000 0.192033
0.494210 1.000000 0.187602
0.640841 1.000000 0.183186
0.781915 1.000000 0.178783
0.911646 1.000000 0.174395
1.000000 1.000000 0.170706
0.020471 0.020471 0.416986
0.140955 0.016802 0.412137
0.276142 0.013155 0.407292
0.420248 0.009532 0.402451
0.567489 0.005931 0.397614
0.712078 0.002354 0.392781
0.848232 0.000000 0.387953
0.970166 0.000000 0.383130
1.000000 0.000000 0.379068
0.013429 0.134423 0.407657
0.132780 0.130193 0.402815
0.267203 0.125981 0.397978
0.410914 0.121785 0.393145
0.558127 0.117606 0.388317
0.703058 0.113444 0.383493
0.839922 0.109300 0.378675
0.962934 0.105173 0.373862
1.000000 0.101708 0.369808
0.006472 0.261886 0.398342
0.124667 0.257269 0.393509
0.258302 0.252662 0.388680
0.401594 0.248066 0.383856
0.548757 0.243481 0.379037
0.694005 0.238907 0.374224
0.831556 0.234345 0.369416
0.955623 0.229795 0.364613
1.000000 0.225967 0.360568
0.000000 0.397914 0.389043
0.116616 0.393081 0.384219
0.249441 0.388253 0.379400
0.392290 0.383429 0.374586
0.539378 0.378611 0.369777
0.684921 0.373798 0.364974
0.823135 0.368990 0.360177
0.948233 0.364188 0.355386
1.000000 0.360144 0.351352
0.000000 0.537560 0.379763
0.108630 0.532684 0.374948
0.240620 0.527807 0.370139
0.383003 0.522929 0.365336
0.529993 0.518049 0.360538
0.675808 0.513169 0.355747
0.814660 0.508289 0.350961
0.940767 0.503408 0.346183
1.000000 0.499292 0.342158
0.000000 0.675879 0.370501
0.100709 0.671132 0.365697
0.231841 0.666379 0.360899
0.373734 0.661618 0.356107
0.520604 0.656850 0.351321
0.666666 0.652075 0.346542
0.806134 0.647294 0.341769
0.933225 0.642507 0.337003
1.000000 0.638465 0.332991
0.000000 0.807923 0.361260
0.092855 0.803479 0.356468
0.223106 0.799021 0.351681
0.364486 0.794551 0.346902
0.511211 0.790067 0.342128
0.657497 0.785570 0.337362
0.797558 0.781061 0.332603
0.925610 0.776539 0.327851
1.000000 0.772717 0.323850
0.000000 0.928748 0.352042
0.085070 0.924778 0.347261
0.214415 0.920789 0.342488
0.355259 0.916780 0.337721
0.501817 0.912753 0.332961
0.648303 0.908707 0.328208
0.788933 0.904642 0.323463
0.917922 0.900558 0.318725
1.000000 0.897101 0.314737
0.000000 1.000000 0.342847
0.077355 1.000000 0.338079
0.205772 1.000000 0.333319
0.346056 1.000000 0.328566
0.492422 1.000000 0.323820
0.639085 1.000000 0.319082
0.780261 1.000000 0.314352
0.910164 1.000000 0.309629
1.000000 1.000000 0.305654
0.019124 0.019124 0.561348
0.139394 0.015464 0.556482
0.274438 0.011825 0.551613
0.418471 0.008210 0.546743
0.565708 0.004618 0.541870
0.710364 0.001050 0.536996
0.846655 0.000000 0.532120
0.968796 0.000000 0.527243
1.000000 0.000000 0.523130
0.012099 0.132872 0.551980
0.131231 0.128648 0.547110
0.265506 0.124442 0.542237
0.409139 0.120252 0.537363
0.556344 0.116079 0.532487
0.701338 0.111924 0.527610
0.838334 0.107786 0.522732
0.961549 0.103666 0.517852
1.000000 0.100206 0.513738
0.005158 0.260193 0.542604
0.123130 0.255580 0.537730
0.256613 0.250977 0.532854
0.399822 0.246385 0.527977
0.546972 0.241804 0.523099
0.692279 0.237235 0.518220
0.829957 0.232677 0.513339
0.954222 0.228131 0.508459
1.000000 0.224307 0.504343
0.000000 0.396143 0.533221
0.115091 0.391312 0.528344
0.247759 0.386485 0.523466
0.390521 0.381664 0.518587
0.537592 0.376847 0.513707
0.683189 0.372036 0.508826
0.821526 0.367230 0.503945
0.946818 0.362431 0.499064
1.000000 0.358388 0.494949
0.000000 0.535774 0.523833
0.107117 0.530898 0.518954
0.238946 0.526020 0.514074
0.381237 0.521141 0.509194
0.528207 0.516262 0.504313
0.674070 0.511381 0.499432
0.813042 0.506501 0.494550
0.939337 0.501620 0.489669
1.000000 0.497504 0.485554
0.000000 0.674141 0.514442
0.099209 0.669392 0.509561
0.230175 0.664636 0.504680
0.371972 0.659872 0.499799
0.518817 0.655102 0.494918
0.664923 0.650325 0.490037
0.804506 0.645541 0.485156
0.931781 0.640751 0.480276
1.000000 0.636708 0.476163
0.000000 0.806297 0.505048
0.091368 0.801848 0.500166
0.221448 0.797385 0.495285
0.362728 0.792909 0.490404
0.509423 0.788421 0.485524
0.655749 0.783920 0.480644
0.795920 0.779406 0.475765
0.924152 0.774879 0.470887
1.000000 0.771054 0.466775
0.000000 0.927296 0.495653
0.083596 0.923319 0.490772
0.212767 0.919323 0.485891
0.353506 0.915307 0.481011
0.500029 0.911273 0.476132
0.646550 0.907220 0.471254
0.787286 0.903148 0.466377
0.916451 0.899058 0.461501
1.000000 0.895595 0.457392
0.000000 1.000000 0.486259
0.075895 1.000000 0.481379
0.204132 1.000000 0.476499
0.344307 1.000000 0.471621
0.490634 1.000000 0.466744
0.637328 1.000000 0.461868
0.778605 1.000000 0.456995
0.908680 1.000000 0.452122
1.000000 1.000000 0.448016
0.017781 0.017781 0.703394
0.137836 0.014128 0.698695
0.272735 0.010498 0.693987
0.416694 0.006892 0.689272
0.563926 0.003308 0.684547
0.708649 0.000000 0.679815
0.845076 0.000000 0.675075
0.967423 0.000000 0.670328
1.000000 0.000000 0.666319
0.010771 0.131323 0.694342
0.129685 0.127105 0.689627
0.263811 0.122905 0.684903
0.407365 0.118721 0.680172
0.554561 0.114555 0.675432
0.699616 0.110406 0.670686
0.836744 0.106275 0.665931
0.960160 0.102161 0.661170
1.000000 0.098707 0.657150
0.003846 0.258502 0.685259
0.121595 0.253892 0.680528
0.254925 0.249294 0.675790
0.398050 0.244706 0.671043
0.545188 0.240129 0.666289
0.690551 0.235564 0.661528
0.828357 0.231010 0.656760
0.952819 0.226468 0.651986
1.000000 0.222648 0.647955
0.000000 0.394373 0.676147
0.113569 0.389543 0.671401
0.246078 0.384718 0.666648
0.388752 0.379899 0.661887
0.535807 0.375084 0.657120
0.681456 0.370275 0.652345
0.819915 0.365471 0.647564
0.945400 0.360674 0.642777
1.000000 0.356633 0.638736
0.000000 0.533988 0.667006
0.105607 0.529111 0.662246
0.237273 0.524233 0.657479
0.379472 0.519354 0.652705
0.526420 0.514474 0.647925
0.672331 0.509594 0.643138
0.811421 0.504713 0.638345
0.937905 0.499831 0.633546
1.000000 0.495716 0.629495
0.000000 0.672402 0.657838
0.097711 0.667650 0.653065
0.228510 0.662892 0.648285
0.370211 0.658126 0.643498
0.517029 0.653353 0.638706
0.663179 0.648573 0.633907
0.802876 0.643787 0.629103
0.930335 0.638995 0.624293
1.000000 0.634950 0.620234
0.000000 0.804669 0.648645
0.089883 0.800215 0.643859
0.219792 0.795747 0.639067
0.360971 0.791267 0.634269
0.507635 0.786773 0.629465
0.654000 0.782267 0.624656
0.794281 0.777749 0.619841
0.922692 0.773218 0.615021
1.000000 0.769389 0.610953
0.000000 0.925841 0.639428
0.082125 0.921857 0.634630
0.211120 0.917854 0.629827
0.351753 0.913831 0.625018
0.498241 0.909790 0.620203
0.644797 0.905730 0.615384
0.785638 0.901652 0.610559
0.914977 0.897555 0.605730
1.000000 0.894087 0.601654
0.000000 1.000000 0.630189
0.074437 1.000000 0.625380
0.202495 1.000000 0.620566
0.342559 1.000000 0.615747
0.488846 1.000000 0.610923
0.635571 1.000000 0.606094
0.776948 1.000000 0.601260
0.907193 1.000000 0.596422
1.000000 1.000000 0.592340
0.016440 0.016440 0.837672
0.136280 0.012796 0.833324
0.271034 0.009175 0.828961
0.414917 0.005576 0.824584
0.562145 0.002001 0.820193
0.706932 0.000000 0.815787
0.843494 0.000000 0.811367
0.966047 0.000000 0.806933
1.000000 0.000000 0.803185
0.009446 0.129776 0.829290
0.128140 0.125565 0.824914
0.262117 0.121370 0.820524
0.405591 0.117193 0.816119
0.552778 0.113033 0.811700
0.697893 0.108891 0.807268
0.835152 0.104766 0.802821
0.958769 0.100659 0.798362
1.000000 0.097210 0.794591
0.002538 0.256812 0.820855
0.120062 0.252206 0.816451
0.253238 0.247612 0.812033
0.396279 0.243028 0.807602
0.543403 0.238455 0.803157
0.688822 0.233894 0.798698
0.826754 0.229345 0.794226
0.951413 0.224808 0.789741
1.000000 0.220991 0.785950
0.000000 0.392603 0.812366
0.112048 0.387775 0.807936
0.244399 0.382952 0.803492
0.386985 0.378134 0.799034
0.534020 0.373322 0.794563
0.679721 0.368515 0.790079
0.818302 0.363713 0.785583
0.943979 0.358918 0.781073
1.000000 0.354879 0.777262
0.000000 0.532202 0.803827
0.104099 0.527324 0.799370
0.235602 0.522446 0.794900
0.377708 0.517567 0.790417
0.524633 0.512686 0.785922
0.670591 0.507806 0.781413
0.809798 0.502925 0.776893
0.936470 0.498043 0.772360
1.000000 0.493928 0.768528
0.000000 0.670662 0.795237
0.096216 0.665908 0.790755
0.226848 0.661146 0.786260
0.368451 0.656378 0.781753
0.515241 0.651603 0.777233
0.661434 0.646821 0.772701
0.801244 0.642032 0.768157
0.928886 0.637238 0.763601
1.000000 0.633191 0.759751
0.000000 0.803039 0.786599
0.088401 0.798580 0.782093
0.218138 0.794107 0.777574
0.359215 0.789622 0.773043
0.505847 0.785124 0.768500
0.652250 0.780614 0.763945
0.792639 0.776091 0.759378
0.921229 0.771556 0.754800
1.000000 0.767723 0.750932
0.000000 0.924384 0.777915
0.080656 0.920393 0.773384
0.209474 0.916383 0.768842
0.350002 0.912353 0.764288
0.496453 0.908305 0.759723
0.643043 0.904238 0.755146
0.783987 0.900153 0.750557
0.913501 0.896050 0.745958
1.000000 0.892576 0.742072
0.000000 1.000000 0.769185
0.072982 1.000000 0.764631
0.200858 1.000000 0.760067
0.340812 1.000000 0.755490
0.487058 1.000000 0.750903
0.633812 1.000000 0.746305
0.775289 1.000000 0.741696
0.905703 1.000000 0.737076
1.000000 1.000000 0.733173
0.015103 0.015103 0.958729
0.134726 0.011467 0.954917
0.269334 0.007854 0.951083
0.413141 0.004264 0.947229
0.560363 0.000698 0.943354
0.705214 0.000000 0.939458
0.841911 0.000000 0.935543
0.964668 0.000000 0.931607
1.000000 0.000000 0.928273
0.008125 0.128231 0.951373
0.126598 0.124026 0.947520
0.260424 0.119838 0.943646
0.403817 0.115667 0.939752
0.550994 0.111514 0.935838
0.696169 0.107378 0.931904
0.833558 0.103259 0.927950
0.957375 0.099159 0.923976
1.000000 0.095716 0.920611
0.001233 0.255124 0.943939
0.118532 0.250522 0.940046
0.251552 0.245931 0.936133
0.394509 0.241352 0.932201
0.541617 0.236783 0.928248
0.687093 0.232226 0.924276
0.825150 0.227681 0.920284
0.950004 0.223148 0.916273
1.000000 0.219336 0.912877
0.000000 0.390834 0.936429
0.110530 0.386008 0.932497
0.242722 0.381187 0.928546
0.385218 0.376371 0.924576
0.532234 0.371560 0.920585
0.677986 0.366755 0.916576
0.816688 0.361956 0.912548
0.942556 0.357163 0.908500
1.000000 0.353126 0.905073
0.000000 0.530415 0.928844
0.102593 0.525537 0.924875
0.233932 0.520659 0.920886
0.375945 0.515779 0.916878
0.522846 0.510899 0.912851
0.668850 0.506018 0.908806
0.808174 0.501136 0.904741
0.935032 0.496255 0.900658
1.000000 0.492140 0.897202
0.000000 0.668922 0.921187
0.094724 0.664165 0.917181
0.225187 0.659400 0.913155
0.366692 0.654629 0.909111
0.513454 0.649852 0.905048
0.659688 0.645067 0.900966
0.799610 0.640277 0.896867
0.927434 0.635480 0.892749
1.000000 0.631432 0.889263
0.000000 0.801407 0.913459
0.086922 0.796943 0.909416
0.216486 0.792466 0.905354
0.357460 0.787976 0.901274
0.504059 0.783473 0.897176
0.650500 0.778958 0.893060
0.790996 0.774431 0.888925
0.919764 0.769891 0.884774
1.000000 0.766055 0.881260
0.000000 0.922924 0.905661
0.079190 0.918926 0.901582
0.207831 0.914909 0.897485
0.348251 0.910872 0.893370
0.494665 0.906818 0.889237
0.641288 0.902744 0.885087
0.782335 0.898652 0.880919
0.912022 0.894542 0.876734
1.000000 0.891063 0.873192
0.000000 1.000000 0.897794
0.071529 1.000000 0.893681
0.199224 1.000000 0.889549
0.339066 1.000000 0.885400
0.485271 1.000000 0.881233
0.632053 1.000000 0.877050
0.773628 1.000000 0.872849
0.904211 1.000000 0.868631
1.000000 1.000000 0.865063
0.013768 0.013768 1.000000
0.133174 0.010141 1.000000
0.267635 0.006536 1.000000
0.411365 0.002955 1.000000
0.558580 0.000000 1.000000
0.703495 0.000000 1.000000
0.840325 0.000000 1.000000
0.963286 0.000000 1.000000
1.000000 0.000000 1.000000
0.006807 0.126689 1.000000
0.125058 0.122490 1.000000
0.258732 0.118308 1.000000
0.402045 0.114144 1.000000
0.549210 0.109996 1.000000
0.694444 0.105867 1.000000
0.831962 0.101755 1.000000
0.955978 0.097662 1.000000
1.000000 0.094224 1.000000
0.000000 0.253437 1.000000
0.117004 0.248839 1.000000
0.249869 0.244252 1.000000
0.392739 0.239677 1.000000
0.539832 0.235113 1.000000
0.685362 0.230560 1.000000
0.823543 0.226019 1.000000
0.948592 0.221491 1.000000
1.000000 0.217682 1.000000
0.000000 0.389065 1.000000
0.109015 0.384241 1.000000
0.241045 0.379422 1.000000
0.383451 0.374608 1.000000
0.530448 0.369799 1.000000
0.676249 0.364996 1.000000
0.815072 0.360199 1.000000
0.941130 0.355408 1.000000
1.000000 0.351373 1.000000
0.000000 0.528629 1.000000
0.101090 0.523750 1.000000
0.232265 0.518871 1.000000
0.374182 0.513991 1.000000
0.521058 0.509111 1.000000
0.667109 0.504230 1.000000
0.806548 0.499348 1.000000
0.933592 0.494467 1.000000
1.000000 0.490352 1.000000
0.000000 0.667180 1.000000
0.093233 0.662420 1.000000
0.223527 0.657653 1.000000
0.364933 0.652880 1.000000
0.511666 0.648100 1.000000
0.657941 0.643313 1.000000
0.797974 0.638521 1.000000
0.925980 0.633722 1.000000
1.000000 0.629671 1.000000
0.000000 0.799773 1.000000
0.085445 0.795304 1.000000
0.214835 0.790823 1.000000
0.355705 0.786328 1.000000
0.502271 0.781821 1.000000
0.648748 0.777301 1.000000
0.789352 0.772769 1.000000
0.918296 0.768226 0.999488
1.000000 0.764385 0.996484
0.000000 0.921462 1.000000
0.077727 0.917457 1.000000
0.206189 0.913432 1.000000
0.346501 0.909389 1.000000
0.492877 0.905327 1.000000
0.639532 0.901247 0.999756
0.780682 0.897149 0.996192
0.910541 0.893032 0.992605
1.000000 0.889548 0.989563
0.000000 1.000000 1.000000
0.070080 1.000000 1.000000
0.197591 1.000000 1.000000
0.337321 1.000000 1.000000
0.483483 1.000000 0.996461
0.630293 1.000000 0.992876
0.771966 1.000000 0.989268
0.902717 1.000000 0.985637
1.000000 1.000000 0.982557
