app/src/main/assets/luts/era_2020s.cube
TITLE "Generation Camera 2020s"
LUT_3D_SIZE 9
DOMAIN_MIN 0.0 0.0 0.0
DOMAIN_MAX 1.0 1.0 1.0
0.000000 0.000000 0.000000
0.120204 0.000000 0.000000
0.249442 0.000000 0.000000
0.384532 0.000000 0.000000
0.522290 0.000000 0.000000
0.659534 0.000000 0.000000
0.793082 0.000000 0.000000
0.919750 0.000000 0.000000
1.000000 0.000000 0.000000
0.000000 0.118129 0.000000
0.115976 0.115976 0.000000
0.244961 0.113827 0.000000
0.379904 0.111680 0.000000
0.517624 0.109535 0.000000
0.654938 0.107394 0.000000
0.788662 0.105255 0.000000
0.915616 0.103119 0.000000
1.000000 0.100986 0.000000
0.000000 0.245045 0.000000
0.111758 0.242765 0.000000
0.240486 0.240486 0.000000
0.375280 0.238210 0.000000
0.512958 0.235935 0.000000
0.650337 0.233662 0.000000
0.784235 0.231391 0.000000
0.911469 0.229121 0.000000
1.000000 0.226854 0.000000
0.000000 0.377722 0.000000
0.107551 0.375367 0.000000
0.236018 0.373013 0.000000
0.370659 0.370659 0.000000
0.508292 0.368307 0.000000
0.645733 0.365955 0.000000
0.779801 0.363605 0.000000
0.907312 0.361255 0.000000
1.000000 0.358907 0.000000
0.000000 0.513133 0.000000
0.103355 0.510756 0.000000
0.231558 0.508379 0.000000
0.366042 0.506002 0.000000
0.503625 0.503625 0.000000
0.641125 0.501248 0.000000
0.775358 0.498871 0.000000
0.903143 0.496494 0.000000
1.000000 0.494117 0.000000
0.000000 0.648251 0.000000
0.099169 0.645906 0.000000
0.227104 0.643559 0.000000
0.361428 0.641211 0.000000
0.498959 0.638863 0.000000
0.636513 0.636513 0.000000
0.770909 0.634162 0.000000
0.898964 0.631811 0.000000
1.000000 0.629459 0.000000
0.000000 0.780050 0.000000
0.094995 0.777789 0.000000
0.222658 0.775525 0.000000
0.356818 0.773260 0.000000
0.494292 0.770992 0.000000
0.631898 0.768723 0.000000
0.766452 0.766452 0.000000
0.894773 0.764179 0.000000
1.000000 0.761905 0.000000
0.000000 0.905502 0.000000
0.090831 0.903378 0.000000
0.218219 0.901251 0.000000
0.352211 0.899121 0.000000
0.489625 0.896988 0.000000
0.627279 0.894852 0.000000
0.761988 0.892713 0.000000
0.890572 0.890572 0.000000
1.000000 0.888428 0.000000
0.000000 1.000000 0.000000
0.086679 1.000000 0.000000
0.213788 1.000000 0.000000
0.347609 1.000000 0.000000
0.484959 1.000000 0.000000
0.622656 1.000000 0.000000
0.757517 1.000000 0.000000
0.886360 1.000000 0.000000
1.000000 1.000000 0.000000
0.000000 0.000000 0.121539
0.119382 0.000000 0.119382
0.248571 0.000000 0.117228
0.383633 0.000000 0.115077
0.521384 0.000000 0.112929
0.658641 0.000000 0.110783
0.792224 0.000000 0.108640
0.918948 0.000000 0.106499
1.000000 0.000000 0.104362
0.000000 0.117308 0.117308
0.115156 0.115156 0.115156
0.244091 0.113008 0.113008
0.379006 0.110862 0.110862
0.516718 0.108719 0.108719
0.654044 0.106578 0.106578
0.787803 0.104441 0.104441
0.914811 0.102306 0.102306
1.000000 0.100174 0.100174
0.000000 0.244175 0.113087
0.110941 0.241896 0.110941
0.239618 0.239618 0.108797
0.374383 0.237342 0.106657
0.512052 0.235068 0.104519
0.649443 0.232796 0.102384
0.783375 0.230525 0.100252
0.910663 0.228257 0.098123
1.000000 0.225990 0.095996
0.000000 0.376824 0.108876
0.106736 0.374469 0.106736
0.235152 0.372115 0.104598
0.369762 0.369762 0.102463
0.507385 0.367410 0.100331
0.644838 0.365059 0.098201
0.778938 0.362709 0.096075
0.906503 0.360360 0.093951
1.000000 0.358011 0.091830
0.000000 0.512227 0.104676
0.102541 0.509850 0.102541
0.230692 0.507473 0.100409
0.365146 0.505096 0.098279
0.502719 0.502719 0.096153
0.640229 0.500342 0.094029
0.774495 0.497965 0.091908
0.902333 0.495588 0.089790
1.000000 0.493211 0.087675
0.000000 0.647357 0.100487
0.098358 0.645011 0.098358
0.226240 0.642664 0.096231
0.360532 0.640316 0.094107
0.498052 0.637967 0.091986
0.635617 0.635617 0.089868
0.770044 0.633266 0.087753
0.898151 0.630914 0.085640
1.000000 0.628562 0.083531
0.000000 0.779188 0.096309
0.094185 0.776926 0.094185
0.221795 0.774662 0.092064
0.355923 0.772395 0.089946
0.493386 0.770127 0.087830
0.631001 0.767858 0.085718
0.765586 0.765586 0.083609
0.893958 0.763312 0.081502
1.000000 0.761037 0.079399
0.000000 0.904693 0.092142
0.090024 0.902567 0.090024
0.217358 0.900439 0.087908
0.351317 0.898308 0.085796
0.488719 0.896174 0.083686
0.626381 0.894037 0.081580
0.761121 0.891897 0.079476
0.889755 0.889755 0.077375
1.000000 0.887610 0.075278
0.000000 1.000000 0.087986
0.085873 1.000000 0.085873
0.212928 1.000000 0.083764
0.346716 1.000000 0.081657
0.484053 1.000000 0.079553
0.621758 1.000000 0.077453
0.756648 1.000000 0.075355
0.885541 1.000000 0.073260
1.000000 1.000000 0.071168
0.000000 0.000000 0.252271
0.118561 0.000000 0.249985
0.247701 0.000000 0.247701
0.382734 0.000000 0.245419
0.520477 0.000000 0.243138
0.657749 0.000000 0.240859
0.791366 0.000000 0.238583
0.918146 0.000000 0.236307
1.000000 0.000000 0.234034
0.000000 0.116487 0.247785
0.114337 0.114337 0.245503
0.243222 0.112189 0.243222
0.378108 0.110044 0.240943
0.515812 0.107902 0.238666
0.653151 0.105763 0.236391
0.786944 0.103626 0.234118
0.914007 0.101493 0.231846
1.000000 0.099362 0.229577
0.000000 0.243306 0.243306
0.110123 0.241027 0.241027
0.238750 0.238750 0.238750
0.373485 0.236475 0.236475
0.511146 0.234201 0.234201
0.648549 0.231930 0.231930
0.782514 0.229660 0.229660
0.909856 0.227392 0.227392
1.000000 0.225126 0.225126
0.000000 0.375926 0.238834
0.105920 0.373572 0.236558
0.234285 0.371218 0.234285
0.368865 0.368865 0.232013
0.506479 0.366514 0.229744
0.643944 0.364163 0.227476
0.778076 0.361813 0.225210
0.905694 0.359464 0.222946
1.000000 0.357116 0.220683
0.000000 0.511321 0.234369
0.101728 0.508944 0.232097
0.229827 0.506567 0.229827
0.364249 0.504190 0.227559
0.501813 0.501813 0.225293
0.639334 0.499436 0.223029
0.773631 0.497059 0.220767
0.901521 0.494681 0.218506
1.000000 0.492304 0.216248
0.000000 0.646463 0.229911
0.097547 0.644116 0.227642
0.225376 0.641769 0.225376
0.359637 0.639420 0.223112
0.497146 0.637071 0.220850
0.634721 0.634721 0.218589
0.769179 0.632369 0.216331
0.897337 0.630017 0.214075
1.000000 0.627664 0.211820
0.000000 0.778326 0.225460
0.093376 0.776063 0.223195
0.220933 0.773798 0.220933
0.355028 0.771531 0.218673
0.492479 0.769262 0.216414
0.630104 0.766992 0.214158
0.764719 0.764719 0.211903
0.893143 0.762445 0.209650
1.000000 0.760169 0.207400
0.000000 0.903883 0.221016
0.089217 0.901756 0.218756
0.216497 0.899627 0.216497
0.350423 0.897494 0.214240
0.487813 0.895359 0.211986
0.625484 0.893222 0.209733
0.760253 0.891081 0.207483
0.888937 0.888937 0.205234
1.000000 0.886791 0.202988
0.000000 1.000000 0.216580
0.085069 1.000000 0.214323
0.212069 1.000000 0.212069
0.345822 1.000000 0.209816
0.483147 1.000000 0.207565
0.620860 1.000000 0.205317
0.755779 1.000000 0.203070
0.884722 1.000000 0.200826
1.000000 1.000000 0.198583
0.000000 0.000000 0.388909
0.117740 0.000000 0.386551
0.246831 0.000000 0.384193
0.381835 0.000000 0.381835
0.519571 0.000000 0.379479
0.656856 0.000000 0.377123
0.790508 0.000000 0.374768
0.917343 0.000000 0.372414
1.000000 0.000000 0.370061
0.000000 0.115667 0.384279
0.113518 0.113518 0.381922
0.242353 0.111371 0.379565
0.377210 0.109227 0.377210
0.514906 0.107086 0.374855
0.652258 0.104948 0.372501
0.786084 0.102812 0.370148
0.913201 0.100680 0.367796
1.000000 0.098550 0.365444
0.000000 0.242437 0.379652
0.109306 0.240159 0.377296
0.237882 0.237882 0.374942
0.372588 0.235608 0.372588
0.510239 0.233335 0.370234
0.647655 0.231064 0.367882
0.781652 0.228795 0.365531
0.909049 0.226528 0.363180
1.000000 0.224263 0.360831
0.000000 0.375028 0.375028
0.105105 0.372674 0.372674
0.233419 0.370321 0.370321
0.367969 0.367969 0.367969
0.505573 0.365617 0.365617
0.643049 0.363267 0.363267
0.777213 0.360917 0.360917
0.904885 0.358569 0.358569
1.000000 0.356221 0.356221
0.000000 0.510414 0.370408
0.100915 0.508037 0.368055
0.228962 0.505660 0.365704
0.363353 0.503283 0.363353
0.500906 0.500906 0.361004
0.638438 0.498529 0.358655
0.772767 0.496152 0.356308
0.900710 0.493775 0.353961
1.000000 0.491398 0.351615
0.000000 0.645568 0.365790
0.096736 0.643221 0.363440
0.224513 0.640874 0.361090
0.358742 0.638525 0.358742
0.496240 0.636175 0.356394
0.633824 0.633824 0.354047
0.768313 0.631473 0.351702
0.896524 0.629120 0.349357
1.000000 0.626767 0.347013
0.000000 0.777463 0.361177
0.092567 0.775199 0.358828
0.220071 0.772934 0.356480
0.354134 0.770666 0.354134
0.491573 0.768397 0.351788
0.629207 0.766125 0.349443
0.763852 0.763852 0.347100
0.892327 0.761577 0.344757
1.000000 0.759301 0.342415
0.000000 0.903072 0.356567
0.088410 0.900945 0.354220
0.215636 0.898814 0.351874
0.349529 0.896681 0.349529
0.486907 0.894545 0.347186
0.624586 0.892406 0.344843
0.759384 0.890264 0.342502
0.888120 0.888120 0.340161
1.000000 0.885972 0.337822
0.000000 1.000000 0.351960
0.084264 1.000000 0.349616
0.211210 1.000000 0.347272
0.344929 1.000000 0.344929
0.482241 1.000000 0.342588
0.619962 1.000000 0.340247
0.754909 1.000000 0.337908
0.883902 1.000000 0.335569
1.000000 1.000000 0.333232
0.000000 0.000000 0.528170
0.116919 0.000000 0.525794
0.245960 0.000000 0.523418
0.380937 0.000000 0.521042
0.518665 0.000000 0.518665
0.655964 0.000000 0.516289
0.789649 0.000000 0.513912
0.916539 0.000000 0.511535
1.000000 0.000000 0.509158
0.000000 0.114847 0.523506
0.112699 0.112699 0.521129
0.241484 0.110553 0.518753
0.376312 0.108411 0.516376
0.513999 0.106271 0.513999
0.651364 0.104133 0.511623
0.785224 0.101999 0.509246
0.912396 0.099867 0.506869
1.000000 0.097739 0.504492
0.000000 0.241568 0.518840
0.108489 0.239291 0.516464
0.237015 0.237015 0.514087
0.371690 0.234741 0.511710
0.509333 0.232469 0.509333
0.646761 0.230199 0.506956
0.780791 0.227931 0.504579
0.908241 0.225664 0.502202
1.000000 0.223400 0.499825
0.000000 0.374131 0.514174
0.104291 0.371777 0.511797
0.232553 0.369424 0.509421
0.367072 0.367072 0.507044
0.504667 0.364721 0.504667
0.642154 0.362371 0.502290
0.776350 0.360022 0.499913
0.904075 0.357674 0.497536
1.000000 0.355326 0.495158
0.000000 0.509508 0.509508
0.100102 0.507131 0.507131
0.228097 0.504754 0.504754
0.362457 0.502377 0.502377
0.500000 0.500000 0.500000
0.637543 0.497623 0.497623
0.771903 0.495246 0.495246
0.899898 0.492869 0.492869
1.000000 0.490492 0.490492
0.000000 0.644674 0.504842
0.095925 0.642326 0.502464
0.223650 0.639978 0.500087
0.357846 0.637629 0.497710
0.495333 0.635279 0.495333
0.632928 0.632928 0.492956
0.767447 0.630576 0.490579
0.895709 0.628223 0.488203
1.000000 0.625869 0.485826
0.000000 0.776600 0.500175
0.091759 0.774336 0.497798
0.219209 0.772069 0.495421
0.353239 0.769801 0.493044
0.490667 0.767531 0.490667
0.628310 0.765259 0.488290
0.762985 0.762985 0.485913
0.891511 0.760709 0.483536
1.000000 0.758432 0.481160
0.000000 0.902261 0.495508
0.087604 0.900133 0.493131
0.214776 0.898001 0.490754
0.348636 0.895867 0.488377
0.486001 0.893729 0.486001
0.623688 0.891589 0.483624
0.758516 0.889447 0.481247
0.887301 0.887301 0.478871
1.000000 0.885153 0.476494
0.000000 1.000000 0.490842
0.083461 1.000000 0.488465
0.210351 1.000000 0.486088
0.344036 1.000000 0.483711
0.481335 1.000000 0.481335
0.619063 1.000000 0.478958
0.754040 1.000000 0.476582
0.883081 1.000000 0.474206
1.000000 1.000000 0.471830
0.000000 0.000000 0.666768
0.116098 0.000000 0.664431
0.245091 0.000000 0.662092
0.380038 0.000000 0.659753
0.517759 0.000000 0.657412
0.655071 0.000000 0.655071
0.788790 0.000000 0.652728
0.915736 0.000000 0.650384
1.000000 0.000000 0.648040
0.000000 0.114028 0.662178
0.111880 0.111880 0.659839
0.240616 0.109736 0.657498
0.375414 0.107594 0.655157
0.513093 0.105455 0.652814
0.650471 0.103319 0.650471
0.784364 0.101186 0.648126
0.911590 0.099055 0.645780
1.000000 0.096928 0.643433
0.000000 0.240699 0.657585
0.107673 0.238423 0.655243
0.236148 0.236148 0.652900
0.370793 0.233875 0.650557
0.508427 0.231603 0.648212
0.645866 0.229334 0.645866
0.779929 0.227066 0.643520
0.907433 0.224801 0.641172
1.000000 0.222537 0.638823
0.000000 0.373233 0.652987
0.103476 0.370880 0.650643
0.231687 0.368527 0.648298
0.366176 0.366176 0.645953
0.503760 0.363825 0.643606
0.641258 0.361475 0.641258
0.775487 0.359126 0.638910
0.903264 0.356779 0.636560
1.000000 0.354432 0.634210
0.000000 0.508602 0.648385
0.099290 0.506225 0.646039
0.227233 0.503848 0.643692
0.361562 0.501471 0.641345
0.499094 0.499094 0.638996
0.636647 0.496717 0.636647
0.771038 0.494340 0.634296
0.899085 0.491963 0.631945
1.000000 0.489586 0.629592
0.000000 0.643779 0.643779
0.095115 0.641431 0.641431
0.222787 0.639083 0.639083
0.356951 0.636733 0.636733
0.494427 0.634383 0.634383
0.632031 0.632031 0.632031
0.766581 0.629679 0.629679
0.894895 0.627326 0.627326
1.000000 0.624972 0.624972
0.000000 0.775737 0.639169
0.090951 0.773472 0.636820
0.218348 0.771205 0.634469
0.352345 0.768936 0.632118
0.489761 0.766665 0.629766
0.627412 0.764392 0.627412
0.762118 0.762118 0.625058
0.890694 0.759841 0.622704
1.000000 0.757563 0.620348
0.000000 0.901450 0.634556
0.086799 0.899320 0.632204
0.213916 0.897188 0.629852
0.347742 0.895052 0.627499
0.485094 0.892914 0.625145
0.622790 0.890773 0.622790
0.757647 0.888629 0.620435
0.886482 0.886482 0.618078
1.000000 0.884333 0.615721
0.000000 1.000000 0.629939
0.082657 1.000000 0.627586
0.209492 1.000000 0.625232
0.343144 1.000000 0.622877
0.480429 1.000000 0.620521
0.618165 1.000000 0.618165
0.753169 1.000000 0.615807
0.882260 1.000000 0.613449
1.000000 1.000000 0.611091
0.000000 0.000000 0.801417
0.115278 0.000000 0.799174
0.244221 0.000000 0.796930
0.379140 0.000000 0.794683
0.516853 0.000000 0.792435
0.654178 0.000000 0.790184
0.787931 0.000000 0.787931
0.914931 0.000000 0.785677
1.000000 0.000000 0.783420
0.000000 0.113209 0.797012
0.111063 0.111063 0.794766
0.239747 0.108919 0.792517
0.374516 0.106778 0.790267
0.512187 0.104641 0.788014
0.649577 0.102506 0.785760
0.783503 0.100373 0.783503
0.910783 0.098244 0.781244
1.000000 0.096117 0.778984
0.000000 0.239831 0.792600
0.106857 0.237555 0.790350
0.235281 0.235281 0.788097
0.369896 0.233008 0.785842
0.507521 0.230738 0.783586
0.644972 0.228469 0.781327
0.779067 0.226202 0.779067
0.906624 0.223937 0.776805
1.000000 0.221674 0.774540
0.000000 0.372336 0.788180
0.102663 0.369983 0.785925
0.230821 0.367631 0.783669
0.365279 0.365279 0.781411
0.502854 0.362929 0.779150
0.640363 0.360580 0.776888
0.774624 0.358231 0.774624
0.902453 0.355884 0.772358
1.000000 0.353537 0.770089
0.000000 0.507696 0.783752
0.098479 0.505319 0.781494
0.226369 0.502941 0.779233
0.360666 0.500564 0.776971
0.498187 0.498187 0.774707
0.635751 0.495810 0.772441
0.770173 0.493433 0.770173
0.898272 0.491056 0.767903
1.000000 0.488679 0.765631
0.000000 0.642884 0.779317
0.094306 0.640536 0.777054
0.221924 0.638187 0.774790
0.356056 0.635837 0.772524
0.493521 0.633486 0.770256
0.631135 0.631135 0.767987
0.765715 0.628782 0.765715
0.894080 0.626428 0.763442
1.000000 0.624074 0.761166
0.000000 0.774874 0.774874
0.090144 0.772608 0.772608
0.217486 0.770340 0.770340
0.351451 0.768070 0.768070
0.488854 0.765799 0.765799
0.626515 0.763525 0.763525
0.761250 0.761250 0.761250
0.889877 0.758973 0.758973
1.000000 0.756694 0.756694
0.000000 0.900638 0.770423
0.085993 0.898507 0.768154
0.213056 0.896374 0.765882
0.346849 0.894237 0.763609
0.484188 0.892098 0.761334
0.621892 0.889956 0.759057
0.756778 0.887811 0.756778
0.885663 0.885663 0.754497
1.000000 0.883513 0.752215
0.000000 1.000000 0.765966
0.081854 1.000000 0.763693
0.208634 1.000000 0.761417
0.342251 1.000000 0.759141
0.479523 1.000000 0.756862
0.617266 1.000000 0.754581
0.752299 1.000000 0.752299
0.881439 1.000000 0.750015
1.000000 1.000000 0.747729
0.000000 0.000000 0.928832
0.114459 0.000000 0.926740
0.243352 0.000000 0.924645
0.378242 0.000000 0.922547
0.515947 0.000000 0.920447
0.653284 0.000000 0.918343
0.787072 0.000000 0.916236
0.914127 0.000000 0.914127
1.000000 0.000000 0.912014
0.000000 0.112390 0.924722
0.110245 0.110245 0.922625
0.238879 0.108103 0.920524
0.373619 0.105963 0.918420
0.511281 0.103826 0.916314
0.648683 0.101692 0.914204
0.782642 0.099561 0.912092
0.909976 0.097433 0.909976
1.000000 0.095307 0.907858
0.000000 0.238963 0.920601
0.106042 0.236688 0.918498
0.234414 0.234414 0.916391
0.368999 0.232142 0.914282
0.506614 0.229873 0.912170
0.644077 0.227605 0.910054
0.778205 0.225338 0.907936
0.905815 0.223074 0.905815
1.000000 0.220812 0.903691
0.000000 0.371438 0.916469
0.101849 0.369086 0.914360
0.229956 0.366734 0.912247
0.364383 0.364383 0.910132
0.501948 0.362033 0.908014
0.639468 0.359684 0.905893
0.773760 0.357336 0.903769
0.901642 0.354989 0.901642
1.000000 0.352643 0.899513
0.000000 0.506789 0.912325
0.097667 0.504412 0.910210
0.225505 0.502035 0.908092
0.359771 0.499658 0.905971
0.497281 0.497281 0.903847
0.634854 0.494904 0.901721
0.769308 0.492527 0.899591
0.897459 0.490150 0.897459
1.000000 0.487773 0.895324
0.000000 0.641989 0.908170
0.093497 0.639640 0.906049
0.221062 0.637291 0.903925
0.355162 0.634941 0.901799
0.492615 0.632590 0.899669
0.630238 0.630238 0.897537
0.764848 0.627885 0.895402
0.893264 0.625531 0.893264
1.000000 0.623176 0.891124
0.000000 0.774010 0.904004
0.089337 0.771743 0.901877
0.216625 0.769475 0.899748
0.350557 0.767204 0.897616
0.487948 0.764932 0.895481
0.625617 0.762658 0.893343
0.760382 0.760382 0.891203
0.889059 0.758104 0.889059
1.000000 0.755825 0.886913
0.000000 0.899826 0.899826
0.085189 0.897694 0.897694
0.212197 0.895559 0.895559
0.345956 0.893422 0.893422
0.483282 0.891281 0.891281
0.620994 0.889138 0.889138
0.755909 0.886992 0.886992
0.884844 0.884844 0.884844
1.000000 0.882692 0.882692
0.000000 1.000000 0.895638
0.081052 1.000000 0.893501
0.207776 1.000000 0.891360
0.341359 1.000000 0.889217
0.478616 1.000000 0.887071
0.616367 1.000000 0.884923
0.751429 1.000000 0.882772
0.880618 1.000000 0.880618
1.000000 1.000000 0.878461
0.000000 0.000000 1.000000
0.113640 0.000000 1.000000
0.242483 0.000000 1.000000
0.377344 0.000000 1.000000
0.515041 0.000000 1.000000
0.652391 0.000000 1.000000
0.786212 0.000000 1.000000
0.913321 0.000000 1.000000
1.000000 0.000000 1.000000
0.000000 0.111572 1.000000
0.109428 0.109428 1.000000
0.238012 0.107287 1.000000
0.372721 0.105148 1.000000
0.510375 0.103012 1.000000
0.647789 0.100879 1.000000
0.781781 0.098749 1.000000
0.909169 0.096622 1.000000
1.000000 0.094498 1.000000
0.000000 0.238095 1.000000
0.105227 0.235821 1.000000
0.233548 0.233548 1.000000
0.368102 0.231277 1.000000
0.505708 0.229008 1.000000
0.643182 0.226740 1.000000
0.777342 0.224475 1.000000
0.905005 0.222211 1.000000
1.000000 0.219950 1.000000
0.000000 0.370541 1.000000
0.101036 0.368189 1.000000
0.229091 0.365838 1.000000
0.363487 0.363487 1.000000
0.501041 0.361137 1.000000
0.638572 0.358789 1.000000
0.772896 0.356441 1.000000
0.900831 0.354094 1.000000
1.000000 0.351749 1.000000
0.000000 0.505883 1.000000
0.096857 0.503506 1.000000
0.224642 0.501129 1.000000
0.358875 0.498752 1.000000
0.496375 0.496375 1.000000
0.633958 0.493998 1.000000
0.768442 0.491621 1.000000
0.896645 0.489244 1.000000
1.000000 0.486867 1.000000
0.000000 0.641093 1.000000
0.092688 0.638745 1.000000
0.220199 0.636395 1.000000
0.354267 0.634045 1.000000
0.491708 0.631693 1.000000
0.629341 0.629341 1.000000
0.763982 0.626987 1.000000
0.892449 0.624633 1.000000
1.000000 0.622278 1.000000
0.000000 0.773146 1.000000
0.088531 0.770879 1.000000
0.215765 0.768609 1.000000
0.349663 0.766338 1.000000
0.487042 0.764065 1.000000
0.624720 0.761790 1.000000
0.759514 0.759514 1.000000
0.888242 0.757235 1.000000
1.000000 0.754955 1.000000
0.000000 0.899014 1.000000
0.084384 0.896881 1.000000
0.211338 0.894745 1.000000
0.345062 0.892606 1.000000
0.482376 0.890465 1.000000
0.620096 0.888320 1.000000
0.755039 0.886173 1.000000
0.884024 0.884024 1.000000
1.000000 0.881871 1.000000
0.000000 1.000000 1.000000
0.080250 1.000000 1.000000
0.206918 1.000000 1.000000
0.340466 1.000000 1.000000
0.477710 1.000000 1.000000
0.615468 1.000000 1.000000
0.750558 1.000000 1.000000
0.879796 1.000000 1.000000
1.000000 1.000000 1.000000
