app/src/main/assets/luts/era_1900s.cube
TITLE "Generation Camera 1900s"
LUT_3D_SIZE 17
DOMAIN_MIN 0.0 0.0 0.0
DOMAIN_MAX 1.0 1.0 1.0
0.339949 0.283024 0.226124
0.341510 0.284599 0.227571
0.343070 0.286174 0.229019
0.344630 0.287750 0.230467
0.346190 0.289325 0.231915
0.347750 0.290901 0.233363
0.349310 0.292476 0.234811
0.350870 0.294051 0.236259
0.352430 0.295627 0.237707
0.353990 0.297202 0.239155
0.355550 0.298777 0.240603
0.357110 0.300353 0.242051
0.358670 0.301928 0.243499
0.360230 0.303504 0.244947
0.361790 0.305079 0.246395
0.363350 0.306654 0.247843
0.364910 0.308230 0.249291
0.350870 0.294051 0.236259
0.352430 0.295627 0.237707
0.353990 0.297202 0.239155
0.355550 0.298777 0.240603
0.357110 0.300353 0.242051
0.358670 0.301928 0.243499
0.360230 0.303504 0.244947
0.361790 0.305079 0.246395
0.363350 0.306654 0.247843
0.364910 0.308230 0.249291
0.366470 0.309805 0.250739
0.368030 0.311381 0.252187
0.369590 0.312956 0.253635
0.371150 0.314531 0.255082
0.372710 0.316107 0.256530
0.374270 0.317682 0.257978
0.375830 0.319257 0.259426
0.361790 0.305079 0.246395
0.363350 0.306654 0.247843
0.364910 0.308230 0.249291
0.366470 0.309805 0.250739
0.368030 0.311381 0.252187
0.369590 0.312956 0.253635
0.371150 0.314531 0.255082
0.372710 0.316107 0.256530
0.374270 0.317682 0.257978
0.375830 0.319257 0.259426
0.377390 0.320833 0.260874
0.378950 0.322408 0.262322
0.380510 0.323984 0.263770
0.382070 0.325559 0.265218
0.383630 0.327134 0.266666
0.385190 0.328710 0.268114
0.386750 0.330285 0.269562
0.372710 0.316107 0.256530
0.374270 0.317682 0.257978
0.375830 0.319257 0.259426
0.377390 0.320833 0.260874
0.378950 0.322408 0.262322
0.380510 0.323984 0.263770
0.382070 0.325559 0.265218
0.383630 0.327134 0.266666
0.385190 0.328710 0.268114
0.386750 0.330285 0.269562
0.388310 0.331861 0.271010
0.389870 0.333436 0.272458
0.391430 0.335011 0.273906
0.392990 0.336587 0.275354
0.394550 0.338162 0.276802
0.396110 0.339737 0.278250
0.397670 0.341313 0.279698
0.383630 0.327134 0.266666
0.385190 0.328710 0.268114
0.386750 0.330285 0.269562
0.388310 0.331861 0.271010
0.389870 0.333436 0.272458
0.391430 0.335011 0.273906
0.392990 0.336587 0.275354
0.394550 0.338162 0.276802
0.396110 0.339737 0.278250
0.397670 0.341313 0.279698
0.399230 0.342888 0.281146
0.400790 0.344464 0.282593
0.402350 0.346039 0.284041
0.403910 0.347614 0.285489
0.405470 0.349190 0.286937
0.407030 0.350765 0.288385
0.408590 0.352341 0.289833
0.394550 0.338162 0.276802
0.396110 0.339737 0.278250
0.397670 0.341313 0.279698
0.399230 0.342888 0.281146
0.400790 0.344464 0.282593
0.402350 0.346039 0.284041
0.403910 0.347614 0.285489
0.405470 0.349190 0.286937
0.407030 0.350765 0.288385
0.408590 0.352341 0.289833
0.410150 0.353916 0.291281
0.411710 0.355491 0.292729
0.413270 0.357067 0.294177
0.414830 0.358642 0.295625
0.416390 0.360217 0.297073
0.417950 0.361793 0.298521
0.419510 0.363368 0.299969
0.405470 0.349190 0.286937
0.407030 0.350765 0.288385
0.408590 0.352341 0.289833
0.410150 0.353916 0.291281
0.411710 0.355491 0.292729
0.413270 0.357067 0.294177
0.414830 0.358642 0.295625
0.416390 0.360217 0.297073
0.417950 0.361793 0.298521
0.419510 0.363368 0.299969
0.421070 0.364944 0.301417
0.422630 0.366519 0.302865
0.424190 0.368094 0.304313
0.425750 0.369670 0.305761
0.427310 0.371245 0.307209
0.428870 0.372821 0.308657
0.430430 0.374396 0.310104
0.416390 0.360217 0.297073
0.417950 0.361793 0.298521
0.419510 0.363368 0.299969
0.421070 0.364944 0.301417
0.422630 0.366519 0.302865
0.424190 0.368094 0.304313
0.425750 0.369670 0.305761
0.427310 0.371245 0.307209
0.428870 0.372821 0.308657
0.430430 0.374396 0.310104
0.431990 0.375971 0.311552
0.433550 0.377547 0.313000
0.435110 0.379122 0.314448
0.436670 0.380697 0.315896
0.438230 0.382273 0.317344
0.439790 0.383848 0.318792
0.441350 0.385424 0.320240
0.427310 0.371245 0.307209
0.428870 0.372821 0.308657
0.430430 0.374396 0.310104
0.431990 0.375971 0.311552
0.433550 0.377547 0.313000
0.435110 0.379122 0.314448
0.436670 0.380697 0.315896
0.438230 0.382273 0.317344
0.439790 0.383848 0.318792
0.441350 0.385424 0.320240
0.442910 0.386999 0.321688
0.444470 0.388574 0.323136
0.446030 0.390150 0.324584
0.447590 0.391725 0.326032
0.449150 0.393300 0.327480
0.450710 0.394876 0.328928
0.452270 0.396451 0.330376
0.438230 0.382273 0.317344
0.439790 0.383848 0.318792
0.441350 0.385424 0.320240
0.442910 0.386999 0.321688
0.444470 0.388574 0.323136
0.446030 0.390150 0.324584
0.447590 0.391725 0.326032
0.449150 0.393300 0.327480
0.450710 0.394876 0.328928
0.452270 0.396451 0.330376
0.453830 0.398027 0.331824
0.455390 0.399602 0.333272
0.456950 0.401177 0.334720
0.458510 0.402753 0.336167
0.460070 0.404328 0.337615
0.461630 0.405904 0.339063
0.463190 0.407479 0.340511
0.449150 0.393300 0.327480
0.450710 0.394876 0.328928
0.452270 0.396451 0.330376
0.453830 0.398027 0.331824
0.455390 0.399602 0.333272
0.456950 0.401177 0.334720
0.458510 0.402753 0.336167
0.460070 0.404328 0.337615
0.461630 0.405904 0.339063
0.463190 0.407479 0.340511
0.464750 0.409054 0.341959
0.466310 0.410630 0.343407
0.467870 0.412205 0.344855
0.469430 0.413780 0.346303
0.470990 0.415356 0.347751
0.472550 0.416931 0.349199
0.474110 0.418507 0.350647
0.460070 0.404328 0.337615
0.461630 0.405904 0.339063
0.463190 0.407479 0.340511
0.464750 0.409054 0.341959
0.466310 0.410630 0.343407
0.467870 0.412205 0.344855
0.469430 0.413780 0.346303
0.470990 0.415356 0.347751
0.472550 0.416931 0.349199
0.474110 0.418507 0.350647
0.475670 0.420082 0.352095
0.477230 0.421657 0.353543
0.478790 0.423233 0.354991
0.480350 0.424808 0.356439
0.481910 0.426384 0.357887
0.483470 0.427959 0.359335
0.485030 0.429534 0.360783
0.470990 0.415356 0.347751
0.472550 0.416931 0.349199
0.474110 0.418507 0.350647
0.475670 0.420082 0.352095
0.477230 0.421657 0.353543
0.478790 0.423233 0.354991
0.480350 0.424808 0.356439
0.481910 0.426384 0.357887
0.483470 0.427959 0.359335
0.485030 0.429534 0.360783
0.486590 0.431110 0.362231
0.488150 0.432685 0.363678
0.489710 0.434260 0.365126
0.491270 0.435836 0.366574
0.492830 0.437411 0.368022
0.494390 0.438987 0.369470
0.495950 0.440562 0.370918
0.481910 0.426384 0.357887
0.483470 0.427959 0.359335
0.485030 0.429534 0.360783
0.486590 0.431110 0.362231
0.488150 0.432685 0.363678
0.489710 0.434260 0.365126
0.491270 0.435836 0.366574
0.492830 0.437411 0.368022
0.494390 0.438987 0.369470
0.495950 0.440562 0.370918
0.497510 0.442137 0.372366
0.499070 0.443713 0.373814
0.500630 0.445288 0.375262
0.502190 0.446864 0.376710
0.503750 0.448439 0.378158
0.505310 0.450014 0.379606
0.506870 0.451590 0.381054
0.492830 0.437411 0.368022
0.494390 0.438987 0.369470
0.495950 0.440562 0.370918
0.497510 0.442137 0.372366
0.499070 0.443713 0.373814
0.500630 0.445288 0.375262
0.502190 0.446864 0.376710
0.503750 0.448439 0.378158
0.505310 0.450014 0.379606
0.506870 0.451590 0.381054
0.508430 0.453165 0.382502
0.509990 0.454740 0.383950
0.511550 0.456316 0.385398
0.513110 0.457891 0.386846
0.514670 0.459467 0.388294
0.516230 0.461042 0.389742
0.517790 0.462617 0.391189
0.503750 0.448439 0.378158
0.505310 0.450014 0.379606
0.506870 0.451590 0.381054
0.508430 0.453165 0.382502
0.509990 0.454740 0.383950
0.511550 0.456316 0.385398
0.513110 0.457891 0.386846
0.514670 0.459467 0.388294
0.516230 0.461042 0.389742
0.517790 0.462617 0.391189
0.519350 0.464193 0.392637
0.520910 0.465768 0.394085
0.522470 0.467344 0.395533
0.524030 0.468919 0.396981
0.525590 0.470494 0.398429
0.527150 0.472070 0.399877
0.528710 0.473645 0.401325
0.514670 0.459467 0.388294
0.516230 0.461042 0.389742
0.517790 0.462617 0.391189
0.519350 0.464193 0.392637
0.520910 0.465768 0.394085
0.522470 0.467344 0.395533
0.524030 0.468919 0.396981
0.525590 0.470494 0.398429
0.527150 0.472070 0.399877
0.528710 0.473645 0.401325
0.530270 0.475220 0.402773
0.531830 0.476796 0.404221
0.533390 0.478371 0.405669
0.534950 0.479947 0.407117
0.536510 0.481522 0.408565
0.538070 0.483097 0.410013
0.539630 0.484673 0.411461
0.358670 0.301928 0.243499
0.360230 0.303504 0.244947
0.361790 0.305079 0.246395
0.363350 0.306654 0.247843
0.364910 0.308230 0.249291
0.366470 0.309805 0.250739
0.368030 0.311381 0.252187
0.369590 0.312956 0.253635
0.371150 0.314531 0.255082
0.372710 0.316107 0.256530
0.374270 0.317682 0.257978
0.375830 0.319257 0.259426
0.377390 0.320833 0.260874
0.378950 0.322408 0.262322
0.380510 0.323984 0.263770
0.382070 0.325559 0.265218
0.383630 0.327134 0.266666
0.369590 0.312956 0.253635
0.371150 0.314531 0.255082
0.372710 0.316107 0.256530
0.374270 0.317682 0.257978
0.375830 0.319257 0.259426
0.377390 0.320833 0.260874
0.378950 0.322408 0.262322
0.380510 0.323984 0.263770
0.382070 0.325559 0.265218
0.383630 0.327134 0.266666
0.385190 0.328710 0.268114
0.386750 0.330285 0.269562
0.388310 0.331861 0.271010
0.389870 0.333436 0.272458
0.391430 0.335011 0.273906
0.392990 0.336587 0.275354
0.394550 0.338162 0.276802
0.380510 0.323984 0.263770
0.382070 0.325559 0.265218
0.383630 0.327134 0.266666
0.385190 0.328710 0.268114
0.386750 0.330285 0.269562
0.388310 0.331861 0.271010
0.389870 0.333436 0.272458
0.391430 0.335011 0.273906
0.392990 0.336587 0.275354
0.394550 0.338162 0.276802
0.396110 0.339737 0.278250
0.397670 0.341313 0.279698
0.399230 0.342888 0.281146
0.400790 0.344464 0.282593
0.402350 0.346039 0.284041
0.403910 0.347614 0.285489
0.405470 0.349190 0.286937
0.391430 0.335011 0.273906
0.392990 0.336587 0.275354
0.394550 0.338162 0.276802
0.396110 0.339737 0.278250
0.397670 0.341313 0.279698
0.399230 0.342888 0.281146
0.400790 0.344464 0.282593
0.402350 0.346039 0.284041
0.403910 0.347614 0.285489
0.405470 0.349190 0.286937
0.407030 0.350765 0.288385
0.408590 0.352341 0.289833
0.410150 0.353916 0.291281
0.411710 0.355491 0.292729
0.413270 0.357067 0.294177
0.414830 0.358642 0.295625
0.416390 0.360217 0.297073
0.402350 0.346039 0.284041
0.403910 0.347614 0.285489
0.405470 0.349190 0.286937
0.407030 0.350765 0.288385
0.408590 0.352341 0.289833
0.410150 0.353916 0.291281
0.411710 0.355491 0.292729
0.413270 0.357067 0.294177
0.414830 0.358642 0.295625
0.416390 0.360217 0.297073
0.417950 0.361793 0.298521
0.419510 0.363368 0.299969
0.421070 0.364944 0.301417
0.422630 0.366519 0.302865
0.424190 0.368094 0.304313
0.425750 0.369670 0.305761
0.427310 0.371245 0.307209
0.413270 0.357067 0.294177
0.414830 0.358642 0.295625
0.416390 0.360217 0.297073
0.417950 0.361793 0.298521
0.419510 0.363368 0.299969
0.421070 0.364944 0.301417
0.422630 0.366519 0.302865
0.424190 0.368094 0.304313
0.425750 0.369670 0.305761
0.427310 0.371245 0.307209
0.428870 0.372821 0.308657
0.430430 0.374396 0.310104
0.431990 0.375971 0.311552
0.433550 0.377547 0.313000
0.435110 0.379122 0.314448
0.436670 0.380697 0.315896
0.438230 0.382273 0.317344
0.424190 0.368094 0.304313
0.425750 0.369670 0.305761
0.427310 0.371245 0.307209
0.428870 0.372821 0.308657
0.430430 0.374396 0.310104
0.431990 0.375971 0.311552
0.433550 0.377547 0.313000
0.435110 0.379122 0.314448
0.436670 0.380697 0.315896
0.438230 0.382273 0.317344
0.439790 0.383848 0.318792
0.441350 0.385424 0.320240
0.442910 0.386999 0.321688
0.444470 0.388574 0.323136
0.446030 0.390150 0.324584
0.447590 0.391725 0.326032
0.449150 0.393300 0.327480
0.435110 0.379122 0.314448
0.436670 0.380697 0.315896
0.438230 0.382273 0.317344
0.439790 0.383848 0.318792
0.441350 0.385424 0.320240
0.442910 0.386999 0.321688
0.444470 0.388574 0.323136
0.446030 0.390150 0.324584
0.447590 0.391725 0.326032
0.449150 0.393300 0.327480
0.450710 0.394876 0.328928
0.452270 0.396451 0.330376
0.453830 0.398027 0.331824
0.455390 0.399602 0.333272
0.456950 0.401177 0.334720
0.458510 0.402753 0.336167
0.460070 0.404328 0.337615
0.446030 0.390150 0.324584
0.447590 0.391725 0.326032
0.449150 0.393300 0.327480
0.450710 0.394876 0.328928
0.452270 0.396451 0.330376
0.453830 0.398027 0.331824
0.455390 0.399602 0.333272
0.456950 0.401177 0.334720
0.458510 0.402753 0.336167
0.460070 0.404328 0.337615
0.461630 0.405904 0.339063
0.463190 0.407479 0.340511
0.464750 0.409054 0.341959
0.466310 0.410630 0.343407
0.467870 0.412205 0.344855
0.469430 0.413780 0.346303
0.470990 0.415356 0.347751
0.456950 0.401177 0.334720
0.458510 0.402753 0.336167
0.460070 0.404328 0.337615
0.461630 0.405904 0.339063
0.463190 0.407479 0.340511
0.464750 0.409054 0.341959
0.466310 0.410630 0.343407
0.467870 0.412205 0.344855
0.469430 0.413780 0.346303
0.470990 0.415356 0.347751
0.472550 0.416931 0.349199
0.474110 0.418507 0.350647
0.475670 0.420082 0.352095
0.477230 0.421657 0.353543
0.478790 0.423233 0.354991
0.480350 0.424808 0.356439
0.481910 0.426384 0.357887
0.467870 0.412205 0.344855
0.469430 0.413780 0.346303
0.470990 0.415356 0.347751
0.472550 0.416931 0.349199
0.474110 0.418507 0.350647
0.475670 0.420082 0.352095
0.477230 0.421657 0.353543
0.478790 0.423233 0.354991
0.480350 0.424808 0.356439
0.481910 0.426384 0.357887
0.483470 0.427959 0.359335
0.485030 0.429534 0.360783
0.486590 0.431110 0.362231
0.488150 0.432685 0.363678
0.489710 0.434260 0.365126
0.491270 0.435836 0.366574
0.492830 0.437411 0.368022
0.478790 0.423233 0.354991
0.480350 0.424808 0.356439
0.481910 0.426384 0.357887
0.483470 0.427959 0.359335
0.485030 0.429534 0.360783
0.486590 0.431110 0.362231
0.488150 0.432685 0.363678
0.489710 0.434260 0.365126
0.491270 0.435836 0.366574
0.492830 0.437411 0.368022
0.494390 0.438987 0.369470
0.495950 0.440562 0.370918
0.497510 0.442137 0.372366
0.499070 0.443713 0.373814
0.500630 0.445288 0.375262
0.502190 0.446864 0.376710
0.503750 0.448439 0.378158
0.489710 0.434260 0.365126
0.491270 0.435836 0.366574
0.492830 0.437411 0.368022
0.494390 0.438987 0.369470
0.495950 0.440562 0.370918
0.497510 0.442137 0.372366
0.499070 0.443713 0.373814
0.500630 0.445288 0.375262
0.502190 0.446864 0.376710
0.503750 0.448439 0.378158
0.505310 0.450014 0.379606
0.506870 0.451590 0.381054
0.508430 0.453165 0.382502
0.509990 0.454740 0.383950
0.511550 0.456316 0.385398
0.513110 0.457891 0.386846
0.514670 0.459467 0.388294
0.500630 0.445288 0.375262
0.502190 0.446864 0.376710
0.503750 0.448439 0.378158
0.505310 0.450014 0.379606
0.506870 0.451590 0.381054
0.508430 0.453165 0.382502
0.509990 0.454740 0.383950
0.511550 0.456316 0.385398
0.513110 0.457891 0.386846
0.514670 0.459467 0.388294
0.516230 0.461042 0.389742
0.517790 0.462617 0.391189
0.519350 0.464193 0.392637
0.520910 0.465768 0.394085
0.522470 0.467344 0.395533
0.524030 0.468919 0.396981
0.525590 0.470494 0.398429
0.511550 0.456316 0.385398
0.513110 0.457891 0.386846
0.514670 0.459467 0.388294
0.516230 0.461042 0.389742
0.517790 0.462617 0.391189
0.519350 0.464193 0.392637
0.520910 0.465768 0.394085
0.522470 0.467344 0.395533
0.524030 0.468919 0.396981
0.525590 0.470494 0.398429
0.527150 0.472070 0.399877
0.528710 0.473645 0.401325
0.530270 0.475220 0.402773
0.531830 0.476796 0.404221
0.533390 0.478371 0.405669
0.534950 0.479947 0.407117
0.536510 0.481522 0.408565
0.522470 0.467344 0.395533
0.524030 0.468919 0.396981
0.525590 0.470494 0.398429
0.527150 0.472070 0.399877
0.528710 0.473645 0.401325
0.530270 0.475220 0.402773
0.531830 0.476796 0.404221
0.533390 0.478371 0.405669
0.534950 0.479947 0.407117
0.536510 0.481522 0.408565
0.538070 0.483097 0.410013
0.539630 0.484673 0.411461
0.541190 0.486248 0.412909
0.542750 0.487823 0.414357
0.544310 0.489399 0.415805
0.545870 0.490974 0.417252
0.547430 0.492550 0.418700
0.533390 0.478371 0.405669
0.534950 0.479947 0.407117
0.536510 0.481522 0.408565
0.538070 0.483097 0.410013
0.539630 0.484673 0.411461
0.541190 0.486248 0.412909
0.542750 0.487823 0.414357
0.544310 0.489399 0.415805
0.545870 0.490974 0.417252
0.547430 0.492550 0.418700
0.548990 0.494125 0.420148
0.550550 0.495700 0.421596
0.552110 0.497276 0.423044
0.553670 0.498851 0.424492
0.555230 0.500427 0.425940
0.556790 0.502002 0.427388
0.558350 0.503577 0.428836
0.377390 0.320833 0.260874
0.378950 0.322408 0.262322
0.380510 0.323984 0.263770
0.382070 0.325559 0.265218
0.383630 0.327134 0.266666
0.385190 0.328710 0.268114
0.386750 0.330285 0.269562
0.388310 0.331861 0.271010
0.389870 0.333436 0.272458
0.391430 0.335011 0.273906
0.392990 0.336587 0.275354
0.394550 0.338162 0.276802
0.396110 0.339737 0.278250
0.397670 0.341313 0.279698
0.399230 0.342888 0.281146
0.400790 0.344464 0.282593
0.402350 0.346039 0.284041
0.388310 0.331861 0.271010
0.389870 0.333436 0.272458
0.391430 0.335011 0.273906
0.392990 0.336587 0.275354
0.394550 0.338162 0.276802
0.396110 0.339737 0.278250
0.397670 0.341313 0.279698
0.399230 0.342888 0.281146
0.400790 0.344464 0.282593
0.402350 0.346039 0.284041
0.403910 0.347614 0.285489
0.405470 0.349190 0.286937
0.407030 0.350765 0.288385
0.408590 0.352341 0.289833
0.410150 0.353916 0.291281
0.411710 0.355491 0.292729
0.413270 0.357067 0.294177
0.399230 0.342888 0.281146
0.400790 0.344464 0.282593
0.402350 0.346039 0.284041
0.403910 0.347614 0.285489
0.405470 0.349190 0.286937
0.407030 0.350765 0.288385
0.408590 0.352341 0.289833
0.410150 0.353916 0.291281
0.411710 0.355491 0.292729
0.413270 0.357067 0.294177
0.414830 0.358642 0.295625
0.416390 0.360217 0.297073
0.417950 0.361793 0.298521
0.419510 0.363368 0.299969
0.421070 0.364944 0.301417
0.422630 0.366519 0.302865
0.424190 0.368094 0.304313
0.410150 0.353916 0.291281
0.411710 0.355491 0.292729
0.413270 0.357067 0.294177
0.414830 0.358642 0.295625
0.416390 0.360217 0.297073
0.417950 0.361793 0.298521
0.419510 0.363368 0.299969
0.421070 0.364944 0.301417
0.422630 0.366519 0.302865
0.424190 0.368094 0.304313
0.425750 0.369670 0.305761
0.427310 0.371245 0.307209
0.428870 0.372821 0.308657
0.430430 0.374396 0.310104
0.431990 0.375971 0.311552
0.433550 0.377547 0.313000
0.435110 0.379122 0.314448
0.421070 0.364944 0.301417
0.422630 0.366519 0.302865
0.424190 0.368094 0.304313
0.425750 0.369670 0.305761
0.427310 0.371245 0.307209
0.428870 0.372821 0.308657
0.430430 0.374396 0.310104
0.431990 0.375971 0.311552
0.433550 0.377547 0.313000
0.435110 0.379122 0.314448
0.436670 0.380697 0.315896
0.438230 0.382273 0.317344
0.439790 0.383848 0.318792
0.441350 0.385424 0.320240
0.442910 0.386999 0.321688
0.444470 0.388574 0.323136
0.446030 0.390150 0.324584
0.431990 0.375971 0.311552
0.433550 0.377547 0.313000
0.435110 0.379122 0.314448
0.436670 0.380697 0.315896
0.438230 0.382273 0.317344
0.439790 0.383848 0.318792
0.441350 0.385424 0.320240
0.442910 0.386999 0.321688
0.444470 0.388574 0.323136
0.446030 0.390150 0.324584
0.447590 0.391725 0.326032
0.449150 0.393300 0.327480
0.450710 0.394876 0.328928
0.452270 0.396451 0.330376
0.453830 0.398027 0.331824
0.455390 0.399602 0.333272
0.456950 0.401177 0.334720
0.442910 0.386999 0.321688
0.444470 0.388574 0.323136
0.446030 0.390150 0.324584
0.447590 0.391725 0.326032
0.449150 0.393300 0.327480
0.450710 0.394876 0.328928
0.452270 0.396451 0.330376
0.453830 0.398027 0.331824
0.455390 0.399602 0.333272
0.456950 0.401177 0.334720
0.458510 0.402753 0.336167
0.460070 0.404328 0.337615
0.461630 0.405904 0.339063
0.463190 0.407479 0.340511
0.464750 0.409054 0.341959
0.466310 0.410630 0.343407
0.467870 0.412205 0.344855
0.453830 0.398027 0.331824
0.455390 0.399602 0.333272
0.456950 0.401177 0.334720
0.458510 0.402753 0.336167
0.460070 0.404328 0.337615
0.461630 0.405904 0.339063
0.463190 0.407479 0.340511
0.464750 0.409054 0.341959
0.466310 0.410630 0.343407
0.467870 0.412205 0.344855
0.469430 0.413780 0.346303
0.470990 0.415356 0.347751
0.472550 0.416931 0.349199
0.474110 0.418507 0.350647
0.475670 0.420082 0.352095
0.477230 0.421657 0.353543
0.478790 0.423233 0.354991
0.464750 0.409054 0.341959
0.466310 0.410630 0.343407
0.467870 0.412205 0.344855
0.469430 0.413780 0.346303
0.470990 0.415356 0.347751
0.472550 0.416931 0.349199
0.474110 0.418507 0.350647
0.475670 0.420082 0.352095
0.477230 0.421657 0.353543
0.478790 0.423233 0.354991
0.480350 0.424808 0.356439
0.481910 0.426384 0.357887
0.483470 0.427959 0.359335
0.485030 0.429534 0.360783
0.486590 0.431110 0.362231
0.488150 0.432685 0.363678
0.489710 0.434260 0.365126
0.475670 0.420082 0.352095
0.477230 0.421657 0.353543
0.478790 0.423233 0.354991
0.480350 0.424808 0.356439
0.481910 0.426384 0.357887
0.483470 0.427959 0.359335
0.485030 0.429534 0.360783
0.486590 0.431110 0.362231
0.488150 0.432685 0.363678
0.489710 0.434260 0.365126
0.491270 0.435836 0.366574
0.492830 0.437411 0.368022
0.494390 0.438987 0.369470
0.495950 0.440562 0.370918
0.497510 0.442137 0.372366
0.499070 0.443713 0.373814
0.500630 0.445288 0.375262
0.486590 0.431110 0.362231
0.488150 0.432685 0.363678
0.489710 0.434260 0.365126
0.491270 0.435836 0.366574
0.492830 0.437411 0.368022
0.494390 0.438987 0.369470
0.495950 0.440562 0.370918
0.497510 0.442137 0.372366
0.499070 0.443713 0.373814
0.500630 0.445288 0.375262
0.502190 0.446864 0.376710
0.503750 0.448439 0.378158
0.505310 0.450014 0.379606
0.506870 0.451590 0.381054
0.508430 0.453165 0.382502
0.509990 0.454740 0.383950
0.511550 0.456316 0.385398
0.497510 0.442137 0.372366
0.499070 0.443713 0.373814
0.500630 0.445288 0.375262
0.502190 0.446864 0.376710
0.503750 0.448439 0.378158
0.505310 0.450014 0.379606
0.506870 0.451590 0.381054
0.508430 0.453165 0.382502
0.509990 0.454740 0.383950
0.511550 0.456316 0.385398
0.513110 0.457891 0.386846
0.514670 0.459467 0.388294
0.516230 0.461042 0.389742
0.517790 0.462617 0.391189
0.519350 0.464193 0.392637
0.520910 0.465768 0.394085
0.522470 0.467344 0.395533
0.508430 0.453165 0.382502
0.509990 0.454740 0.383950
0.511550 0.456316 0.385398
0.513110 0.457891 0.386846
0.514670 0.459467 0.388294
0.516230 0.461042 0.389742
0.517790 0.462617 0.391189
0.519350 0.464193 0.392637
0.520910 0.465768 0.394085
0.522470 0.467344 0.395533
0.524030 0.468919 0.396981
0.525590 0.470494 0.398429
0.527150 0.472070 0.399877
0.528710 0.473645 0.401325
0.530270 0.475220 0.402773
0.531830 0.476796 0.404221
0.533390 0.478371 0.405669
0.519350 0.464193 0.392637
0.520910 0.465768 0.394085
0.522470 0.467344 0.395533
0.524030 0.468919 0.396981
0.525590 0.470494 0.398429
0.527150 0.472070 0.399877
0.528710 0.473645 0.401325
0.530270 0.475220 0.402773
0.531830 0.476796 0.404221
0.533390 0.478371 0.405669
0.534950 0.479947 0.407117
0.536510 0.481522 0.408565
0.538070 0.483097 0.410013
0.539630 0.484673 0.411461
0.541190 0.486248 0.412909
0.542750 0.487823 0.414357
0.544310 0.489399 0.415805
0.530270 0.475220 0.402773
0.531830 0.476796 0.404221
0.533390 0.478371 0.405669
0.534950 0.479947 0.407117
0.536510 0.481522 0.408565
0.538070 0.483097 0.410013
0.539630 0.484673 0.411461
0.541190 0.486248 0.412909
0.542750 0.487823 0.414357
0.544310 0.489399 0.415805
0.545870 0.490974 0.417252
0.547430 0.492550 0.418700
0.548990 0.494125 0.420148
0.550550 0.495700 0.421596
0.552110 0.497276 0.423044
0.553670 0.498851 0.424492
0.555230 0.500427 0.425940
0.541190 0.486248 0.412909
0.542750 0.487823 0.414357
0.544310 0.489399 0.415805
0.545870 0.490974 0.417252
0.547430 0.492550 0.418700
0.548990 0.494125 0.420148
0.550550 0.495700 0.421596
0.552110 0.497276 0.423044
0.553670 0.498851 0.424492
0.555230 0.500427 0.425940
0.556790 0.502002 0.427388
0.558350 0.503577 0.428836
0.559910 0.505153 0.430284
0.561470 0.506728 0.431732
0.563030 0.508303 0.433180
0.564590 0.509879 0.434628
0.566150 0.511454 0.436076
0.552110 0.497276 0.423044
0.553670 0.498851 0.424492
0.555230 0.500427 0.425940
0.556790 0.502002 0.427388
0.558350 0.503577 0.428836
0.559910 0.505153 0.430284
0.561470 0.506728 0.431732
0.563030 0.508303 0.433180
0.564590 0.509879 0.434628
0.566150 0.511454 0.436076
0.567710 0.513030 0.437524
0.569270 0.514605 0.438972
0.570830 0.516180 0.440420
0.572390 0.517756 0.441868
0.573950 0.519331 0.443316
0.575510 0.520907 0.444763
0.577070 0.522482 0.446211
0.396110 0.339737 0.278250
0.397670 0.341313 0.279698
0.399230 0.342888 0.281146
0.400790 0.344464 0.282593
0.402350 0.346039 0.284041
0.403910 0.347614 0.285489
0.405470 0.349190 0.286937
0.407030 0.350765 0.288385
0.408590 0.352341 0.289833
0.410150 0.353916 0.291281
0.411710 0.355491 0.292729
0.413270 0.357067 0.294177
0.414830 0.358642 0.295625
0.416390 0.360217 0.297073
0.417950 0.361793 0.298521
0.419510 0.363368 0.299969
0.421070 0.364944 0.301417
0.407030 0.350765 0.288385
