app/src/main/assets/luts/era_2020s.cube
TITLE "Generation Camera 2020s"
LUT_3D_SIZE 17
DOMAIN_MIN 0.0 0.0 0.0
DOMAIN_MAX 1.0 1.0 1.0
0.000000 0.000000 0.000000
0.058774 0.000000 0.000000
0.120204 0.000000 0.000000
0.183893 0.000000 0.000000
0.249442 0.000000 0.000000
0.316454 0.000000 0.000000
0.384532 0.000000 0.000000
0.453276 0.000000 0.000000
0.522290 0.000000 0.000000
0.591175 0.000000 0.000000
0.659534 0.000000 0.000000
0.726969 0.000000 0.000000
0.793082 0.000000 0.000000
0.857475 0.000000 0.000000
0.919750 0.000000 0.000000
0.979511 0.000000 0.000000
1.000000 0.000000 0.000000
0.000000 0.057777 0.000000
0.056742 0.056742 0.000000
0.118089 0.055708 0.000000
0.181708 0.054675 0.000000
0.247201 0.053643 0.000000
0.314170 0.052611 0.000000
0.382218 0.051580 0.000000
0.450946 0.050550 0.000000
0.519957 0.049521 0.000000
0.588853 0.048493 0.000000
0.657236 0.047466 0.000000
0.724709 0.046439 0.000000
0.790873 0.045413 0.000000
0.855331 0.044388 0.000000
0.917684 0.043364 0.000000
0.977536 0.042340 0.000000
1.000000 0.041318 0.000000
0.000000 0.118129 0.000000
0.054713 0.117052 0.000000
0.115976 0.115976 0.000000
0.179525 0.114901 0.000000
0.244961 0.113827 0.000000
0.311887 0.112753 0.000000
0.379904 0.111680 0.000000
0.448616 0.110607 0.000000
0.517624 0.109535 0.000000
0.586530 0.108464 0.000000
0.654938 0.107394 0.000000
0.722447 0.106324 0.000000
0.788662 0.105255 0.000000
0.853184 0.104187 0.000000
0.915616 0.103119 0.000000
0.975559 0.102052 0.000000
1.000000 0.100986 0.000000
0.000000 0.180677 0.000000
0.052687 0.179566 0.000000
0.113866 0.178454 0.000000
0.177344 0.177344 0.000000
0.242723 0.176234 0.000000
0.309605 0.175124 0.000000
0.377592 0.174015 0.000000
0.446287 0.172907 0.000000
0.515291 0.171799 0.000000
0.584207 0.170692 0.000000
0.652638 0.169585 0.000000
0.720185 0.168479 0.000000
0.786450 0.167374 0.000000
0.851035 0.166269 0.000000
0.913544 0.165165 0.000000
0.973578 0.164061 0.000000
1.000000 0.162958 0.000000
0.000000 0.245045 0.000000
0.050664 0.243904 0.000000
0.111758 0.242765 0.000000
0.175165 0.241625 0.000000
0.240486 0.240486 0.000000
0.307324 0.239348 0.000000
0.375280 0.238210 0.000000
0.443958 0.237072 0.000000
0.512958 0.235935 0.000000
0.581884 0.234798 0.000000
0.650337 0.233662 0.000000
0.717920 0.232526 0.000000
0.784235 0.231391 0.000000
0.848884 0.230256 0.000000
0.911469 0.229121 0.000000
0.971593 0.227987 0.000000
1.000000 0.226854 0.000000
0.000000 0.310852 0.000000
0.048644 0.309690 0.000000
0.109654 0.308528 0.000000
0.172989 0.307367 0.000000
0.238251 0.306205 0.000000
0.305044 0.305044 0.000000
0.372969 0.303884 0.000000
0.441629 0.302723 0.000000
0.510625 0.301563 0.000000
0.579560 0.300404 0.000000
0.648036 0.299245 0.000000
0.715655 0.298086 0.000000
0.782019 0.296927 0.000000
0.846731 0.295769 0.000000
0.909392 0.294611 0.000000
0.969605 0.293454 0.000000
1.000000 0.292296 0.000000
0.000000 0.377722 0.000000
0.046628 0.376544 0.000000
0.107551 0.375367 0.000000
0.170814 0.374190 0.000000
0.236018 0.373013 0.000000
0.302766 0.371836 0.000000
0.370659 0.370659 0.000000
0.439301 0.369483 0.000000
0.508292 0.368307 0.000000
0.577235 0.367131 0.000000
0.645733 0.365955 0.000000
0.713387 0.364780 0.000000
0.779801 0.363605 0.000000
0.844575 0.362430 0.000000
0.907312 0.361255 0.000000
0.967615 0.360081 0.000000
1.000000 0.358907 0.000000
0.000000 0.445275 0.000000
0.044614 0.444088 0.000000
0.105452 0.442902 0.000000
0.168642 0.441716 0.000000
0.233787 0.440530 0.000000
0.300489 0.439344 0.000000
0.368350 0.438158 0.000000
0.436973 0.436973 0.000000
0.505958 0.435787 0.000000
0.574910 0.434602 0.000000
0.643429 0.433416 0.000000
0.711119 0.432231 0.000000
0.777580 0.431046 0.000000
0.842416 0.429861 0.000000
0.905229 0.428676 0.000000
0.965620 0.427491 0.000000
1.000000 0.426306 0.000000
0.000000 0.513133 0.000000
0.042604 0.511945 0.000000
0.103355 0.510756 0.000000
0.166472 0.509568 0.000000
0.231558 0.508379 0.000000
0.298214 0.507191 0.000000
0.366042 0.506002 0.000000
0.434645 0.504814 0.000000
0.503625 0.503625 0.000000
0.572584 0.502437 0.000000
0.641125 0.501248 0.000000
0.708849 0.500060 0.000000
0.775358 0.498871 0.000000
0.840256 0.497683 0.000000
0.903143 0.496494 0.000000
0.963623 0.495306 0.000000
1.000000 0.494117 0.000000
0.000000 0.580918 0.000000
0.040596 0.579734 0.000000
0.101261 0.578550 0.000000
0.164305 0.577366 0.000000
0.229330 0.576182 0.000000
0.295939 0.574997 0.000000
0.363735 0.573813 0.000000
0.432318 0.572628 0.000000
0.501292 0.571443 0.000000
0.570258 0.570258 0.000000
0.638819 0.569073 0.000000
0.706577 0.567888 0.000000
0.773135 0.566703 0.000000
0.838093 0.565517 0.000000
0.901055 0.564332 0.000000
0.961623 0.563146 0.000000
1.000000 0.561961 0.000000
0.000000 0.648251 0.000000
0.038592 0.647079 0.000000
0.099169 0.645906 0.000000
0.162139 0.644732 0.000000
0.227104 0.643559 0.000000
0.293666 0.642385 0.000000
0.361428 0.641211 0.000000
0.429991 0.640037 0.000000
0.498959 0.638863 0.000000
0.567932 0.637688 0.000000
0.636513 0.636513 0.000000
0.704305 0.635338 0.000000
0.770909 0.634162 0.000000
0.835928 0.632987 0.000000
0.898964 0.631811 0.000000
0.959619 0.630635 0.000000
1.000000 0.629459 0.000000
0.000000 0.714755 0.000000
0.036591 0.713600 0.000000
0.097081 0.712445 0.000000
0.159976 0.711289 0.000000
0.224880 0.710133 0.000000
0.291395 0.708976 0.000000
0.359123 0.707820 0.000000
0.427665 0.706663 0.000000
0.496625 0.705505 0.000000
0.565605 0.704347 0.000000
0.634206 0.703189 0.000000
0.702031 0.702031 0.000000
0.768681 0.700872 0.000000
0.833761 0.699712 0.000000
0.896870 0.698553 0.000000
0.957612 0.697393 0.000000
1.000000 0.696233 0.000000
0.000000 0.780050 0.000000
0.034594 0.778920 0.000000
0.094995 0.777789 0.000000
0.157815 0.776657 0.000000
0.222658 0.775525 0.000000
0.289125 0.774393 0.000000
0.356818 0.773260 0.000000
0.425340 0.772126 0.000000
0.494292 0.770992 0.000000
0.563277 0.769858 0.000000
0.631898 0.768723 0.000000
0.699755 0.767588 0.000000
0.766452 0.766452 0.000000
0.831591 0.765316 0.000000
0.894773 0.764179 0.000000
0.955602 0.763042 0.000000
1.000000 0.761905 0.000000
0.000000 0.843759 0.000000
0.032599 0.842659 0.000000
0.092911 0.841559 0.000000
0.155657 0.840458 0.000000
0.220438 0.839357 0.000000
0.286856 0.838255 0.000000
0.354514 0.837153 0.000000
0.423014 0.836050 0.000000
0.491959 0.834946 0.000000
0.560949 0.833842 0.000000
0.629588 0.832737 0.000000
0.697478 0.831632 0.000000
0.764221 0.830526 0.000000
0.829419 0.829419 0.000000
0.892674 0.828312 0.000000
0.953589 0.827204 0.000000
1.000000 0.826096 0.000000
0.000000 0.905502 0.000000
0.030608 0.904441 0.000000
0.090831 0.903378 0.000000
0.153501 0.902315 0.000000
0.218219 0.901251 0.000000
0.284589 0.900186 0.000000
0.352211 0.899121 0.000000
0.420690 0.898055 0.000000
0.489625 0.896988 0.000000
0.558621 0.895920 0.000000
0.627279 0.894852 0.000000
0.695200 0.893783 0.000000
0.761988 0.892713 0.000000
0.827245 0.891643 0.000000
0.890572 0.890572 0.000000
0.951572 0.889500 0.000000
1.000000 0.888428 0.000000
0.000000 0.964903 0.000000
0.028620 0.963885 0.000000
0.088753 0.962867 0.000000
0.151347 0.961848 0.000000
0.216003 0.960828 0.000000
0.282323 0.959807 0.000000
0.349910 0.958785 0.000000
0.418366 0.957762 0.000000
0.487292 0.956739 0.000000
0.556292 0.955715 0.000000
0.624968 0.954690 0.000000
0.692921 0.953664 0.000000
0.759754 0.952638 0.000000
0.825069 0.951610 0.000000
0.888468 0.950582 0.000000
0.949553 0.949553 0.000000
1.000000 0.948523 0.000000
0.000000 1.000000 0.000000
0.026635 1.000000 0.000000
0.086679 1.000000 0.000000
0.149195 1.000000 0.000000
0.213788 1.000000 0.000000
0.280058 1.000000 0.000000
0.347609 1.000000 0.000000
0.416042 1.000000 0.000000
0.484959 1.000000 0.000000
0.553963 1.000000 0.000000
0.622656 1.000000 0.000000
0.690640 1.000000 0.000000
0.757517 1.000000 0.000000
0.822890 1.000000 0.000000
0.886360 1.000000 0.000000
0.947530 1.000000 0.000000
1.000000 1.000000 0.000000
0.000000 0.000000 0.059415
0.058379 0.000000 0.058379
0.119793 0.000000 0.057344
0.183468 0.000000 0.056310
0.249007 0.000000 0.055276
0.316011 0.000000 0.054243
0.384082 0.000000 0.053211
0.452823 0.000000 0.052180
0.521837 0.000000 0.051150
0.590724 0.000000 0.050120
0.659088 0.000000 0.049091
0.726530 0.000000 0.048063
0.792653 0.000000 0.047036
0.857059 0.000000 0.046010
0.919349 0.000000 0.044984
0.979128 0.000000 0.043960
1.000000 0.000000 0.042936
0.000000 0.057382 0.057382
0.056348 0.056348 0.056348
0.117678 0.055314 0.055314
0.181284 0.054281 0.054281
0.246766 0.053249 0.053249
0.313726 0.052218 0.052218
0.381768 0.051188 0.051188
0.450493 0.050158 0.050158
0.519504 0.049129 0.049129
0.588402 0.048101 0.048101
0.656790 0.047074 0.047074
0.724270 0.046048 0.046048
0.790444 0.045022 0.045022
0.854914 0.043997 0.043997
0.917283 0.042973 0.042973
0.977153 0.041950 0.041950
1.000000 0.040928 0.040928
0.000000 0.117718 0.055352
0.054319 0.116642 0.054319
0.115566 0.115566 0.053287
0.179101 0.114491 0.052256
0.244526 0.113417 0.051225
0.311443 0.112343 0.050196
0.379455 0.111271 0.049167
0.448164 0.110198 0.048139
0.517171 0.109127 0.047112
0.586079 0.108056 0.046085
0.654491 0.106986 0.045060
0.722008 0.105917 0.044035
0.788233 0.104848 0.043011
0.852767 0.103780 0.041988
0.915214 0.102712 0.040965
0.975174 0.101646 0.039944
1.000000 0.100580 0.038923
0.000000 0.180253 0.053325
0.052294 0.179142 0.052294
0.113457 0.178031 0.051263
0.176921 0.176921 0.050234
0.242288 0.175811 0.049205
0.309162 0.174701 0.048177
0.377143 0.173593 0.047150
0.445834 0.172485 0.046123
0.514838 0.171377 0.045097
0.583756 0.170270 0.044073
0.652191 0.169164 0.043049
0.719745 0.168058 0.042025
0.786020 0.166953 0.041003
0.850618 0.165848 0.039982
0.913141 0.164744 0.038961
0.973192 0.163640 0.037941
1.000000 0.162537 0.036922
0.000000 0.244610 0.051301
0.050272 0.243470 0.050272
0.111349 0.242330 0.049243
0.174742 0.241191 0.048215
0.240052 0.240052 0.047187
0.306881 0.238914 0.046161
0.374831 0.237776 0.045135
0.443505 0.236638 0.044110
0.512505 0.235501 0.043086
0.581433 0.234365 0.042063
0.649890 0.233229 0.041041
0.717480 0.232093 0.040019
0.783805 0.230958 0.038998
0.848466 0.229823 0.037978
0.911066 0.228689 0.036959
0.971207 0.227555 0.035941
1.000000 0.226422 0.034924
0.000000 0.310409 0.049281
0.048252 0.309247 0.048252
0.109245 0.308085 0.047225
0.172566 0.306924 0.046199
0.237818 0.305763 0.045173
0.304602 0.304602 0.044148
0.372521 0.303441 0.043124
0.441177 0.302281 0.042101
0.510172 0.301121 0.041078
0.579108 0.299962 0.040057
0.647588 0.298803 0.039036
0.715214 0.297644 0.038016
0.781588 0.296485 0.036997
0.846312 0.295327 0.035978
0.908988 0.294170 0.034961
0.969219 0.293012 0.033944
1.000000 0.291855 0.032929
0.000000 0.377273 0.047263
0.046236 0.376095 0.046236
0.107143 0.374918 0.045211
0.170392 0.373741 0.044186
0.235585 0.372564 0.043162
0.302324 0.371387 0.042138
0.370211 0.370211 0.041116
0.438848 0.369035 0.040094
0.507839 0.367859 0.039073
0.576784 0.366683 0.038053
0.645286 0.365507 0.037034
0.712947 0.364332 0.036016
0.779370 0.363157 0.034998
0.844156 0.361982 0.033982
0.906908 0.360807 0.032966
0.967228 0.359633 0.031951
1.000000 0.358459 0.030937
0.000000 0.444822 0.045248
0.044223 0.443636 0.044223
0.105044 0.442450 0.043199
0.168221 0.441264 0.042176
0.233354 0.440078 0.041153
0.300047 0.438892 0.040132
0.367902 0.437706 0.039111
0.436521 0.436521 0.038091
0.505505 0.435335 0.037072
0.574458 0.434150 0.036053
0.642982 0.432964 0.035036
0.710678 0.431779 0.034019
0.777149 0.430594 0.033003
0.841997 0.429409 0.031988
0.904824 0.428224 0.030974
0.965233 0.427039 0.029961
1.000000 0.425855 0.028948
0.000000 0.512680 0.043237
0.042214 0.511491 0.042214
0.102948 0.510303 0.041191
0.166051 0.509115 0.040169
0.231125 0.507926 0.039148
0.297772 0.506738 0.038128
0.365594 0.505549 0.037109
0.434193 0.504361 0.036091
0.503172 0.503172 0.035073
0.572133 0.501984 0.034057
0.640677 0.500795 0.033041
0.708408 0.499606 0.032026
0.774927 0.498418 0.031011
0.839836 0.497229 0.029998
0.902738 0.496041 0.028986
0.963235 0.494852 0.027974
1.000000 0.493664 0.026963
0.000000 0.580467 0.041229
0.040207 0.579283 0.040207
0.100854 0.578099 0.039186
0.163884 0.576914 0.038166
0.228898 0.575730 0.037147
0.295498 0.574546 0.036128
0.363287 0.573361 0.035111
0.431866 0.572176 0.034094
0.500839 0.570991 0.033078
0.569806 0.569806 0.032063
0.638372 0.568621 0.031049
0.706136 0.567436 0.030035
0.772702 0.566251 0.029023
0.837673 0.565065 0.028011
0.900649 0.563880 0.027000
0.961234 0.562694 0.025990
1.000000 0.561509 0.024981
0.000000 0.647804 0.039224
0.038203 0.646631 0.038203
0.098763 0.645458 0.037184
0.161719 0.644285 0.036166
0.226672 0.643111 0.035148
0.293225 0.641938 0.034131
0.360980 0.640764 0.033115
0.429540 0.639589 0.032100
0.498505 0.638415 0.031086
0.567480 0.637240 0.030073
0.636065 0.636065 0.029060
0.703863 0.634890 0.028048
0.770476 0.633714 0.027037
0.835507 0.632539 0.026027
0.898557 0.631363 0.025018
0.959229 0.630186 0.024010
1.000000 0.629010 0.023002
0.000000 0.714314 0.037222
0.036203 0.713159 0.036203
0.096675 0.712004 0.035186
0.159556 0.710848 0.034169
0.224448 0.709692 0.033153
0.290954 0.708535 0.032138
0.358675 0.707379 0.031123
0.427214 0.706221 0.030110
0.496172 0.705064 0.029097
0.565153 0.703906 0.028085
0.633758 0.702747 0.027075
0.701589 0.701589 0.026065
0.768249 0.700430 0.025055
0.833339 0.699270 0.024047
0.896463 0.698111 0.023039
0.957222 0.696951 0.022033
1.000000 0.695790 0.021027
0.000000 0.779619 0.035223
0.034206 0.778488 0.034206
0.094590 0.777357 0.033190
0.157396 0.776225 0.032175
0.222227 0.775093 0.031161
0.288684 0.773961 0.030147
0.356370 0.772828 0.029134
0.424888 0.771694 0.028123
0.493839 0.770560 0.027112
0.562825 0.769425 0.026102
0.631449 0.768290 0.025092
0.699313 0.767155 0.024084
0.766019 0.766019 0.023076
0.831169 0.764883 0.022070
0.894366 0.763746 0.021064
0.955211 0.762609 0.020059
1.000000 0.761471 0.019055
0.000000 0.843340 0.033227
0.032212 0.842240 0.032212
0.092507 0.841140 0.031198
0.155238 0.840039 0.030184
0.220007 0.838937 0.029172
0.286416 0.837835 0.028160
0.354067 0.836732 0.027149
0.422563 0.835629 0.026139
0.491506 0.834525 0.025130
0.560497 0.833421 0.024121
0.629140 0.832316 0.023114
0.697036 0.831210 0.022107
0.763788 0.830104 0.021101
0.828997 0.828997 0.020096
0.892266 0.827890 0.019092
0.953197 0.826782 0.018089
1.000000 0.825673 0.017086
0.000000 0.905098 0.031235
0.030222 0.904036 0.030222
0.090427 0.902973 0.029209
0.153082 0.901909 0.028197
0.217789 0.900845 0.027186
0.284149 0.899780 0.026176
0.351764 0.898714 0.025167
0.420238 0.897648 0.024158
0.489172 0.896581 0.023151
0.558169 0.895513 0.022144
0.626830 0.894445 0.021138
0.694758 0.893375 0.020133
0.761554 0.892305 0.019129
0.826822 0.891235 0.018125
0.890164 0.890164 0.017123
0.951180 0.889092 0.016122
1.000000 0.888019 0.015121
0.000000 0.964515 0.029246
0.028234 0.963497 0.028234
0.088350 0.962478 0.027223
0.150929 0.961459 0.026213
0.215572 0.960438 0.025204
0.281883 0.959417 0.024195
0.349463 0.958395 0.023188
0.417914 0.957372 0.022181
0.486839 0.956349 0.021175
0.555840 0.955324 0.020170
0.624519 0.954299 0.019166
0.692478 0.953273 0.018162
0.759320 0.952246 0.017160
0.824646 0.951218 0.016158
0.888059 0.950190 0.015158
0.949160 0.949160 0.014158
1.000000 0.948130 0.013159
0.000000 1.000000 0.027260
0.026250 1.000000 0.026250
0.086276 1.000000 0.025241
0.148778 1.000000 0.024232
0.213358 1.000000 0.023225
0.279619 1.000000 0.022218
0.347162 1.000000 0.021212
0.415591 1.000000 0.020207
0.484506 1.000000 0.019203
0.553511 1.000000 0.018199
0.622207 1.000000 0.017197
0.690197 1.000000 0.016195
0.757083 1.000000 0.015194
0.822467 1.000000 0.014195
0.885951 1.000000 0.013196
0.947137 1.000000 0.012197
1.000000 1.000000 0.011200
0.000000 0.000000 0.121539
0.057984 0.000000 0.120460
0.119382 0.000000 0.119382
0.183044 0.000000 0.118305
0.248571 0.000000 0.117228
0.315567 0.000000 0.116152
0.383633 0.000000 0.115077
0.452371 0.000000 0.114003
0.521384 0.000000 0.112929
0.590273 0.000000 0.111855
0.658641 0.000000 0.110783
0.726091 0.000000 0.109711
0.792224 0.000000 0.108640
0.856642 0.000000 0.107569
0.918948 0.000000 0.106499
0.978744 0.000000 0.105430
1.000000 0.000000 0.104362
0.000000 0.056988 0.119422
0.055953 0.055953 0.118345
0.117268 0.054920 0.117268
0.180860 0.053888 0.116192
0.246331 0.052856 0.115117
0.313283 0.051825 0.114042
0.381319 0.050795 0.112968
0.450041 0.049766 0.111895
0.519051 0.048737 0.110822
0.587951 0.047709 0.109750
0.656343 0.046683 0.108679
0.723831 0.045656 0.107609
0.790014 0.044631 0.106539
0.854497 0.043607 0.105470
0.916881 0.042583 0.104401
0.976769 0.041560 0.103334
1.000000 0.040538 0.102266
0.000000 0.117308 0.117308
0.053926 0.116232 0.116232
0.115156 0.115156 0.115156
0.178677 0.114082 0.114082
0.244091 0.113008 0.113008
0.311000 0.111934 0.111934
0.379006 0.110862 0.110862
0.447711 0.109790 0.109790
0.516718 0.108719 0.108719
0.585628 0.107648 0.107648
0.654044 0.106578 0.106578
0.721569 0.105509 0.105509
0.787803 0.104441 0.104441
0.852350 0.103373 0.103373
0.914811 0.102306 0.102306
0.974789 0.101239 0.101239
1.000000 0.100174 0.100174
0.000000 0.179830 0.115196
0.051901 0.178718 0.114121
0.113047 0.177608 0.113047
0.176497 0.176497 0.111974
0.241854 0.175388 0.110901
0.308719 0.174279 0.109829
0.376694 0.173170 0.108758
0.445382 0.172062 0.107687
0.514385 0.170955 0.106618
0.583305 0.169848 0.105548
0.651744 0.168742 0.104480
0.719305 0.167636 0.103412
0.785590 0.166531 0.102345
0.850200 0.165427 0.101279
0.912739 0.164323 0.100213
0.972807 0.163220 0.099148
1.000000 0.162117 0.098084
0.000000 0.244175 0.113087
0.049879 0.243035 0.112013
0.110941 0.241896 0.110941
0.174319 0.240757 0.109869
0.239618 0.239618 0.108797
0.306438 0.238480 0.107727
0.374383 0.237342 0.106657
0.443053 0.236205 0.105588
0.512052 0.235068 0.104519
0.580981 0.233932 0.103451
0.649443 0.232796 0.102384
0.717040 0.231660 0.101318
0.783375 0.230525 0.100252
0.848048 0.229391 0.099187
0.910663 0.228257 0.098123
0.970821 0.227123 0.097059
1.000000 0.225990 0.095996
0.000000 0.309966 0.110980
0.047861 0.308804 0.109908
0.108837 0.307642 0.108837
0.172144 0.306481 0.107766
0.237384 0.305320 0.106696
0.304159 0.304159 0.105627
0.372072 0.302999 0.104558
0.440724 0.301839 0.103491
0.509719 0.300679 0.102423
0.578657 0.299520 0.101357
0.647141 0.298361 0.100291
0.714774 0.297202 0.099226
0.781157 0.296044 0.098162
0.845894 0.294886 0.097098
0.908584 0.293728 0.096035
0.968833 0.292571 0.094973
1.000000 0.291414 0.093912
0.000000 0.376824 0.108876
0.045845 0.375646 0.107806
0.106736 0.374469 0.106736
0.169970 0.373292 0.105666
0.235152 0.372115 0.104598
0.301882 0.370939 0.103530
0.369762 0.369762 0.102463
0.438396 0.368586 0.101396
0.507385 0.367410 0.100331
0.576332 0.366235 0.099265
0.644838 0.365059 0.098201
0.712506 0.363884 0.097137
0.778938 0.362709 0.096075
0.843737 0.361534 0.095012
0.906503 0.360360 0.093951
0.966840 0.359185 0.092890
1.000000 0.358011 0.091830
0.000000 0.444370 0.106775
0.043833 0.443184 0.105706
0.104637 0.441998 0.104637
0.167799 0.440812 0.103569
0.232921 0.439626 0.102502
0.299605 0.438440 0.101435
0.367454 0.437254 0.100370
0.436069 0.436069 0.099305
0.505052 0.434883 0.098240
0.574007 0.433698 0.097177
0.642534 0.432512 0.096114
0.710237 0.431327 0.095051
0.776718 0.430142 0.093990
0.841578 0.428957 0.092929
0.904419 0.427772 0.091869
0.964845 0.426588 0.090810
1.000000 0.425403 0.089751
0.000000 0.512227 0.104676
0.041824 0.511038 0.103608
0.102541 0.509850 0.102541
0.165630 0.508661 0.101475
0.230692 0.507473 0.100409
0.297330 0.506284 0.099344
0.365146 0.505096 0.098279
0.433741 0.503907 0.097216
0.502719 0.502719 0.096153
0.571681 0.501530 0.095091
0.640229 0.500342 0.094029
0.707967 0.499153 0.092968
0.774495 0.497965 0.091908
0.839416 0.496776 0.090849
0.902333 0.495588 0.089790
0.962846 0.494399 0.088732
1.000000 0.493211 0.087675
0.000000 0.580015 0.102580
0.039818 0.578831 0.101514
0.100448 0.577647 0.100448
0.163463 0.576463 0.099383
0.228465 0.575278 0.098319
0.295056 0.574094 0.097255
0.362839 0.572909 0.096192
0.431414 0.571725 0.095130
0.500386 0.570540 0.094068
0.569355 0.569355 0.093007
0.637924 0.568170 0.091947
0.705695 0.566984 0.090888
0.772270 0.565799 0.089829
0.837252 0.564613 0.088771
0.900243 0.563428 0.087714
0.960845 0.562242 0.086657
1.000000 0.561056 0.085602
0.000000 0.647357 0.100487
0.037815 0.646184 0.099422
0.098358 0.645011 0.098358
0.161299 0.643838 0.097294
0.226240 0.642664 0.096231
0.292784 0.641490 0.095169
0.360532 0.640316 0.094107
0.429088 0.639141 0.093046
0.498052 0.637967 0.091986
0.567028 0.636792 0.090927
0.635617 0.635617 0.089868
0.703422 0.634442 0.088810
0.770044 0.633266 0.087753
0.835086 0.632090 0.086696
0.898151 0.630914 0.085640
0.958840 0.629738 0.084585
1.000000 0.628562 0.083531
0.000000 0.713874 0.098397
0.035815 0.712719 0.097333
0.096270 0.711563 0.096270
0.159137 0.710407 0.095208
0.224017 0.709251 0.094146
0.290513 0.708094 0.093085
0.358227 0.706937 0.092025
0.426762 0.705780 0.090966
0.495719 0.704622 0.089907
0.564701 0.703464 0.088849
0.633309 0.702306 0.087792
0.701147 0.701147 0.086735
0.767816 0.699988 0.085679
0.832918 0.698828 0.084624
0.896056 0.697668 0.083570
0.956832 0.696508 0.082516
1.000000 0.695348 0.081463
0.000000 0.779188 0.096309
0.033819 0.778057 0.095247
0.094185 0.776926 0.094185
0.156977 0.775794 0.093124
0.221795 0.774662 0.092064
0.288243 0.773529 0.091005
0.355923 0.772395 0.089946
0.424436 0.771262 0.088888
0.493386 0.770127 0.087830
0.562373 0.768993 0.086774
0.631001 0.767858 0.085718
0.698871 0.766722 0.084663
0.765586 0.765586 0.083609
0.830748 0.764449 0.082555
0.893958 0.763312 0.081502
0.954820 0.762175 0.080450
1.000000 0.761037 0.079399
0.000000 0.842920 0.094224
0.031825 0.841820 0.093163
0.092103 0.840720 0.092103
0.154819 0.839619 0.091044
0.219576 0.838517 0.089985
0.285975 0.837415 0.088927
0.353620 0.836312 0.087869
0.422111 0.835208 0.086813
0.491052 0.834104 0.085757
0.560045 0.832999 0.084702
0.628691 0.831894 0.083647
0.696594 0.830788 0.082594
0.763354 0.829682 0.081541
0.828575 0.828575 0.080489
0.891858 0.827467 0.079437
0.952806 0.826359 0.078387
1.000000 0.825250 0.077337
0.000000 0.904693 0.092142
0.029835 0.903630 0.091082
0.090024 0.902567 0.090024
0.152664 0.901503 0.088966
0.217358 0.900439 0.087908
0.283708 0.899374 0.086852
0.351317 0.898308 0.085796
0.419787 0.897241 0.084741
0.488719 0.896174 0.083686
0.557717 0.895106 0.082633
0.626381 0.894037 0.081580
0.694315 0.892968 0.080527
0.761121 0.891897 0.079476
0.826400 0.890827 0.078425
0.889755 0.889755 0.077375
0.950788 0.888683 0.076326
1.000000 0.887610 0.075278
0.000000 0.964127 0.090063
0.027849 0.963109 0.089005
0.087947 0.962090 0.087947
0.150511 0.961070 0.086890
0.215142 0.960049 0.085835
0.281443 0.959028 0.084779
0.349016 0.958005 0.083725
0.417463 0.956982 0.082671
0.486386 0.955958 0.081618
0.555388 0.954933 0.080566
0.624070 0.953908 0.079515
0.692035 0.952881 0.078464
0.758885 0.951854 0.077414
0.824223 0.950826 0.076365
0.887649 0.949797 0.075316
0.948768 0.948768 0.074268
1.000000 0.947737 0.073222
0.000000 1.000000 0.087986
0.025865 1.000000 0.086929
0.085873 1.000000 0.085873
0.148360 1.000000 0.084818
0.212928 1.000000 0.083764
0.279179 1.000000 0.082710
0.346716 1.000000 0.081657
0.415140 1.000000 0.080605
0.484053 1.000000 0.079553
0.553059 1.000000 0.078503
0.621758 1.000000 0.077453
0.689754 1.000000 0.076403
0.756648 1.000000 0.075355
0.822043 1.000000 0.074307
0.885541 1.000000 0.073260
0.946744 1.000000 0.072214
1.000000 1.000000 0.071168
0.000000 0.000000 0.185961
0.057590 0.000000 0.184847
0.118972 0.000000 0.183733
0.182620 0.000000 0.182620
0.248136 0.000000 0.181507
0.315123 0.000000 0.180395
0.383183 0.000000 0.179283
0.451918 0.000000 0.178172
0.520931 0.000000 0.177062
0.589822 0.000000 0.175952
0.658195 0.000000 0.174842
0.725652 0.000000 0.173734
0.791795 0.000000 0.172625
0.856226 0.000000 0.171518
0.918547 0.000000 0.170411
0.978361 0.000000 0.169304
1.000000 0.000000 0.168198
0.000000 0.056593 0.183774
