app/src/main/assets/luts/era_1960s.cube
TITLE "Generation Camera 1960s"
LUT_3D_SIZE 5
DOMAIN_MIN 0.0 0.0 0.0
DOMAIN_MAX 1.0 1.0 1.0
0.000001 0.000000 0.000000
0.273211 0.013578 0.012022
0.651011 0.032995 0.029214
0.964077 0.049710 0.044014
1.000000 0.051668 0.045747
0.023071 0.227725 0.019610
0.259655 0.222135 0.028893
0.626793 0.223321 0.044560
0.944811 0.223388 0.058522
1.000000 0.217681 0.060479
0.056867 0.549858 0.048337
0.257767 0.538496 0.056075
0.609190 0.532655 0.071259
0.926084 0.526262 0.085361
1.000000 0.518950 0.088177
0.090001 0.850957 0.076501
0.258628 0.840161 0.083281
0.593767 0.832616 0.098463
0.907706 0.824615 0.113185
1.000000 0.818245 0.117228
0.105660 0.987699 0.089811
0.250382 0.989508 0.096856
0.575383 0.993272 0.113151
0.889802 0.996477 0.129610
1.000000 0.997488 0.135558
0.003839 0.003686 0.170710
0.270985 0.016724 0.168847
0.647105 0.035830 0.172500
0.961048 0.052361 0.174112
1.000000 0.054333 0.168715
0.025890 0.225828 0.165659
0.256990 0.219924 0.161571
0.622639 0.220999 0.164235
0.941606 0.221064 0.165642
1.000000 0.215463 0.160877
0.059085 0.546360 0.170722
0.254990 0.534721 0.165702
0.604978 0.528753 0.168456
0.922773 0.522318 0.170664
1.000000 0.515069 0.167190
0.091826 0.847731 0.176327
0.255881 0.836694 0.171106
0.589575 0.828999 0.174585
0.904319 0.820910 0.178201
1.000000 0.814543 0.176429
0.107512 0.988113 0.170724
0.247940 0.989799 0.166520
0.571350 0.993467 0.171887
0.886370 0.996613 0.178055
1.000000 0.997628 0.178643
0.009517 0.009136 0.423225
0.270362 0.021866 0.417967
0.644076 0.040876 0.417822
0.958111 0.057424 0.415283
1.000000 0.059522 0.407795
0.030968 0.225844 0.411856
0.256289 0.219823 0.403801
0.619581 0.220965 0.402012
0.938568 0.221200 0.398668
1.000000 0.215809 0.391534
0.063933 0.544473 0.409229
0.254520 0.532690 0.399642
0.602086 0.526698 0.397097
0.919723 0.520322 0.393735
1.000000 0.513206 0.387522
0.096608 0.845534 0.405676
0.255764 0.834320 0.395361
0.586930 0.826495 0.392720
0.901301 0.818332 0.389925
1.000000 0.811997 0.384972
0.112586 0.989218 0.391881
0.248409 0.990776 0.382110
0.569074 0.994269 0.380676
0.883417 0.997266 0.379667
1.000000 0.998249 0.376567
0.015486 0.014867 0.688638
0.270103 0.027380 0.684118
0.641276 0.046385 0.684186
0.955199 0.063040 0.681475
1.000000 0.065320 0.674256
0.036511 0.226292 0.678358
0.256094 0.220239 0.670476
0.616834 0.221531 0.668213
0.935582 0.222022 0.664044
1.000000 0.216893 0.656864
0.069416 0.542984 0.675167
0.254705 0.531122 0.665117
0.599602 0.525167 0.661140
0.916761 0.518911 0.655988
1.000000 0.511969 0.649279
0.102191 0.843590 0.669329
0.256460 0.832241 0.657962
0.584800 0.824311 0.652903
0.898417 0.816100 0.647275
1.000000 0.809818 0.641256
0.118620 0.990480 0.653709
0.249851 0.991920 0.642332
0.567428 0.995226 0.637619
0.880654 0.998051 0.632775
1.000000 0.998993 0.627932
0.020163 0.019357 0.896518
0.269019 0.031752 0.897098
0.638109 0.050844 0.901739
0.952238 0.067700 0.903217
1.000000 0.070217 0.898727
0.040943 0.225858 0.895144
0.255177 0.219851 0.891822
0.613759 0.221374 0.893453
0.932541 0.222200 0.892803
1.000000 0.217381 0.888015
0.073960 0.540941 0.899210
0.254280 0.529060 0.893075
0.596838 0.523203 0.892022
0.913746 0.517130 0.889385
1.000000 0.510396 0.884570
0.107010 0.841353 0.898868
0.256670 0.829907 0.890784
0.582452 0.821917 0.887608
0.895492 0.813698 0.883365
1.000000 0.807488 0.878608
0.124055 0.991566 0.888380
0.250937 0.992919 0.879679
0.565638 0.996068 0.875892
0.877871 0.998746 0.871311
1.000000 0.999653 0.866978
