app/src/main/assets/luts/era_1930s.cube
TITLE "Generation Camera 1930s"
LUT_3D_SIZE 5
DOMAIN_MIN 0.0 0.0 0.0
DOMAIN_MAX 1.0 1.0 1.0
0.176498 0.176498 0.176498
0.226553 0.226553 0.226553
0.276028 0.276028 0.276028
0.325037 0.325037 0.325037
0.373659 0.373659 0.373659
0.274216 0.274216 0.274216
0.323241 0.323241 0.323241
0.371876 0.371876 0.371876
0.420178 0.420178 0.420178
0.468188 0.468188 0.468188
0.370093 0.370093 0.370093
0.418406 0.418406 0.418406
0.466427 0.466427 0.466427
0.514188 0.514188 0.514188
0.561717 0.561717 0.561717
0.464665 0.464665 0.464665
0.512435 0.512435 0.512435
0.559972 0.559972 0.559972
0.607297 0.607297 0.607297
0.654428 0.654428 0.654428
0.558227 0.558227 0.558227
0.605559 0.605559 0.605559
0.652698 0.652698 0.652698
0.699657 0.699657 0.699657
0.746451 0.746451 0.746451
0.195661 0.195661 0.195661
0.245477 0.245477 0.245477
0.294763 0.294763 0.294763
0.343617 0.343617 0.343617
0.392107 0.392107 0.392107
0.292958 0.292958 0.292958
0.341827 0.341827 0.341827
0.390329 0.390329 0.390329
0.438515 0.438515 0.438515
0.486424 0.486424 0.486424
0.388551 0.388551 0.388551
0.436748 0.436748 0.436748
0.484666 0.484666 0.484666
0.532335 0.532335 0.532335
0.579781 0.579781 0.579781
0.482908 0.482908 0.482908
0.530586 0.530586 0.530586
0.578039 0.578039 0.578039
0.625289 0.625289 0.625289
0.672350 0.672350 0.672350
0.576297 0.576297 0.576297
0.623554 0.623554 0.623554
0.670622 0.670622 0.670622
0.717517 0.717517 0.717517
0.764251 0.764251 0.764251
0.214725 0.214725 0.214725
0.264325 0.264325 0.264325
0.313437 0.313437 0.313437
0.362145 0.362145 0.362145
0.410510 0.410510 0.410510
0.311638 0.311638 0.311638
0.360360 0.360360 0.360360
0.408736 0.408736 0.408736
0.456812 0.456812 0.456812
0.504623 0.504623 0.504623
0.406962 0.406962 0.406962
0.455049 0.455049 0.455049
0.502869 0.502869 0.502869
0.550450 0.550450 0.550450
0.597816 0.597816 0.597816
0.501114 0.501114 0.501114
0.548704 0.548704 0.548704
0.596077 0.596077 0.596077
0.643253 0.643253 0.643253
0.690247 0.690247 0.690247
0.594338 0.594338 0.594338
0.641521 0.641521 0.641521
0.688522 0.688522 0.688522
0.735354 0.735354 0.735354
0.782030 0.782030 0.782030
0.233701 0.233701 0.233701
0.283102 0.283102 0.283102
0.332052 0.332052 0.332052
0.380623 0.380623 0.380623
0.428869 0.428869 0.428869
0.330258 0.330258 0.330258
0.378842 0.378842 0.378842
0.427100 0.427100 0.427100
0.475071 0.475071 0.475071
0.522788 0.522788 0.522788
0.425329 0.425329 0.425329
0.473311 0.473311 0.473311
0.521037 0.521037 0.521037
0.568534 0.568534 0.568534
0.615823 0.615823 0.615823
0.519285 0.519285 0.519285
0.566790 0.566790 0.566790
0.614086 0.614086 0.614086
0.661191 0.661191 0.661191
0.708120 0.708120 0.708120
0.612350 0.612350 0.612350
0.659462 0.659462 0.659462
0.706397 0.706397 0.706397
0.753168 0.753168 0.753168
0.799787 0.799787 0.799787
0.252595 0.252595 0.252595
0.301814 0.301814 0.301814
0.350612 0.350612 0.350612
0.399054 0.399054 0.399054
0.447187 0.447187 0.447187
0.348823 0.348823 0.348823
0.397277 0.397277 0.397277
0.445421 0.445421 0.445421
0.493293 0.493293 0.493293
0.540920 0.540920 0.540920
0.443655 0.443655 0.443655
0.491536 0.491536 0.491536
0.539172 0.539172 0.539172
0.586587 0.586587 0.586587
0.633801 0.633801 0.633801
0.537424 0.537424 0.537424
0.584847 0.584847 0.584847
0.632068 0.632068 0.632068
0.679104 0.679104 0.679104
0.725969 0.725969 0.725969
0.630334 0.630334 0.630334
0.677377 0.677377 0.677377
0.724248 0.724248 0.724248
0.770960 0.770960 0.770960
0.817523 0.817523 0.817523
