app/src/main/assets/luts/era_1990s.cube
TITLE "Generation Camera 1990s"
LUT_3D_SIZE 17
DOMAIN_MIN 0.0 0.0 0.0
DOMAIN_MAX 1.0 1.0 1.0
0.055037 0.055037 0.055037
0.104848 0.056979 0.057886
0.155944 0.058924 0.060740
0.208152 0.060871 0.063599
0.261296 0.062820 0.066463
0.315202 0.064771 0.069332
0.369696 0.066725 0.072205
0.424603 0.068681 0.075084
0.479749 0.070639 0.077966
0.534958 0.072599 0.080854
0.590058 0.074562 0.083746
0.644872 0.076526 0.086642
0.699226 0.078493 0.089543
0.752946 0.080462 0.092449
0.805858 0.082433 0.095359
0.857787 0.084406 0.098274
0.908558 0.086382 0.101192
0.059816 0.105800 0.058815
0.109760 0.107798 0.061671
0.160972 0.109797 0.064532
0.213278 0.111799 0.067397
0.266504 0.113802 0.070267
0.320475 0.115807 0.073142
0.375017 0.117815 0.076022
0.429955 0.119824 0.078906
0.485114 0.121835 0.081795
0.540321 0.123848 0.084689
0.595400 0.125863 0.087587
0.650177 0.127880 0.090489
0.704477 0.129899 0.093396
0.758127 0.131920 0.096308
0.810951 0.133943 0.099224
0.862774 0.135967 0.102144
0.913424 0.137993 0.105069
0.064609 0.157895 0.062602
0.114684 0.159940 0.065464
0.166010 0.161987 0.068331
0.218413 0.164036 0.071203
0.271719 0.166087 0.074080
0.325753 0.168139 0.076961
0.380341 0.170193 0.079847
0.435308 0.172248 0.082737
0.490480 0.174306 0.085632
0.545682 0.176364 0.088531
0.600739 0.178425 0.091435
0.655478 0.180487 0.094344
0.709723 0.182551 0.097257
0.763299 0.184616 0.100174
0.816034 0.186683 0.103096
0.867751 0.188751 0.106022
0.918277 0.190821 0.108953
0.069416 0.211136 0.066398
0.119620 0.213222 0.069266
0.171058 0.215310 0.072139
0.223557 0.217399 0.075017
0.276941 0.219489 0.077900
0.331037 0.221581 0.080787
0.385669 0.223675 0.083679
0.440664 0.225769 0.086576
0.495846 0.227865 0.089477
0.551042 0.229963 0.092382
0.606076 0.232061 0.095292
0.660774 0.234161 0.098207
0.714961 0.236263 0.101125
0.768464 0.238366 0.104049
0.821107 0.240470 0.106976
0.872716 0.242575 0.109908
0.923117 0.244682 0.112844
0.074236 0.265339 0.070201
0.124567 0.267459 0.073076
0.176116 0.269580 0.075956
0.228709 0.271702 0.078840
0.282170 0.273826 0.081729
0.336326 0.275950 0.084622
0.391001 0.278075 0.087520
0.446021 0.280202 0.090422
0.501213 0.282330 0.093329
0.556400 0.284458 0.096241
0.611409 0.286588 0.099157
0.666065 0.288719 0.102077
0.720194 0.290851 0.105001
0.773621 0.292984 0.107930
0.826171 0.295118 0.110864
0.877670 0.297253 0.113801
0.927944 0.299389 0.116743
0.079069 0.320320 0.074014
0.129526 0.322466 0.076895
0.181184 0.324614 0.079780
0.233869 0.326762 0.082671
0.287405 0.328910 0.085565
0.341619 0.331060 0.088465
0.396336 0.333211 0.091369
0.451380 0.335362 0.094277
0.506579 0.337514 0.097190
0.561756 0.339667 0.100107
0.616739 0.341821 0.103029
0.671351 0.343976 0.105955
0.725420 0.346131 0.108885
0.778769 0.348287 0.111820
0.831225 0.350444 0.114759
0.882612 0.352602 0.117702
0.932758 0.354760 0.120649
0.083915 0.375894 0.077834
0.134497 0.378059 0.080721
0.186262 0.380226 0.083613
0.239037 0.382392 0.086509
0.292647 0.384560 0.089410
0.346917 0.386728 0.092315
0.401673 0.388896 0.095225
0.456741 0.391065 0.098140
0.511945 0.393234 0.101058
0.567111 0.395405 0.103981
0.622065 0.397575 0.106909
0.676633 0.399746 0.109840
0.730639 0.401918 0.112776
0.783909 0.404090 0.115717
0.836268 0.406262 0.118661
0.887543 0.408435 0.121609
0.937558 0.410609 0.124562
0.088774 0.431876 0.081662
0.139478 0.434054 0.084556
0.191349 0.436232 0.087453
0.244213 0.438410 0.090356
0.297895 0.440588 0.093263
0.352220 0.442767 0.096174
0.407014 0.444947 0.099090
0.462102 0.447126 0.102010
0.517310 0.449306 0.104934
0.572464 0.451486 0.107863
0.627388 0.453666 0.110796
0.681908 0.455846 0.113734
0.735851 0.458027 0.116675
0.789040 0.460208 0.119621
0.841302 0.462389 0.122571
0.892462 0.464570 0.125525
0.942345 0.466751 0.128483
0.093645 0.488082 0.085499
0.144471 0.490264 0.088398
0.196446 0.492447 0.091302
0.249397 0.494630 0.094210
0.303149 0.496812 0.097123
0.357527 0.498995 0.100040
0.412358 0.501178 0.102962
0.467465 0.503361 0.105888
0.522676 0.505543 0.108818
0.577814 0.507726 0.111752
0.632707 0.509909 0.114691
0.687179 0.512091 0.117634
0.741055 0.514274 0.120581
0.794162 0.516456 0.123532
0.846325 0.518639 0.126488
0.897368 0.520821 0.129447
0.947119 0.523003 0.132410
0.098529 0.544326 0.089343
0.149474 0.546507 0.092249
0.201552 0.548687 0.095158
0.254589 0.550867 0.098073
0.308409 0.553047 0.100991
0.362839 0.555226 0.103914
0.417704 0.557405 0.106842
0.472829 0.559584 0.109773
0.528040 0.561763 0.112709
0.583163 0.563941 0.115649
0.638022 0.566119 0.118593
0.692444 0.568297 0.121542
0.746253 0.570474 0.124494
0.799276 0.572651 0.127451
0.851337 0.574827 0.130412
0.902263 0.577003 0.133376
0.951878 0.579179 0.136345
0.103426 0.600426 0.093196
0.154488 0.602597 0.096107
0.206667 0.604767 0.099023
0.259787 0.606937 0.101943
0.313675 0.609107 0.104867
0.368154 0.611276 0.107796
0.423052 0.613444 0.110729
0.478194 0.615612 0.113666
0.533404 0.617779 0.116607
0.588508 0.619946 0.119553
0.643333 0.622112 0.122503
0.697703 0.624278 0.125457
0.751443 0.626442 0.128415
0.804380 0.628607 0.131377
0.856339 0.630770 0.134343
0.907145 0.632933 0.137313
0.956623 0.635095 0.140287
0.108334 0.656195 0.097056
0.159513 0.658350 0.099973
0.211791 0.660503 0.102895
0.264993 0.662656 0.105820
0.318946 0.664808 0.108751
0.373474 0.666960 0.111685
0.428403 0.669110 0.114624
0.483559 0.671260 0.117566
0.538766 0.673409 0.120513
0.593851 0.675556 0.123465
0.648639 0.677704 0.126420
0.702956 0.679850 0.129379
0.756626 0.681995 0.132342
0.809475 0.684139 0.135310
0.861330 0.686283 0.138281
0.912014 0.688425 0.141256
0.961355 0.690567 0.144235
0.113255 0.711450 0.100924
0.164548 0.713580 0.103847
0.216924 0.715710 0.106774
0.270207 0.717839 0.109706
0.324223 0.719967 0.112642
0.378797 0.722093 0.115582
0.433756 0.724218 0.118526
0.488925 0.726343 0.121474
0.544128 0.728466 0.124427
0.599192 0.730588 0.127383
0.653941 0.732709 0.130344
0.708203 0.734828 0.133308
0.761801 0.736947 0.136277
0.814561 0.739064 0.139250
0.866309 0.741180 0.142226
0.916871 0.743295 0.145207
0.963533 0.745409 0.148191
0.118187 0.766005 0.104800
0.169593 0.768105 0.107729
0.222065 0.770204 0.110661
0.275427 0.772301 0.113599
0.329505 0.774397 0.116540
0.384124 0.776491 0.119485
0.439111 0.778584 0.122435
0.494291 0.780676 0.125389
0.549488 0.782767 0.128347
0.604529 0.784856 0.131309
0.659239 0.786943 0.134275
0.713443 0.789029 0.137245
0.766968 0.791114 0.140219
0.819637 0.793197 0.143196
0.871278 0.795279 0.146178
0.921715 0.797359 0.149164
0.963533 0.799438 0.152153
0.123132 0.819676 0.108683
0.174649 0.821738 0.111618
0.227214 0.823799 0.114556
0.280653 0.825857 0.117499
0.334792 0.827914 0.120446
0.389455 0.829970 0.123397
0.444468 0.832024 0.126352
0.499657 0.834076 0.129311
0.554847 0.836126 0.132274
0.609863 0.838175 0.135242
0.664532 0.840222 0.138213
0.718678 0.842267 0.141188
0.772127 0.844311 0.144167
0.824704 0.846353 0.147150
0.876235 0.848393 0.150137
0.926546 0.850431 0.153127
0.963533 0.852467 0.156122
0.128087 0.872279 0.112574
0.179714 0.874296 0.115514
0.232372 0.876311 0.118458
0.285887 0.878324 0.121406
0.340084 0.880335 0.124359
0.394789 0.882344 0.127315
0.449827 0.884351 0.130276
0.505023 0.886357 0.133240
0.560204 0.888360 0.136209
0.615194 0.890361 0.139181
0.669819 0.892361 0.142158
0.723905 0.894358 0.145138
0.777277 0.896353 0.148122
0.829761 0.898347 0.151110
0.881181 0.900338 0.154102
0.931364 0.902327 0.157098
0.963533 0.904314 0.160097
0.133055 0.923629 0.116472
0.184789 0.925594 0.119418
0.237538 0.927556 0.122367
0.291127 0.929516 0.125321
0.345381 0.931474 0.128279
0.400126 0.933430 0.131241
0.455187 0.935383 0.134207
0.510389 0.937334 0.137176
0.565559 0.939283 0.140150
0.620522 0.941230 0.143128
0.675102 0.943175 0.146110
0.729126 0.945117 0.149095
0.782419 0.947057 0.152084
0.834807 0.948995 0.155077
0.886115 0.950930 0.158074
0.936168 0.952863 0.161075
0.963533 0.954794 0.164079
0.055784 0.057165 0.102637
0.105616 0.059110 0.105562
0.156731 0.061057 0.108492
0.208954 0.063007 0.111426
0.262111 0.064958 0.114364
0.316028 0.066912 0.117307
0.370529 0.068868 0.120253
0.425441 0.070826 0.123204
0.480589 0.072787 0.126159
0.535798 0.074750 0.129118
0.590894 0.076714 0.132081
0.645703 0.078681 0.135048
0.700049 0.080650 0.138019
0.753758 0.082622 0.140994
0.806656 0.084595 0.143973
0.858569 0.086571 0.146955
0.909320 0.088548 0.149942
0.060566 0.107989 0.106516
0.110530 0.109988 0.109447
0.161760 0.111990 0.112383
0.214082 0.113994 0.115322
0.267320 0.115999 0.118266
0.321301 0.118007 0.121214
0.375850 0.120016 0.124166
0.430793 0.122028 0.127122
0.485954 0.124041 0.130083
0.541160 0.126056 0.133047
0.596236 0.128073 0.136015
0.651007 0.130092 0.138987
0.705299 0.132113 0.141964
0.758937 0.134136 0.144944
0.811747 0.136161 0.147928
0.863554 0.138187 0.150915
0.914184 0.140215 0.153907
0.065361 0.160136 0.110403
0.115456 0.162183 0.113339
0.166800 0.164232 0.116280
0.219218 0.166283 0.119226
0.272536 0.168335 0.122175
0.326580 0.170389 0.125128
0.381175 0.172445 0.128086
0.436147 0.174502 0.131048
0.491320 0.176561 0.134013
0.546521 0.178622 0.136983
0.601575 0.180684 0.139956
0.656307 0.182748 0.142934
0.710543 0.184814 0.145915
0.764109 0.186881 0.148900
0.816829 0.188949 0.151889
0.868529 0.191019 0.154882
0.919035 0.193091 0.157879
0.070170 0.213422 0.114297
0.120394 0.215510 0.117239
0.171849 0.217599 0.120186
0.224363 0.219689 0.123136
0.277760 0.221781 0.126091
0.331865 0.223875 0.129050
0.386504 0.225970 0.132013
0.441503 0.228066 0.134980
0.496687 0.230163 0.137951
0.551881 0.232262 0.140926
0.606911 0.234362 0.143904
0.661603 0.236464 0.146887
0.715781 0.238567 0.149873
0.769272 0.240671 0.152863
0.821901 0.242776 0.155858
0.873493 0.244883 0.158855
0.923874 0.246991 0.161857
0.074992 0.267662 0.118198
0.125343 0.269783 0.121146
0.176909 0.271905 0.124098
0.229516 0.274029 0.127054
0.282989 0.276153 0.130015
0.337154 0.278279 0.132979
0.391836 0.280405 0.135947
0.446860 0.282533 0.138919
0.502053 0.284662 0.141895
0.557239 0.286792 0.144875
0.612244 0.288923 0.147859
0.666893 0.291055 0.150847
0.721013 0.293188 0.153838
0.774427 0.295322 0.156833
0.826963 0.297457 0.159832
0.878445 0.299594 0.162835
0.928699 0.301731 0.165841
0.079827 0.322672 0.122107
0.130304 0.324819 0.125061
0.181979 0.326967 0.128018
0.234678 0.329116 0.130979
0.288226 0.331266 0.133945
0.342448 0.333416 0.136914
0.397171 0.335568 0.139888
0.452220 0.337720 0.142865
0.507419 0.339873 0.145847
0.562595 0.342027 0.148832
0.617573 0.344182 0.151821
0.672179 0.346337 0.154813
0.726237 0.348493 0.157810
0.779574 0.350650 0.160810
0.832015 0.352808 0.163814
0.883385 0.354966 0.166821
0.933510 0.357125 0.169832
0.084675 0.378267 0.126023
0.135276 0.380433 0.128982
0.187058 0.382600 0.131945
0.239847 0.384767 0.134912
0.293468 0.386935 0.137882
0.347747 0.389103 0.140857
0.402509 0.391272 0.143836
0.457580 0.393442 0.146818
0.512785 0.395612 0.149805
0.567949 0.397783 0.152795
0.622899 0.399954 0.155789
0.677459 0.402125 0.158786
0.731455 0.404298 0.161788
0.784713 0.406470 0.164793
0.837057 0.408643 0.167801
0.888314 0.410817 0.170814
0.938309 0.412991 0.173830
0.089536 0.434262 0.129947
0.140259 0.436440 0.132911
0.192147 0.438618 0.135879
0.245024 0.440797 0.138851
0.298717 0.442976 0.141827
0.353051 0.445155 0.144807
0.407851 0.447334 0.147791
0.462942 0.449514 0.150778
0.518151 0.451694 0.153769
0.573302 0.453874 0.156765
0.628221 0.456055 0.159763
0.682734 0.458235 0.162766
0.736666 0.460416 0.165772
0.789842 0.462597 0.168782
0.842089 0.464779 0.171795
0.893231 0.466960 0.174812
0.943094 0.469142 0.177833
0.094409 0.490473 0.133877
0.145254 0.492656 0.136846
0.197245 0.494838 0.139820
0.250210 0.497021 0.142797
0.303972 0.499204 0.145778
0.358359 0.501387 0.148763
0.413195 0.503569 0.151752
0.468305 0.505752 0.154745
0.523516 0.507935 0.157741
0.578652 0.510117 0.160741
0.633540 0.512300 0.163745
0.688004 0.514482 0.166752
0.741870 0.516665 0.169763
0.794964 0.518847 0.172778
0.847110 0.521030 0.175796
0.898136 0.523212 0.178817
0.947865 0.525394 0.181843
0.099295 0.546715 0.137814
0.150259 0.548896 0.140789
0.202352 0.551075 0.143767
0.255402 0.553255 0.146750
0.309233 0.555434 0.149736
0.363671 0.557614 0.152726
0.418541 0.559792 0.155720
0.473669 0.561971 0.158718
0.528880 0.564149 0.161719
0.584000 0.566327 0.164724
0.638854 0.568505 0.167732
0.693268 0.570682 0.170745
0.747066 0.572859 0.173760
0.800076 0.575035 0.176780
0.852121 0.577212 0.179802
0.903028 0.579387 0.182829
0.952622 0.581563 0.185858
0.104194 0.602804 0.141758
0.155275 0.604975 0.144738
0.207469 0.607145 0.147722
0.260602 0.609314 0.150709
0.314500 0.611483 0.153701
0.368987 0.613652 0.156696
0.423890 0.615819 0.159695
0.479034 0.617987 0.162697
0.534244 0.620153 0.165703
0.589345 0.622319 0.168713
0.644164 0.624485 0.171726
0.698526 0.626649 0.174743
0.752255 0.628814 0.177764
0.805179 0.630977 0.180788
0.857121 0.633140 0.183815
0.907908 0.635302 0.186846
0.957365 0.637464 0.189880
0.109104 0.658556 0.145710
0.160301 0.660709 0.148695
0.212594 0.662862 0.151683
0.265809 0.665014 0.154676
0.319772 0.667165 0.157672
0.374307 0.669316 0.160672
0.429241 0.671465 0.163676
0.484399 0.673614 0.166683
0.539606 0.675762 0.169694
0.594688 0.677909 0.172708
0.649470 0.680055 0.175727
0.703778 0.682200 0.178748
0.757437 0.684344 0.181773
0.810272 0.686488 0.184802
0.862110 0.688630 0.187833
0.912776 0.690772 0.190869
0.962094 0.692912 0.193907
0.114027 0.713784 0.149667
0.165338 0.715914 0.152657
0.217728 0.718042 0.155651
0.271024 0.720170 0.158649
0.325049 0.722296 0.161650
0.379631 0.724422 0.164655
0.434595 0.726546 0.167663
0.489765 0.728669 0.170675
0.544967 0.730791 0.173691
0.600028 0.732911 0.176710
0.654771 0.735031 0.179733
0.709024 0.737150 0.182759
0.762610 0.739267 0.185789
0.815357 0.741383 0.188822
0.867088 0.743498 0.191858
0.917630 0.745611 0.194898
0.963533 0.747724 0.197941
0.118961 0.768306 0.153632
0.170384 0.770404 0.156627
0.222871 0.772501 0.159626
0.276245 0.774597 0.162628
0.330332 0.776692 0.165634
0.384959 0.778785 0.168644
0.439950 0.780876 0.171657
0.495131 0.782966 0.174674
0.550327 0.785055 0.177694
0.605364 0.787143 0.180718
0.660068 0.789229 0.183745
0.714263 0.791313 0.186776
0.767776 0.793396 0.189810
0.820431 0.795478 0.192848
0.872055 0.797558 0.195888
0.922472 0.799636 0.198932
0.963533 0.801713 0.201980
0.123907 0.821935 0.157603
0.175441 0.823996 0.160603
0.228021 0.826054 0.163607
0.281473 0.828111 0.166614
0.335620 0.830166 0.169625
0.390290 0.832220 0.172639
0.445307 0.834272 0.175657
0.500497 0.836322 0.178679
0.555686 0.838371 0.181704
0.610698 0.840418 0.184732
0.665360 0.842463 0.187764
0.719497 0.844506 0.190799
0.772934 0.846548 0.193838
0.825496 0.848588 0.196879
0.877010 0.850626 0.199924
0.927301 0.852662 0.202973
0.963533 0.854697 0.206024
0.128864 0.874489 0.161581
0.180508 0.876504 0.164586
0.233181 0.878516 0.167594
0.286707 0.880527 0.170606
0.340913 0.882536 0.173622
0.395624 0.884543 0.176641
0.450666 0.886548 0.179663
0.505863 0.888551 0.182690
0.561043 0.890553 0.185719
0.616029 0.892552 0.188752
0.670647 0.894549 0.191788
0.724723 0.896544 0.194828
0.778083 0.898537 0.197871
0.830551 0.900528 0.200917
0.881954 0.902517 0.203966
0.932117 0.904504 0.207019
0.963533 0.906489 0.210075
0.133833 0.925782 0.165565
0.185585 0.927744 0.168575
0.238348 0.929703 0.171588
0.291948 0.931661 0.174605
0.346211 0.933617 0.177625
0.400962 0.935570 0.180649
0.456026 0.937521 0.183676
0.511229 0.939470 0.186706
0.566397 0.941416 0.189740
0.621355 0.943361 0.192778
0.675929 0.945303 0.195819
0.729943 0.947242 0.198862
0.783224 0.949180 0.201910
0.835597 0.951115 0.204960
0.886886 0.953048 0.208014
0.936919 0.954978 0.211071
0.963533 0.956906 0.214130
0.056532 0.059296 0.151420
0.106385 0.061243 0.154412
0.157517 0.063193 0.157408
0.209756 0.065145 0.160407
0.262926 0.067099 0.163411
0.316853 0.069055 0.166418
0.371362 0.071014 0.169428
0.426279 0.072974 0.172443
0.481429 0.074937 0.175460
0.536638 0.076902 0.178482
0.591731 0.078870 0.181506
0.646534 0.080839 0.184534
0.700871 0.082810 0.187566
0.754570 0.084784 0.190601
0.807454 0.086760 0.193639
0.859350 0.088738 0.196681
0.910083 0.090718 0.199726
0.061316 0.110180 0.155387
0.111300 0.112182 0.158384
0.162548 0.114185 0.161385
0.214885 0.116191 0.164390
0.268136 0.118199 0.167398
0.322128 0.120209 0.170410
0.376684 0.122220 0.173425
0.431631 0.124234 0.176444
0.486795 0.126249 0.179466
0.542000 0.128266 0.182492
0.597072 0.130286 0.185521
0.651837 0.132307 0.188554
0.706121 0.134330 0.191590
0.759748 0.136354 0.194630
0.812544 0.138381 0.197672
0.864334 0.140409 0.200718
0.914945 0.142440 0.203767
0.066113 0.162379 0.159361
0.116228 0.164428 0.162363
0.167590 0.166479 0.165369
0.220023 0.168532 0.168378
0.273354 0.170586 0.171391
0.327408 0.172642 0.174408
0.382010 0.174699 0.177428
0.436985 0.176758 0.180451
0.492161 0.178819 0.183478
0.547361 0.180882 0.186509
0.602411 0.182946 0.189542
0.657137 0.185011 0.192580
0.711364 0.187078 0.195620
0.764918 0.189147 0.198664
0.817624 0.191217 0.201711
0.869307 0.193289 0.204761
0.919794 0.195363 0.207815
0.070924 0.215709 0.163342
0.121168 0.217799 0.166349
0.172641 0.219889 0.169359
0.225169 0.221982 0.172373
0.278578 0.224075 0.175391
0.332693 0.226170 0.178412
0.387339 0.228266 0.181437
0.442342 0.230364 0.184465
0.497527 0.232463 0.187496
0.552720 0.234563 0.190531
0.607746 0.236665 0.193570
0.662431 0.238768 0.196611
0.716601 0.240872 0.199656
0.770080 0.242978 0.202704
0.822694 0.245085 0.205755
0.874269 0.247193 0.208810
0.924630 0.249302 0.211867
0.075748 0.269986 0.167329
0.126119 0.272108 0.170340
0.177702 0.274232 0.173356
0.230324 0.276356 0.176375
0.283809 0.278482 0.179397
0.337983 0.280609 0.182423
0.392671 0.282737 0.185452
0.447699 0.284866 0.188484
0.502893 0.286996 0.191520
0.558078 0.289127 0.194560
0.613079 0.291259 0.197602
0.667721 0.293392 0.200648
0.721831 0.295526 0.203697
0.775234 0.297662 0.206750
0.827755 0.299798 0.209805
0.879219 0.301935 0.212864
0.929453 0.304073 0.215925
0.080585 0.325024 0.171322
0.131082 0.327173 0.174339
0.182774 0.329322 0.177358
0.235487 0.331471 0.180382
0.289046 0.333622 0.183409
0.343278 0.335774 0.186439
0.398007 0.337926 0.189473
0.453059 0.340079 0.192510
0.508259 0.342233 0.195550
0.563434 0.344388 0.198594
0.618407 0.346543 0.201641
0.673006 0.348700 0.204691
0.727055 0.350857 0.207744
0.780379 0.353014 0.210801
0.832805 0.355173 0.213861
0.884158 0.357332 0.216923
0.934263 0.359492 0.219989
0.085435 0.380640 0.175322
0.136055 0.382807 0.178343
0.187854 0.384974 0.181367
0.240657 0.387142 0.184395
0.294290 0.389311 0.187427
0.348577 0.391480 0.190462
0.403346 0.393649 0.193500
0.458420 0.395820 0.196541
0.513625 0.397990 0.199586
0.568788 0.400161 0.202634
0.623733 0.402333 0.205685
0.678285 0.404505 0.208739
0.732272 0.406678 0.211797
0.785516 0.408851 0.214858
0.837846 0.411024 0.217921
0.889085 0.413198 0.220988
0.939059 0.415373 0.224058
0.090298 0.436648 0.179327
0.141041 0.438827 0.182353
0.192945 0.441005 0.185382
0.245836 0.443184 0.188415
0.299540 0.445363 0.191451
0.353882 0.447543 0.194490
0.408687 0.449723 0.197532
0.463782 0.451903 0.200578
0.518991 0.454083 0.203627
0.574140 0.456263 0.206680
0.629054 0.458444 0.209735
0.683560 0.460625 0.212793
0.737481 0.462806 0.215855
0.790645 0.464987 0.218920
0.842876 0.467169 0.221987
0.894000 0.469350 0.225058
0.943842 0.471532 0.228132
0.095174 0.492864 0.183339
0.146037 0.495047 0.186370
0.198044 0.497230 0.189403
0.251022 0.499413 0.192440
0.304796 0.501595 0.195480
0.359190 0.503778 0.198524
0.414032 0.505961 0.201571
0.469145 0.508143 0.204621
0.524356 0.510326 0.207674
0.579490 0.512509 0.210731
0.634372 0.514691 0.213790
0.688828 0.516874 0.216853
0.742684 0.519056 0.219919
0.795765 0.521238 0.222987
0.847896 0.523420 0.226059
0.898902 0.525602 0.229134
0.948611 0.527784 0.232211
0.100062 0.549104 0.187357
0.151043 0.551284 0.190392
0.203153 0.553464 0.193430
0.256216 0.555643 0.196471
0.310057 0.557822 0.199516
0.364503 0.560001 0.202564
0.419378 0.562179 0.205615
0.474509 0.564357 0.208669
0.529720 0.566535 0.211727
0.584837 0.568713 0.214787
0.639686 0.570890 0.217851
0.694091 0.573067 0.220918
0.747879 0.575244 0.223987
0.800875 0.577420 0.227060
0.852905 0.579595 0.230136
0.903793 0.581771 0.233214
0.953366 0.583946 0.236295
0.104962 0.605182 0.191381
0.156061 0.607352 0.194420
0.208271 0.609522 0.197463
0.261417 0.611691 0.200508
0.315325 0.613859 0.203557
0.369820 0.616027 0.206609
0.424728 0.618194 0.209665
0.479874 0.620360 0.212723
0.535083 0.622526 0.215785
0.590182 0.624692 0.218849
0.644995 0.626856 0.221917
0.699348 0.629020 0.224988
0.753067 0.631184 0.228061
0.805977 0.633347 0.231138
0.857903 0.635509 0.234217
0.908671 0.637670 0.237300
0.958107 0.639831 0.240385
0.109874 0.660915 0.195411
0.161089 0.663068 0.198454
0.213397 0.665220 0.201501
0.266625 0.667371 0.204551
0.320598 0.669521 0.207604
0.375141 0.671671 0.210661
0.430079 0.673819 0.213720
0.485239 0.675967 0.216783
0.540446 0.678114 0.219848
0.595524 0.680260 0.222917
0.650300 0.682405 0.225988
0.704600 0.684549 0.229063
0.758247 0.686693 0.232140
0.811069 0.688835 0.235221
0.862890 0.690976 0.238304
0.913537 0.693117 0.241390
0.962833 0.695256 0.244479
0.114798 0.716117 0.199446
0.166127 0.718246 0.202494
0.218533 0.720373 0.205545
0.271841 0.722500 0.208599
0.325876 0.724625 0.211657
0.380465 0.726749 0.214717
0.435433 0.728872 0.217781
0.490605 0.730994 0.220847
0.545807 0.733114 0.223917
0.600864 0.735234 0.226989
0.655601 0.737352 0.230065
0.709845 0.739469 0.233143
0.763420 0.741585 0.236225
0.816152 0.743700 0.239309
0.867867 0.745813 0.242396
0.918389 0.747926 0.245485
0.963533 0.750037 0.248578
0.119735 0.770605 0.203487
0.171176 0.772702 0.206539
0.223677 0.774797 0.209595
0.277063 0.776892 0.212653
0.331160 0.778985 0.215714
0.385793 0.781076 0.218779
0.440789 0.783166 0.221847
0.495971 0.785255 0.224917
0.551166 0.787342 0.227991
0.606200 0.789428 0.231067
0.660897 0.791512 0.234147
0.715083 0.793595 0.237229
0.768584 0.795677 0.240314
0.821225 0.797757 0.243402
0.872832 0.799835 0.246492
0.923229 0.801912 0.249586
0.963533 0.803987 0.252682
0.124682 0.824193 0.207534
0.176234 0.826251 0.210590
0.228829 0.828308 0.213650
0.282292 0.830363 0.216712
0.336449 0.832416 0.219778
0.391125 0.834468 0.222846
0.446146 0.836518 0.225918
0.501337 0.838567 0.228992
0.556525 0.840613 0.232070
0.611533 0.842658 0.235150
0.666188 0.844701 0.238233
0.720316 0.846743 0.241319
0.773741 0.848783 0.244408
0.826289 0.850821 0.247499
0.877785 0.852857 0.250594
0.928056 0.854891 0.253690
0.963533 0.856924 0.256790
0.129642 0.876696 0.211586
0.181302 0.878709 0.214647
0.233989 0.880720 0.217710
0.287527 0.882728 0.220777
0.341742 0.884735 0.223846
0.396460 0.886740 0.226919
0.451505 0.888743 0.229994
0.506704 0.890744 0.233073
0.561881 0.892743 0.236154
0.616863 0.894740 0.239238
0.671474 0.896735 0.242325
0.725541 0.898728 0.245414
0.778889 0.900719 0.248507
0.831342 0.902707 0.251602
0.882727 0.904694 0.254700
0.932870 0.906679 0.257800
0.963533 0.908662 0.260903
0.134612 0.927931 0.215644
0.186380 0.929891 0.218709
0.239158 0.931848 0.221776
0.292769 0.933804 0.224847
0.347041 0.935757 0.227920
0.401798 0.937707 0.230997
0.456865 0.939656 0.234076
0.512070 0.941602 0.237158
0.567236 0.943546 0.240243
0.622189 0.945488 0.243331
0.676755 0.947428 0.246421
0.730760 0.949365 0.249514
0.784028 0.951300 0.252610
0.836386 0.953232 0.255709
0.887658 0.955163 0.258810
0.937670 0.957091 0.261914
0.963533 0.959016 0.265020
0.057280 0.061430 0.201232
0.107154 0.063380 0.204282
0.158305 0.065332 0.207335
0.210559 0.067286 0.210391
0.263742 0.069242 0.213450
0.317679 0.071201 0.216512
0.372195 0.073162 0.219578
0.427117 0.075125 0.222646
0.482269 0.077090 0.225717
0.537478 0.079058 0.228792
0.592568 0.081027 0.231869
0.647364 0.082999 0.234949
0.701694 0.084973 0.238032
0.755381 0.086949 0.241118
0.808252 0.088927 0.244206
0.860131 0.090907 0.247298
0.910845 0.092889 0.250392
0.062066 0.112373 0.205276
