app/src/main/assets/luts/era_1900s.cube
TITLE "Generation Camera 1900s"
LUT_3D_SIZE 9
DOMAIN_MIN 0.0 0.0 0.0
DOMAIN_MAX 1.0 1.0 1.0
0.339949 0.283024 0.226124
0.343070 0.286174 0.229019
0.346190 0.289325 0.231915
0.349310 0.292476 0.234811
0.352430 0.295627 0.237707
0.355550 0.298777 0.240603
0.358670 0.301928 0.243499
0.361790 0.305079 0.246395
0.364910 0.308230 0.249291
0.361790 0.305079 0.246395
0.364910 0.308230 0.249291
0.368030 0.311381 0.252187
0.371150 0.314531 0.255082
0.374270 0.317682 0.257978
0.377390 0.320833 0.260874
0.380510 0.323984 0.263770
0.383630 0.327134 0.266666
0.386750 0.330285 0.269562
0.383630 0.327134 0.266666
0.386750 0.330285 0.269562
0.389870 0.333436 0.272458
0.392990 0.336587 0.275354
0.396110 0.339737 0.278250
0.399230 0.342888 0.281146
0.402350 0.346039 0.284041
0.405470 0.349190 0.286937
0.408590 0.352341 0.289833
0.405470 0.349190 0.286937
0.408590 0.352341 0.289833
0.411710 0.355491 0.292729
0.414830 0.358642 0.295625
0.417950 0.361793 0.298521
0.421070 0.364944 0.301417
0.424190 0.368094 0.304313
0.427310 0.371245 0.307209
0.430430 0.374396 0.310104
0.427310 0.371245 0.307209
0.430430 0.374396 0.310104
0.433550 0.377547 0.313000
0.436670 0.380697 0.315896
0.439790 0.383848 0.318792
0.442910 0.386999 0.321688
0.446030 0.390150 0.324584
0.449150 0.393300 0.327480
0.452270 0.396451 0.330376
0.449150 0.393300 0.327480
0.452270 0.396451 0.330376
0.455390 0.399602 0.333272
0.458510 0.402753 0.336167
0.461630 0.405904 0.339063
0.464750 0.409054 0.341959
0.467870 0.412205 0.344855
0.470990 0.415356 0.347751
0.474110 0.418507 0.350647
0.470990 0.415356 0.347751
0.474110 0.418507 0.350647
0.477230 0.421657 0.353543
0.480350 0.424808 0.356439
0.483470 0.427959 0.359335
0.486590 0.431110 0.362231
0.489710 0.434260 0.365126
0.492830 0.437411 0.368022
0.495950 0.440562 0.370918
0.492830 0.437411 0.368022
0.495950 0.440562 0.370918
0.499070 0.443713 0.373814
0.502190 0.446864 0.376710
0.505310 0.450014 0.379606
0.508430 0.453165 0.382502
0.511550 0.456316 0.385398
0.514670 0.459467 0.388294
0.517790 0.462617 0.391189
0.514670 0.459467 0.388294
0.517790 0.462617 0.391189
0.520910 0.465768 0.394085
0.524030 0.468919 0.396981
0.527150 0.472070 0.399877
0.530270 0.475220 0.402773
0.533390 0.478371 0.405669
0.536510 0.481522 0.408565
0.539630 0.484673 0.411461
0.377390 0.320833 0.260874
0.380510 0.323984 0.263770
0.383630 0.327134 0.266666
0.386750 0.330285 0.269562
0.389870 0.333436 0.272458
0.392990 0.336587 0.275354
0.396110 0.339737 0.278250
0.399230 0.342888 0.281146
0.402350 0.346039 0.284041
0.399230 0.342888 0.281146
0.402350 0.346039 0.284041
0.405470 0.349190 0.286937
0.408590 0.352341 0.289833
0.411710 0.355491 0.292729
0.414830 0.358642 0.295625
0.417950 0.361793 0.298521
0.421070 0.364944 0.301417
0.424190 0.368094 0.304313
0.421070 0.364944 0.301417
0.424190 0.368094 0.304313
0.427310 0.371245 0.307209
0.430430 0.374396 0.310104
0.433550 0.377547 0.313000
0.436670 0.380697 0.315896
0.439790 0.383848 0.318792
0.442910 0.386999 0.321688
0.446030 0.390150 0.324584
0.442910 0.386999 0.321688
0.446030 0.390150 0.324584
0.449150 0.393300 0.327480
0.452270 0.396451 0.330376
0.455390 0.399602 0.333272
0.458510 0.402753 0.336167
0.461630 0.405904 0.339063
0.464750 0.409054 0.341959
0.467870 0.412205 0.344855
0.464750 0.409054 0.341959
0.467870 0.412205 0.344855
0.470990 0.415356 0.347751
0.474110 0.418507 0.350647
0.477230 0.421657 0.353543
0.480350 0.424808 0.356439
0.483470 0.427959 0.359335
0.486590 0.431110 0.362231
0.489710 0.434260 0.365126
0.486590 0.431110 0.362231
0.489710 0.434260 0.365126
0.492830 0.437411 0.368022
0.495950 0.440562 0.370918
0.499070 0.443713 0.373814
0.502190 0.446864 0.376710
0.505310 0.450014 0.379606
0.508430 0.453165 0.382502
0.511550 0.456316 0.385398
0.508430 0.453165 0.382502
0.511550 0.456316 0.385398
0.514670 0.459467 0.388294
0.517790 0.462617 0.391189
0.520910 0.465768 0.394085
0.524030 0.468919 0.396981
0.527150 0.472070 0.399877
0.530270 0.475220 0.402773
0.533390 0.478371 0.405669
0.530270 0.475220 0.402773
0.533390 0.478371 0.405669
0.536510 0.481522 0.408565
0.539630 0.484673 0.411461
0.542750 0.487823 0.414357
0.545870 0.490974 0.417252
0.548990 0.494125 0.420148
0.552110 0.497276 0.423044
0.555230 0.500427 0.425940
0.552110 0.497276 0.423044
0.555230 0.500427 0.425940
0.558350 0.503577 0.428836
0.561470 0.506728 0.431732
0.564590 0.509879 0.434628
0.567710 0.513030 0.437524
0.570830 0.516180 0.440420
0.573950 0.519331 0.443316
0.577070 0.522482 0.446211
0.414830 0.358642 0.295625
0.417950 0.361793 0.298521
0.421070 0.364944 0.301417
0.424190 0.368094 0.304313
0.427310 0.371245 0.307209
0.430430 0.374396 0.310104
0.433550 0.377547 0.313000
0.436670 0.380697 0.315896
0.439790 0.383848 0.318792
0.436670 0.380697 0.315896
0.439790 0.383848 0.318792
0.442910 0.386999 0.321688
0.446030 0.390150 0.324584
0.449150 0.393300 0.327480
0.452270 0.396451 0.330376
0.455390 0.399602 0.333272
0.458510 0.402753 0.336167
0.461630 0.405904 0.339063
0.458510 0.402753 0.336167
0.461630 0.405904 0.339063
0.464750 0.409054 0.341959
0.467870 0.412205 0.344855
0.470990 0.415356 0.347751
0.474110 0.418507 0.350647
0.477230 0.421657 0.353543
0.480350 0.424808 0.356439
0.483470 0.427959 0.359335
0.480350 0.424808 0.356439
0.483470 0.427959 0.359335
0.486590 0.431110 0.362231
0.489710 0.434260 0.365126
0.492830 0.437411 0.368022
0.495950 0.440562 0.370918
0.499070 0.443713 0.373814
0.502190 0.446864 0.376710
0.505310 0.450014 0.379606
0.502190 0.446864 0.376710
0.505310 0.450014 0.379606
0.508430 0.453165 0.382502
0.511550 0.456316 0.385398
0.514670 0.459467 0.388294
0.517790 0.462617 0.391189
0.520910 0.465768 0.394085
0.524030 0.468919 0.396981
0.527150 0.472070 0.399877
0.524030 0.468919 0.396981
0.527150 0.472070 0.399877
0.530270 0.475220 0.402773
0.533390 0.478371 0.405669
0.536510 0.481522 0.408565
0.539630 0.484673 0.411461
0.542750 0.487823 0.414357
0.545870 0.490974 0.417252
0.548990 0.494125 0.420148
0.545870 0.490974 0.417252
0.548990 0.494125 0.420148
0.552110 0.497276 0.423044
0.555230 0.500427 0.425940
0.558350 0.503577 0.428836
0.561470 0.506728 0.431732
0.564590 0.509879 0.434628
0.567710 0.513030 0.437524
0.570830 0.516180 0.440420
0.567710 0.513030 0.437524
0.570830 0.516180 0.440420
0.573950 0.519331 0.443316
0.577070 0.522482 0.446211
0.580190 0.525633 0.449107
0.583310 0.528783 0.452003
0.586430 0.531934 0.454899
0.589550 0.535085 0.457795
0.592670 0.538236 0.460691
0.589550 0.535085 0.457795
0.592670 0.538236 0.460691
0.595790 0.541387 0.463587
0.598910 0.544537 0.466483
0.602030 0.547688 0.469379
0.605150 0.550839 0.472274
0.608270 0.553990 0.475170
0.611390 0.557140 0.478066
0.614510 0.560291 0.480962
0.452270 0.396451 0.330376
0.455390 0.399602 0.333272
0.458510 0.402753 0.336167
0.461630 0.405904 0.339063
0.464750 0.409054 0.341959
0.467870 0.412205 0.344855
0.470990 0.415356 0.347751
0.474110 0.418507 0.350647
0.477230 0.421657 0.353543
0.474110 0.418507 0.350647
0.477230 0.421657 0.353543
0.480350 0.424808 0.356439
0.483470 0.427959 0.359335
0.486590 0.431110 0.362231
0.489710 0.434260 0.365126
0.492830 0.437411 0.368022
0.495950 0.440562 0.370918
0.499070 0.443713 0.373814
0.495950 0.440562 0.370918
0.499070 0.443713 0.373814
0.502190 0.446864 0.376710
0.505310 0.450014 0.379606
0.508430 0.453165 0.382502
0.511550 0.456316 0.385398
0.514670 0.459467 0.388294
0.517790 0.462617 0.391189
0.520910 0.465768 0.394085
0.517790 0.462617 0.391189
0.520910 0.465768 0.394085
0.524030 0.468919 0.396981
0.527150 0.472070 0.399877
0.530270 0.475220 0.402773
0.533390 0.478371 0.405669
0.536510 0.481522 0.408565
0.539630 0.484673 0.411461
0.542750 0.487823 0.414357
0.539630 0.484673 0.411461
0.542750 0.487823 0.414357
0.545870 0.490974 0.417252
0.548990 0.494125 0.420148
0.552110 0.497276 0.423044
0.555230 0.500427 0.425940
0.558350 0.503577 0.428836
0.561470 0.506728 0.431732
0.564590 0.509879 0.434628
0.561470 0.506728 0.431732
0.564590 0.509879 0.434628
0.567710 0.513030 0.437524
0.570830 0.516180 0.440420
0.573950 0.519331 0.443316
0.577070 0.522482 0.446211
0.580190 0.525633 0.449107
0.583310 0.528783 0.452003
0.586430 0.531934 0.454899
0.583310 0.528783 0.452003
0.586430 0.531934 0.454899
0.589550 0.535085 0.457795
0.592670 0.538236 0.460691
0.595790 0.541387 0.463587
0.598910 0.544537 0.466483
0.602030 0.547688 0.469379
0.605150 0.550839 0.472274
0.608270 0.553990 0.475170
0.605150 0.550839 0.472274
0.608270 0.553990 0.475170
0.611390 0.557140 0.478066
0.614510 0.560291 0.480962
0.617630 0.563442 0.483858
0.620750 0.566593 0.486754
0.623870 0.569743 0.489650
0.626990 0.572894 0.492546
0.630110 0.576045 0.495442
0.626990 0.572894 0.492546
0.630110 0.576045 0.495442
0.633230 0.579196 0.498338
0.636350 0.582347 0.501233
0.639470 0.585497 0.504129
0.642590 0.588648 0.507025
0.645710 0.591799 0.509921
0.648830 0.594950 0.512817
0.651950 0.598100 0.515713
0.489710 0.434260 0.365126
0.492830 0.437411 0.368022
0.495950 0.440562 0.370918
0.499070 0.443713 0.373814
0.502190 0.446864 0.376710
0.505310 0.450014 0.379606
0.508430 0.453165 0.382502
0.511550 0.456316 0.385398
0.514670 0.459467 0.388294
0.511550 0.456316 0.385398
0.514670 0.459467 0.388294
0.517790 0.462617 0.391189
0.520910 0.465768 0.394085
0.524030 0.468919 0.396981
0.527150 0.472070 0.399877
0.530270 0.475220 0.402773
0.533390 0.478371 0.405669
0.536510 0.481522 0.408565
0.533390 0.478371 0.405669
0.536510 0.481522 0.408565
0.539630 0.484673 0.411461
0.542750 0.487823 0.414357
0.545870 0.490974 0.417252
0.548990 0.494125 0.420148
0.552110 0.497276 0.423044
0.555230 0.500427 0.425940
0.558350 0.503577 0.428836
0.555230 0.500427 0.425940
0.558350 0.503577 0.428836
0.561470 0.506728 0.431732
0.564590 0.509879 0.434628
0.567710 0.513030 0.437524
0.570830 0.516180 0.440420
0.573950 0.519331 0.443316
0.577070 0.522482 0.446211
0.580190 0.525633 0.449107
0.577070 0.522482 0.446211
0.580190 0.525633 0.449107
0.583310 0.528783 0.452003
0.586430 0.531934 0.454899
0.589550 0.535085 0.457795
0.592670 0.538236 0.460691
0.595790 0.541387 0.463587
0.598910 0.544537 0.466483
0.602030 0.547688 0.469379
0.598910 0.544537 0.466483
0.602030 0.547688 0.469379
0.605150 0.550839 0.472274
0.608270 0.553990 0.475170
0.611390 0.557140 0.478066
0.614510 0.560291 0.480962
0.617630 0.563442 0.483858
0.620750 0.566593 0.486754
0.623870 0.569743 0.489650
0.620750 0.566593 0.486754
0.623870 0.569743 0.489650
0.626990 0.572894 0.492546
0.630110 0.576045 0.495442
0.633230 0.579196 0.498338
0.636350 0.582347 0.501233
0.639470 0.585497 0.504129
0.642590 0.588648 0.507025
0.645710 0.591799 0.509921
0.642590 0.588648 0.507025
0.645710 0.591799 0.509921
0.648830 0.594950 0.512817
0.651950 0.598100 0.515713
0.655070 0.601251 0.518609
0.658190 0.604402 0.521505
0.661310 0.607553 0.524401
0.664430 0.610703 0.527296
0.667550 0.613854 0.530192
0.664430 0.610703 0.527296
0.667550 0.613854 0.530192
0.670670 0.617005 0.533088
0.673790 0.620156 0.535984
0.676910 0.623306 0.538880
0.680030 0.626457 0.541776
0.683150 0.629608 0.544672
0.686270 0.632759 0.547568
0.689390 0.635910 0.550464
0.527150 0.472070 0.399877
0.530270 0.475220 0.402773
0.533390 0.478371 0.405669
0.536510 0.481522 0.408565
0.539630 0.484673 0.411461
0.542750 0.487823 0.414357
0.545870 0.490974 0.417252
0.548990 0.494125 0.420148
0.552110 0.497276 0.423044
0.548990 0.494125 0.420148
0.552110 0.497276 0.423044
0.555230 0.500427 0.425940
0.558350 0.503577 0.428836
0.561470 0.506728 0.431732
0.564590 0.509879 0.434628
0.567710 0.513030 0.437524
0.570830 0.516180 0.440420
0.573950 0.519331 0.443316
0.570830 0.516180 0.440420
0.573950 0.519331 0.443316
0.577070 0.522482 0.446211
0.580190 0.525633 0.449107
0.583310 0.528783 0.452003
0.586430 0.531934 0.454899
0.589550 0.535085 0.457795
0.592670 0.538236 0.460691
0.595790 0.541387 0.463587
0.592670 0.538236 0.460691
0.595790 0.541387 0.463587
0.598910 0.544537 0.466483
0.602030 0.547688 0.469379
0.605150 0.550839 0.472274
0.608270 0.553990 0.475170
0.611390 0.557140 0.478066
0.614510 0.560291 0.480962
0.617630 0.563442 0.483858
0.614510 0.560291 0.480962
0.617630 0.563442 0.483858
0.620750 0.566593 0.486754
0.623870 0.569743 0.489650
0.626990 0.572894 0.492546
0.630110 0.576045 0.495442
0.633230 0.579196 0.498338
0.636350 0.582347 0.501233
0.639470 0.585497 0.504129
0.636350 0.582347 0.501233
0.639470 0.585497 0.504129
0.642590 0.588648 0.507025
0.645710 0.591799 0.509921
0.648830 0.594950 0.512817
0.651950 0.598100 0.515713
0.655070 0.601251 0.518609
0.658190 0.604402 0.521505
0.661310 0.607553 0.524401
0.658190 0.604402 0.521505
0.661310 0.607553 0.524401
0.664430 0.610703 0.527296
0.667550 0.613854 0.530192
0.670670 0.617005 0.533088
0.673790 0.620156 0.535984
0.676910 0.623306 0.538880
0.680030 0.626457 0.541776
0.683150 0.629608 0.544672
0.680030 0.626457 0.541776
0.683150 0.629608 0.544672
0.686270 0.632759 0.547568
0.689390 0.635910 0.550464
0.692510 0.639060 0.553359
0.695630 0.642211 0.556255
0.698750 0.645362 0.559151
0.701870 0.648513 0.562047
0.704990 0.651663 0.564943
0.701870 0.648513 0.562047
0.704990 0.651663 0.564943
0.708110 0.654814 0.567839
0.711230 0.657965 0.570735
0.714350 0.661116 0.573631
0.717470 0.664266 0.576527
0.720590 0.667417 0.579423
0.723710 0.670568 0.582318
0.726830 0.673719 0.585214
0.564590 0.509879 0.434628
0.567710 0.513030 0.437524
0.570830 0.516180 0.440420
0.573950 0.519331 0.443316
0.577070 0.522482 0.446211
0.580190 0.525633 0.449107
0.583310 0.528783 0.452003
0.586430 0.531934 0.454899
0.589550 0.535085 0.457795
0.586430 0.531934 0.454899
0.589550 0.535085 0.457795
0.592670 0.538236 0.460691
0.595790 0.541387 0.463587
0.598910 0.544537 0.466483
0.602030 0.547688 0.469379
0.605150 0.550839 0.472274
0.608270 0.553990 0.475170
0.611390 0.557140 0.478066
0.608270 0.553990 0.475170
0.611390 0.557140 0.478066
0.614510 0.560291 0.480962
0.617630 0.563442 0.483858
0.620750 0.566593 0.486754
0.623870 0.569743 0.489650
0.626990 0.572894 0.492546
0.630110 0.576045 0.495442
0.633230 0.579196 0.498338
0.630110 0.576045 0.495442
0.633230 0.579196 0.498338
0.636350 0.582347 0.501233
0.639470 0.585497 0.504129
0.642590 0.588648 0.507025
0.645710 0.591799 0.509921
0.648830 0.594950 0.512817
0.651950 0.598100 0.515713
0.655070 0.601251 0.518609
0.651950 0.598100 0.515713
0.655070 0.601251 0.518609
0.658190 0.604402 0.521505
0.661310 0.607553 0.524401
0.664430 0.610703 0.527296
0.667550 0.613854 0.530192
0.670670 0.617005 0.533088
0.673790 0.620156 0.535984
0.676910 0.623306 0.538880
0.673790 0.620156 0.535984
0.676910 0.623306 0.538880
0.680030 0.626457 0.541776
0.683150 0.629608 0.544672
0.686270 0.632759 0.547568
0.689390 0.635910 0.550464
0.692510 0.639060 0.553359
0.695630 0.642211 0.556255
0.698750 0.645362 0.559151
0.695630 0.642211 0.556255
0.698750 0.645362 0.559151
0.701870 0.648513 0.562047
0.704990 0.651663 0.564943
0.708110 0.654814 0.567839
0.711230 0.657965 0.570735
0.714350 0.661116 0.573631
0.717470 0.664266 0.576527
0.720590 0.667417 0.579423
0.717470 0.664266 0.576527
0.720590 0.667417 0.579423
0.723710 0.670568 0.582318
0.726830 0.673719 0.585214
0.729950 0.676870 0.588110
0.733070 0.680020 0.591006
0.736190 0.683171 0.593902
0.739310 0.686322 0.596798
0.742430 0.689473 0.599694
0.739310 0.686322 0.596798
0.742430 0.689473 0.599694
0.745550 0.692623 0.602590
0.748670 0.695774 0.605486
0.751790 0.698925 0.608381
0.754910 0.702076 0.611277
0.758030 0.705226 0.614173
0.761150 0.708377 0.617069
0.764270 0.711528 0.619965
0.602030 0.547688 0.469379
0.605150 0.550839 0.472274
0.608270 0.553990 0.475170
0.611390 0.557140 0.478066
0.614510 0.560291 0.480962
0.617630 0.563442 0.483858
0.620750 0.566593 0.486754
0.623870 0.569743 0.489650
0.626990 0.572894 0.492546
0.623870 0.569743 0.489650
0.626990 0.572894 0.492546
0.630110 0.576045 0.495442
0.633230 0.579196 0.498338
0.636350 0.582347 0.501233
0.639470 0.585497 0.504129
0.642590 0.588648 0.507025
0.645710 0.591799 0.509921
0.648830 0.594950 0.512817
0.645710 0.591799 0.509921
0.648830 0.594950 0.512817
0.651950 0.598100 0.515713
0.655070 0.601251 0.518609
0.658190 0.604402 0.521505
0.661310 0.607553 0.524401
0.664430 0.610703 0.527296
0.667550 0.613854 0.530192
0.670670 0.617005 0.533088
0.667550 0.613854 0.530192
0.670670 0.617005 0.533088
0.673790 0.620156 0.535984
0.676910 0.623306 0.538880
0.680030 0.626457 0.541776
0.683150 0.629608 0.544672
0.686270 0.632759 0.547568
0.689390 0.635910 0.550464
0.692510 0.639060 0.553359
0.689390 0.635910 0.550464
0.692510 0.639060 0.553359
0.695630 0.642211 0.556255
0.698750 0.645362 0.559151
0.701870 0.648513 0.562047
0.704990 0.651663 0.564943
0.708110 0.654814 0.567839
0.711230 0.657965 0.570735
0.714350 0.661116 0.573631
0.711230 0.657965 0.570735
0.714350 0.661116 0.573631
0.717470 0.664266 0.576527
0.720590 0.667417 0.579423
0.723710 0.670568 0.582318
0.726830 0.673719 0.585214
0.729950 0.676870 0.588110
0.733070 0.680020 0.591006
0.736190 0.683171 0.593902
0.733070 0.680020 0.591006
0.736190 0.683171 0.593902
0.739310 0.686322 0.596798
0.742430 0.689473 0.599694
0.745550 0.692623 0.602590
0.748670 0.695774 0.605486
0.751790 0.698925 0.608381
0.754910 0.702076 0.611277
0.758030 0.705226 0.614173
0.754910 0.702076 0.611277
0.758030 0.705226 0.614173
0.761150 0.708377 0.617069
0.764270 0.711528 0.619965
0.767390 0.714679 0.622861
0.770510 0.717829 0.625757
0.773630 0.720980 0.628653
0.776750 0.724131 0.631549
0.779870 0.727282 0.634444
0.776750 0.724131 0.631549
0.779870 0.727282 0.634444
0.782990 0.730433 0.637340
0.786110 0.733583 0.640236
0.789230 0.736734 0.643132
0.792350 0.739885 0.646028
0.795470 0.743036 0.648924
0.798590 0.746186 0.651820
0.801710 0.749337 0.654716
0.639470 0.585497 0.504129
0.642590 0.588648 0.507025
0.645710 0.591799 0.509921
0.648830 0.594950 0.512817
0.651950 0.598100 0.515713
0.655070 0.601251 0.518609
0.658190 0.604402 0.521505
0.661310 0.607553 0.524401
0.664430 0.610703 0.527296
0.661310 0.607553 0.524401
0.664430 0.610703 0.527296
0.667550 0.613854 0.530192
0.670670 0.617005 0.533088
0.673790 0.620156 0.535984
0.676910 0.623306 0.538880
0.680030 0.626457 0.541776
0.683150 0.629608 0.544672
0.686270 0.632759 0.547568
0.683150 0.629608 0.544672
0.686270 0.632759 0.547568
0.689390 0.635910 0.550464
0.692510 0.639060 0.553359
0.695630 0.642211 0.556255
0.698750 0.645362 0.559151
0.701870 0.648513 0.562047
0.704990 0.651663 0.564943
0.708110 0.654814 0.567839
0.704990 0.651663 0.564943
0.708110 0.654814 0.567839
0.711230 0.657965 0.570735
0.714350 0.661116 0.573631
0.717470 0.664266 0.576527
0.720590 0.667417 0.579423
0.723710 0.670568 0.582318
0.726830 0.673719 0.585214
0.729950 0.676870 0.588110
0.726830 0.673719 0.585214
0.729950 0.676870 0.588110
0.733070 0.680020 0.591006
0.736190 0.683171 0.593902
0.739310 0.686322 0.596798
0.742430 0.689473 0.599694
0.745550 0.692623 0.602590
0.748670 0.695774 0.605486
0.751790 0.698925 0.608381
0.748670 0.695774 0.605486
0.751790 0.698925 0.608381
0.754910 0.702076 0.611277
0.758030 0.705226 0.614173
0.761150 0.708377 0.617069
0.764270 0.711528 0.619965
0.767390 0.714679 0.622861
0.770510 0.717829 0.625757
0.773630 0.720980 0.628653
0.770510 0.717829 0.625757
0.773630 0.720980 0.628653
0.776750 0.724131 0.631549
0.779870 0.727282 0.634444
0.782990 0.730433 0.637340
0.786110 0.733583 0.640236
0.789230 0.736734 0.643132
0.792350 0.739885 0.646028
0.795470 0.743036 0.648924
0.792350 0.739885 0.646028
0.795470 0.743036 0.648924
0.798590 0.746186 0.651820
0.801710 0.749337 0.654716
0.804830 0.752488 0.657612
0.807950 0.755639 0.660508
0.811070 0.758789 0.663403
0.814190 0.761940 0.666299
0.817310 0.765091 0.669195
0.814190 0.761940 0.666299
0.817310 0.765091 0.669195
0.820430 0.768242 0.672091
0.823550 0.771393 0.674987
0.826670 0.774543 0.677883
0.829790 0.777694 0.680779
0.832910 0.780845 0.683675
0.836030 0.783996 0.686571
0.839150 0.787146 0.689466
