app/src/main/assets/luts/era_1930s.cube
TITLE "Generation Camera 1930s"
LUT_3D_SIZE 9
DOMAIN_MIN 0.0 0.0 0.0
DOMAIN_MAX 1.0 1.0 1.0
0.176498 0.176498 0.176498
0.201608 0.201608 0.201608
0.226553 0.226553 0.226553
0.251355 0.251355 0.251355
0.276028 0.276028 0.276028
0.300585 0.300585 0.300585
0.325037 0.325037 0.325037
0.349393 0.349393 0.349393
0.373659 0.373659 0.373659
0.225638 0.225638 0.225638
0.250445 0.250445 0.250445
0.275122 0.275122 0.275122
0.299683 0.299683 0.299683
0.324139 0.324139 0.324139
0.348498 0.348498 0.348498
0.372768 0.372768 0.372768
0.396954 0.396954 0.396954
0.421064 0.421064 0.421064
0.274216 0.274216 0.274216
0.298782 0.298782 0.298782
0.323241 0.323241 0.323241
0.347604 0.347604 0.347604
0.371876 0.371876 0.371876
0.396066 0.396066 0.396066
0.420178 0.420178 0.420178
0.444217 0.444217 0.444217
0.468188 0.468188 0.468188
0.322343 0.322343 0.322343
0.346709 0.346709 0.346709
0.370985 0.370985 0.370985
0.395177 0.395177 0.395177
0.419292 0.419292 0.419292
0.443334 0.443334 0.443334
0.467308 0.467308 0.467308
0.491217 0.491217 0.491217
0.515064 0.515064 0.515064
0.370093 0.370093 0.370093
0.394289 0.394289 0.394289
0.418406 0.418406 0.418406
0.442451 0.442451 0.442451
0.466427 0.466427 0.466427
0.490338 0.490338 0.490338
0.514188 0.514188 0.514188
0.537980 0.537980 0.537980
0.561717 0.561717 0.561717
0.417520 0.417520 0.417520
0.441568 0.441568 0.441568
0.465546 0.465546 0.465546
0.489460 0.489460 0.489460
0.513312 0.513312 0.513312
0.537106 0.537106 0.537106
0.560844 0.560844 0.560844
0.584530 0.584530 0.584530
0.608166 0.608166 0.608166
0.464665 0.464665 0.464665
0.488581 0.488581 0.488581
0.512435 0.512435 0.512435
0.536231 0.536231 0.536231
0.559972 0.559972 0.559972
0.583660 0.583660 0.583660
0.607297 0.607297 0.607297
0.630886 0.630886 0.630886
0.654428 0.654428 0.654428
0.511559 0.511559 0.511559
0.535357 0.535357 0.535357
0.559099 0.559099 0.559099
0.582789 0.582789 0.582789
0.606428 0.606428 0.606428
0.630019 0.630019 0.630019
0.653563 0.653563 0.653563
0.677063 0.677063 0.677063
0.700519 0.700519 0.700519
0.558227 0.558227 0.558227
0.581918 0.581918 0.581918
0.605559 0.605559 0.605559
0.629152 0.629152 0.629152
0.652698 0.652698 0.652698
0.676199 0.676199 0.676199
0.699657 0.699657 0.699657
0.723074 0.723074 0.723074
0.746451 0.746451 0.746451
0.186093 0.186093 0.186093
0.211137 0.211137 0.211137
0.236025 0.236025 0.236025
0.260776 0.260776 0.260776
0.285404 0.285404 0.285404
0.309920 0.309920 0.309920
0.334334 0.334334 0.334334
0.358655 0.358655 0.358655
0.382889 0.382889 0.382889
0.235112 0.235112 0.235112
0.259868 0.259868 0.259868
0.284500 0.284500 0.284500
0.309020 0.309020 0.309020
0.333438 0.333438 0.333438
0.357762 0.357762 0.357762
0.381999 0.381999 0.381999
0.406155 0.406155 0.406155
0.430236 0.430236 0.430236
0.283596 0.283596 0.283596
0.308119 0.308119 0.308119
0.332541 0.332541 0.332541
0.356868 0.356868 0.356868
0.381109 0.381109 0.381109
0.405268 0.405268 0.405268
0.429352 0.429352 0.429352
0.453365 0.453365 0.453365
0.477311 0.477311 0.477311
0.331644 0.331644 0.331644
0.355975 0.355975 0.355975
0.380218 0.380218 0.380218
0.404381 0.404381 0.404381
0.428467 0.428467 0.428467
0.452482 0.452482 0.452482
0.476431 0.476431 0.476431
0.500316 0.500316 0.500316
0.524141 0.524141 0.524141
0.379328 0.379328 0.379328
0.403493 0.403493 0.403493
0.427582 0.427582 0.427582
0.451600 0.451600 0.451600
0.475551 0.475551 0.475551
0.499438 0.499438 0.499438
0.523266 0.523266 0.523266
0.547036 0.547036 0.547036
0.570753 0.570753 0.570753
0.426697 0.426697 0.426697
0.450718 0.450718 0.450718
0.474671 0.474671 0.474671
0.498561 0.498561 0.498561
0.522390 0.522390 0.522390
0.546163 0.546163 0.546163
0.569881 0.569881 0.569881
0.593547 0.593547 0.593547
0.617164 0.617164 0.617164
0.473791 0.473791 0.473791
0.497683 0.497683 0.497683
0.521515 0.521515 0.521515
0.545289 0.545289 0.545289
0.569009 0.569009 0.569009
0.592678 0.592678 0.592678
0.616296 0.616296 0.616296
0.639867 0.639867 0.639867
0.663393 0.663393 0.663393
0.520639 0.520639 0.520639
0.544416 0.544416 0.544416
0.568138 0.568138 0.568138
0.591808 0.591808 0.591808
0.615428 0.615428 0.615428
0.639001 0.639001 0.639001
0.662528 0.662528 0.662528
0.686011 0.686011 0.686011
0.709452 0.709452 0.709452
0.567266 0.567266 0.567266
0.590938 0.590938 0.590938
0.614560 0.614560 0.614560
0.638134 0.638134 0.638134
0.661663 0.661663 0.661663
0.685148 0.685148 0.685148
0.708590 0.708590 0.708590
0.731992 0.731992 0.731992
0.755354 0.755354 0.755354
0.195661 0.195661 0.195661
0.220643 0.220643 0.220643
0.245477 0.245477 0.245477
0.270180 0.270180 0.270180
0.294763 0.294763 0.294763
0.319240 0.319240 0.319240
0.343617 0.343617 0.343617
0.367904 0.367904 0.367904
0.392107 0.392107 0.392107
0.244566 0.244566 0.244566
0.269273 0.269273 0.269273
0.293861 0.293861 0.293861
0.318341 0.318341 0.318341
0.342722 0.342722 0.342722
0.367012 0.367012 0.367012
0.391218 0.391218 0.391218
0.415345 0.415345 0.415345
0.439399 0.439399 0.439399
0.292958 0.292958 0.292958
0.317442 0.317442 0.317442
0.341827 0.341827 0.341827
0.366120 0.366120 0.366120
0.390329 0.390329 0.390329
0.414459 0.414459 0.414459
0.438515 0.438515 0.438515
0.462502 0.462502 0.462502
0.486424 0.486424 0.486424
0.340931 0.340931 0.340931
0.365228 0.365228 0.365228
0.389440 0.389440 0.389440
0.413573 0.413573 0.413573
0.437632 0.437632 0.437632
0.461621 0.461621 0.461621
0.485545 0.485545 0.485545
0.509407 0.509407 0.509407
0.533210 0.533210 0.533210
0.388551 0.388551 0.388551
0.412686 0.412686 0.412686
0.436748 0.436748 0.436748
0.460740 0.460740 0.460740
0.484666 0.484666 0.484666
0.508530 0.508530 0.508530
0.532335 0.532335 0.532335
0.556085 0.556085 0.556085
0.579781 0.579781 0.579781
0.435864 0.435864 0.435864
0.459858 0.459858 0.459858
0.483787 0.483787 0.483787
0.507653 0.507653 0.507653
0.531461 0.531461 0.531461
0.555212 0.555212 0.555212
0.578910 0.578910 0.578910
0.602558 0.602558 0.602558
0.626156 0.626156 0.626156
0.482908 0.482908 0.482908
0.506776 0.506776 0.506776
0.530586 0.530586 0.530586
0.554339 0.554339 0.554339
0.578039 0.578039 0.578039
0.601688 0.601688 0.601688
0.625289 0.625289 0.625289
0.648842 0.648842 0.648842
0.672350 0.672350 0.672350
0.529711 0.529711 0.529711
0.553466 0.553466 0.553466
0.577168 0.577168 0.577168
0.600819 0.600819 0.600819
0.624421 0.624421 0.624421
0.647976 0.647976 0.647976
0.671486 0.671486 0.671486
0.694953 0.694953 0.694953
0.718378 0.718378 0.718378
0.576297 0.576297 0.576297
0.599950 0.599950 0.599950
0.623554 0.623554 0.623554
0.647111 0.647111 0.647111
0.670622 0.670622 0.670622
0.694091 0.694091 0.694091
0.717517 0.717517 0.717517
0.740904 0.740904 0.740904
0.764251 0.764251 0.764251
0.205205 0.205205 0.205205
0.230128 0.230128 0.230128
0.254910 0.254910 0.254910
0.279566 0.279566 0.279566
0.304108 0.304108 0.304108
0.328545 0.328545 0.328545
0.352888 0.352888 0.352888
0.377142 0.377142 0.377142
0.401314 0.401314 0.401314
0.254001 0.254001 0.254001
0.278661 0.278661 0.278661
0.303207 0.303207 0.303207
0.327648 0.327648 0.327648
0.351994 0.351994 0.351994
0.376251 0.376251 0.376251
0.400426 0.400426 0.400426
0.424525 0.424525 0.424525
0.448551 0.448551 0.448551
0.302306 0.302306 0.302306
0.326751 0.326751 0.326751
0.351100 0.351100 0.351100
0.375360 0.375360 0.375360
0.399538 0.399538 0.399538
0.423639 0.423639 0.423639
0.447669 0.447669 0.447669
0.471630 0.471630 0.471630
0.495528 0.495528 0.495528
0.350205 0.350205 0.350205
0.374469 0.374469 0.374469
0.398650 0.398650 0.398650
0.422754 0.422754 0.422754
0.446786 0.446786 0.446786
0.470750 0.470750 0.470750
0.494650 0.494650 0.494650
0.518489 0.518489 0.518489
0.542271 0.542271 0.542271
0.397762 0.397762 0.397762
0.421869 0.421869 0.421869
0.445903 0.445903 0.445903
0.469869 0.469869 0.469869
0.493772 0.493772 0.493772
0.517613 0.517613 0.517613
0.541397 0.541397 0.541397
0.565126 0.565126 0.565126
0.588802 0.588802 0.588802
0.445020 0.445020 0.445020
0.468989 0.468989 0.468989
0.492893 0.492893 0.492893
0.516737 0.516737 0.516737
0.540523 0.540523 0.540523
0.564254 0.564254 0.564254
0.587932 0.587932 0.587932
0.611561 0.611561 0.611561
0.635141 0.635141 0.635141
0.492015 0.492015 0.492015
0.515861 0.515861 0.515861
0.539649 0.539649 0.539649
0.563382 0.563382 0.563382
0.587062 0.587062 0.587062
0.610692 0.610692 0.610692
0.634274 0.634274 0.634274
0.657810 0.657810 0.657810
0.681302 0.681302 0.681302
0.538775 0.538775 0.538775
0.562510 0.562510 0.562510
0.586192 0.586192 0.586192
0.609824 0.609824 0.609824
0.633408 0.633408 0.633408
0.656945 0.656945 0.656945
0.680439 0.680439 0.680439
0.703889 0.703889 0.703889
0.727299 0.727299 0.727299
0.585321 0.585321 0.585321
0.608955 0.608955 0.608955
0.632541 0.632541 0.632541
0.656080 0.656080 0.656080
0.679575 0.679575 0.679575
0.703027 0.703027 0.703027
0.726439 0.726439 0.726439
0.749810 0.749810 0.749810
0.773143 0.773143 0.773143
0.214725 0.214725 0.214725
0.239593 0.239593 0.239593
0.264325 0.264325 0.264325
0.288936 0.288936 0.288936
0.313437 0.313437 0.313437
0.337837 0.337837 0.337837
0.362145 0.362145 0.362145
0.386367 0.386367 0.386367
0.410510 0.410510 0.410510
0.263417 0.263417 0.263417
0.288033 0.288033 0.288033
0.312537 0.312537 0.312537
0.336941 0.336941 0.336941
0.361252 0.361252 0.361252
0.385478 0.385478 0.385478
0.409623 0.409623 0.409623
0.433694 0.433694 0.433694
0.457694 0.457694 0.457694
0.311638 0.311638 0.311638
0.336045 0.336045 0.336045
0.360360 0.360360 0.360360
0.384588 0.384588 0.384588
0.408736 0.408736 0.408736
0.432809 0.432809 0.432809
0.456812 0.456812 0.456812
0.480749 0.480749 0.480749
0.504623 0.504623 0.504623
0.359467 0.359467 0.359467
0.383698 0.383698 0.383698
0.407849 0.407849 0.407849
0.431925 0.431925 0.431925
0.455931 0.455931 0.455931
0.479870 0.479870 0.479870
0.503746 0.503746 0.503746
0.527563 0.527563 0.527563
0.551324 0.551324 0.551324
0.406962 0.406962 0.406962
0.431041 0.431041 0.431041
0.455049 0.455049 0.455049
0.478990 0.478990 0.478990
0.502869 0.502869 0.502869
0.526688 0.526688 0.526688
0.550450 0.550450 0.550450
0.574159 0.574159 0.574159
0.597816 0.597816 0.597816
0.454167 0.454167 0.454167
0.478110 0.478110 0.478110
0.501991 0.501991 0.501991
0.525813 0.525813 0.525813
0.549577 0.549577 0.549577
0.573288 0.573288 0.573288
0.596947 0.596947 0.596947
0.620557 0.620557 0.620557
0.644119 0.644119 0.644119
0.501114 0.501114 0.501114
0.524937 0.524937 0.524937
0.548704 0.548704 0.548704
0.572416 0.572416 0.572416
0.596077 0.596077 0.596077
0.619689 0.619689 0.619689
0.643253 0.643253 0.643253
0.666772 0.666772 0.666772
0.690247 0.690247 0.690247
0.547830 0.547830 0.547830
0.571545 0.571545 0.571545
0.595208 0.595208 0.595208
0.618821 0.618821 0.618821
0.642387 0.642387 0.642387
0.665908 0.665908 0.665908
0.689385 0.689385 0.689385
0.712820 0.712820 0.712820
0.736214 0.736214 0.736214
0.594338 0.594338 0.594338
0.617953 0.617953 0.617953
0.641521 0.641521 0.641521
0.665043 0.665043 0.665043
0.688522 0.688522 0.688522
0.711958 0.711958 0.711958
0.735354 0.735354 0.735354
0.758711 0.758711 0.758711
0.782030 0.782030 0.782030
0.224224 0.224224 0.224224
0.249038 0.249038 0.249038
0.273722 0.273722 0.273722
0.298290 0.298290 0.298290
0.322751 0.322751 0.322751
0.347116 0.347116 0.347116
0.371390 0.371390 0.371390
0.395581 0.395581 0.395581
0.419695 0.419695 0.419695
0.272816 0.272816 0.272816
0.297388 0.297388 0.297388
0.321853 0.321853 0.321853
0.346221 0.346221 0.346221
0.370499 0.370499 0.370499
0.394693 0.394693 0.394693
0.418809 0.418809 0.418809
0.442852 0.442852 0.442852
0.466827 0.466827 0.466827
0.320955 0.320955 0.320955
0.345326 0.345326 0.345326
0.369607 0.369607 0.369607
0.393804 0.393804 0.393804
0.417923 0.417923 0.417923
0.441969 0.441969 0.441969
0.465946 0.465946 0.465946
0.489859 0.489859 0.489859
0.513710 0.513710 0.513710
0.368715 0.368715 0.368715
0.392915 0.392915 0.392915
0.417037 0.417037 0.417037
0.441086 0.441086 0.441086
0.465065 0.465065 0.465065
0.488980 0.488980 0.488980
0.512834 0.512834 0.512834
0.536629 0.536629 0.536629
0.560368 0.560368 0.560368
0.416151 0.416151 0.416151
0.440202 0.440202 0.440202
0.464184 0.464184 0.464184
0.488102 0.488102 0.488102
0.511957 0.511957 0.511957
0.535754 0.535754 0.535754
0.559496 0.559496 0.559496
0.583185 0.583185 0.583185
0.606823 0.606823 0.606823
0.463303 0.463303 0.463303
0.487223 0.487223 0.487223
0.511081 0.511081 0.511081
0.534880 0.534880 0.534880
0.558624 0.558624 0.558624
0.582314 0.582314 0.582314
0.605954 0.605954 0.605954
0.629546 0.629546 0.629546
0.653091 0.653091 0.653091
0.510204 0.510204 0.510204
0.534005 0.534005 0.534005
0.557751 0.557751 0.557751
0.581444 0.581444 0.581444
0.605085 0.605085 0.605085
0.628679 0.628679 0.628679
0.652226 0.652226 0.652226
0.675728 0.675728 0.675728
0.699187 0.699187 0.699187
0.556878 0.556878 0.556878
0.580573 0.580573 0.580573
0.604217 0.604217 0.604217
0.627812 0.627812 0.627812
0.651360 0.651360 0.651360
0.674864 0.674864 0.674864
0.698325 0.698325 0.698325
0.721744 0.721744 0.721744
0.745123 0.745123 0.745123
0.603348 0.603348 0.603348
0.626944 0.626944 0.626944
0.650495 0.650495 0.650495
0.674000 0.674000 0.674000
0.697462 0.697462 0.697462
0.720883 0.720883 0.720883
0.744264 0.744264 0.744264
0.767606 0.767606 0.767606
0.790911 0.790911 0.790911
0.233701 0.233701 0.233701
0.258464 0.258464 0.258464
0.283102 0.283102 0.283102
0.307628 0.307628 0.307628
0.332052 0.332052 0.332052
0.356381 0.356381 0.356381
0.380623 0.380623 0.380623
0.404784 0.404784 0.404784
0.428869 0.428869 0.428869
0.282198 0.282198 0.282198
0.306728 0.306728 0.306728
0.331155 0.331155 0.331155
0.355488 0.355488 0.355488
0.379733 0.379733 0.379733
0.403896 0.403896 0.403896
0.427984 0.427984 0.427984
0.452001 0.452001 0.452001
0.475951 0.475951 0.475951
0.330258 0.330258 0.330258
0.354594 0.354594 0.354594
0.378842 0.378842 0.378842
0.403009 0.403009 0.403009
0.427100 0.427100 0.427100
0.451119 0.451119 0.451119
0.475071 0.475071 0.475071
0.498960 0.498960 0.498960
0.522788 0.522788 0.522788
0.377952 0.377952 0.377952
0.402121 0.402121 0.402121
0.426215 0.426215 0.426215
0.450236 0.450236 0.450236
0.474191 0.474191 0.474191
0.498082 0.498082 0.498082
0.521913 0.521913 0.521913
0.545686 0.545686 0.545686
0.569406 0.569406 0.569406
0.425329 0.425329 0.425329
0.449354 0.449354 0.449354
0.473311 0.473311 0.473311
0.497204 0.497204 0.497204
0.521037 0.521037 0.521037
0.544813 0.544813 0.544813
0.568534 0.568534 0.568534
0.592203 0.592203 0.592203
0.615823 0.615823 0.615823
0.472431 0.472431 0.472431
0.496326 0.496326 0.496326
0.520161 0.520161 0.520161
0.543939 0.543939 0.543939
0.567662 0.567662 0.567662
0.591333 0.591333 0.591333
0.614955 0.614955 0.614955
0.638528 0.638528 0.638528
0.662056 0.662056 0.662056
0.519285 0.519285 0.519285
0.543065 0.543065 0.543065
0.566790 0.566790 0.566790
0.590463 0.590463 0.590463
0.614086 0.614086 0.614086
0.637662 0.637662 0.637662
0.661191 0.661191 0.661191
0.684677 0.684677 0.684677
0.708120 0.708120 0.708120
0.565919 0.565919 0.565919
0.589593 0.589593 0.589593
0.613218 0.613218 0.613218
0.636795 0.636795 0.636795
0.660327 0.660327 0.660327
0.683814 0.683814 0.683814
0.707258 0.707258 0.707258
0.730662 0.730662 0.730662
0.754027 0.754027 0.754027
0.612350 0.612350 0.612350
0.635929 0.635929 0.635929
0.659462 0.659462 0.659462
0.682950 0.682950 0.682950
0.706397 0.706397 0.706397
0.729802 0.729802 0.729802
0.753168 0.753168 0.753168
0.776496 0.776496 0.776496
0.799787 0.799787 0.799787
0.243158 0.243158 0.243158
0.267872 0.267872 0.267872
0.292466 0.292466 0.292466
0.316952 0.316952 0.316952
0.341339 0.341339 0.341339
0.365634 0.365634 0.365634
0.389844 0.389844 0.389844
0.413976 0.413976 0.413976
0.438033 0.438033 0.438033
0.291563 0.291563 0.291563
0.316053 0.316053 0.316053
0.340443 0.340443 0.340443
0.364741 0.364741 0.364741
0.388955 0.388955 0.388955
0.413089 0.413089 0.413089
0.437149 0.437149 0.437149
0.461140 0.461140 0.461140
0.485065 0.485065 0.485065
0.339547 0.339547 0.339547
0.363849 0.363849 0.363849
0.388065 0.388065 0.388065
0.412203 0.412203 0.412203
0.436266 0.436266 0.436266
0.460259 0.460259 0.460259
0.484186 0.484186 0.484186
0.508052 0.508052 0.508052
0.531858 0.531858 0.531858
0.387176 0.387176 0.387176
0.411316 0.411316 0.411316
0.435382 0.435382 0.435382
0.459377 0.459377 0.459377
0.483307 0.483307 0.483307
0.507175 0.507175 0.507175
0.530984 0.530984 0.530984
0.554736 0.554736 0.554736
0.578435 0.578435 0.578435
0.434497 0.434497 0.434497
0.458496 0.458496 0.458496
0.482428 0.482428 0.482428
0.506298 0.506298 0.506298
0.530109 0.530109 0.530109
0.553863 0.553863 0.553863
0.577564 0.577564 0.577564
0.601214 0.601214 0.601214
0.624816 0.624816 0.624816
0.481549 0.481549 0.481549
0.505421 0.505421 0.505421
0.529234 0.529234 0.529234
0.552990 0.552990 0.552990
0.576693 0.576693 0.576693
0.600345 0.600345 0.600345
0.623948 0.623948 0.623948
0.647504 0.647504 0.647504
0.671015 0.671015 0.671015
0.528359 0.528359 0.528359
0.552117 0.552117 0.552117
0.575822 0.575822 0.575822
0.599476 0.599476 0.599476
0.623081 0.623081 0.623081
0.646638 0.646638 0.646638
0.670151 0.670151 0.670151
0.693620 0.693620 0.693620
0.717048 0.717048 0.717048
0.574951 0.574951 0.574951
0.598607 0.598607 0.598607
0.622213 0.622213 0.622213
0.645772 0.645772 0.645772
0.669287 0.669287 0.669287
0.692757 0.692757 0.692757
0.716186 0.716186 0.716186
0.739575 0.739575 0.739575
0.762925 0.762925 0.762925
0.621345 0.621345 0.621345
0.644906 0.644906 0.644906
0.668422 0.668422 0.668422
0.691895 0.691895 0.691895
0.715325 0.715325 0.715325
0.738715 0.738715 0.738715
0.762067 0.762067 0.762067
0.785380 0.785380 0.785380
0.808658 0.808658 0.808658
0.252595 0.252595 0.252595
0.277262 0.277262 0.277262
0.301814 0.301814 0.301814
0.326261 0.326261 0.326261
0.350612 0.350612 0.350612
0.374874 0.374874 0.374874
0.399054 0.399054 0.399054
0.423157 0.423157 0.423157
0.447187 0.447187 0.447187
0.300913 0.300913 0.300913
0.325363 0.325363 0.325363
0.349718 0.349718 0.349718
0.373983 0.373983 0.373983
0.398166 0.398166 0.398166
0.422271 0.422271 0.422271
0.446304 0.446304 0.446304
0.470270 0.470270 0.470270
0.494171 0.494171 0.494171
0.348823 0.348823 0.348823
0.373092 0.373092 0.373092
0.397277 0.397277 0.397277
0.421386 0.421386 0.421386
0.445421 0.445421 0.445421
0.469389 0.469389 0.469389
0.493293 0.493293 0.493293
0.517135 0.517135 0.517135
0.540920 0.540920 0.540920
0.396389 0.396389 0.396389
0.420500 0.420500 0.420500
0.444538 0.444538 0.444538
0.468509 0.468509 0.468509
0.492414 0.492414 0.492414
0.516259 0.516259 0.516259
0.540046 0.540046 0.540046
0.563778 0.563778 0.563778
0.587458 0.587458 0.587458
0.443655 0.443655 0.443655
0.467628 0.467628 0.467628
0.491536 0.491536 0.491536
0.515383 0.515383 0.515383
0.539172 0.539172 0.539172
0.562906 0.562906 0.562906
0.586587 0.586587 0.586587
0.610218 0.610218 0.610218
0.633801 0.633801 0.633801
0.490658 0.490658 0.490658
0.514507 0.514507 0.514507
0.538298 0.538298 0.538298
0.562034 0.562034 0.562034
0.585717 0.585717 0.585717
0.609350 0.609350 0.609350
0.632935 0.632935 0.632935
0.656473 0.656473 0.656473
0.679968 0.679968 0.679968
0.537424 0.537424 0.537424
0.561161 0.561161 0.561161
0.584847 0.584847 0.584847
0.608481 0.608481 0.608481
0.632068 0.632068 0.632068
0.655608 0.655608 0.655608
0.679104 0.679104 0.679104
0.702557 0.702557 0.702557
0.725969 0.725969 0.725969
0.583976 0.583976 0.583976
0.607613 0.607613 0.607613
0.631201 0.631201 0.631201
0.654743 0.654743 0.654743
0.678240 0.678240 0.678240
0.701695 0.701695 0.701695
0.725109 0.725109 0.725109
0.748482 0.748482 0.748482
0.771818 0.771818 0.771818
0.630334 0.630334 0.630334
0.653878 0.653878 0.653878
0.677377 0.677377 0.677377
0.700833 0.700833 0.700833
0.724248 0.724248 0.724248
0.747623 0.747623 0.747623
0.770960 0.770960 0.770960
0.794259 0.794259 0.794259
0.817523 0.817523 0.817523
