app/src/main/assets/luts/era_1940s.cube
TITLE "Generation Camera 1940s"
LUT_3D_SIZE 17
DOMAIN_MIN 0.0 0.0 0.0
DOMAIN_MAX 1.0 1.0 1.0
0.000000 0.000000 0.000000
0.007239 0.007239 0.007239
0.015799 0.015799 0.015799
0.025626 0.025626 0.025626
0.036670 0.036670 0.036670
0.048880 0.048880 0.048880
0.062204 0.062204 0.062204
0.076590 0.076590 0.076590
0.091987 0.091987 0.091987
0.108345 0.108345 0.108345
0.125610 0.125610 0.125610
0.143733 0.143733 0.143733
0.162661 0.162661 0.162661
0.182343 0.182343 0.182343
0.202728 0.202728 0.202728
0.223764 0.223764 0.223764
0.245400 0.245400 0.245400
0.015493 0.015493 0.015493
0.025279 0.025279 0.025279
0.036283 0.036283 0.036283
0.048455 0.048455 0.048455
0.061742 0.061742 0.061742
0.076094 0.076094 0.076094
0.091459 0.091459 0.091459
0.107785 0.107785 0.107785
0.125021 0.125021 0.125021
0.143116 0.143116 0.143116
0.162018 0.162018 0.162018
0.181675 0.181675 0.181675
0.202038 0.202038 0.202038
0.223053 0.223053 0.223053
0.244670 0.244670 0.244670
0.266837 0.266837 0.266837
0.289502 0.289502 0.289502
0.035897 0.035897 0.035897
0.048031 0.048031 0.048031
0.061282 0.061282 0.061282
0.075599 0.075599 0.075599
0.090931 0.090931 0.090931
0.107225 0.107225 0.107225
0.124432 0.124432 0.124432
0.142499 0.142499 0.142499
0.161375 0.161375 0.161375
0.181009 0.181009 0.181009
0.201348 0.201348 0.201348
0.222342 0.222342 0.222342
0.243940 0.243940 0.243940
0.266089 0.266089 0.266089
0.288739 0.288739 0.288739
0.311838 0.311838 0.311838
0.335335 0.335335 0.335335
0.060823 0.060823 0.060823
0.075105 0.075105 0.075105
0.090404 0.090404 0.090404
0.106667 0.106667 0.106667
0.123844 0.123844 0.123844
0.141884 0.141884 0.141884
0.160733 0.160733 0.160733
0.180342 0.180342 0.180342
0.200659 0.200659 0.200659
0.221633 0.221633 0.221633
0.243211 0.243211 0.243211
0.265343 0.265343 0.265343
0.287977 0.287977 0.287977
0.311062 0.311062 0.311062
0.334546 0.334546 0.334546
0.358378 0.358378 0.358378
0.382506 0.382506 0.382506
0.089878 0.089878 0.089878
0.106110 0.106110 0.106110
0.123258 0.123258 0.123258
0.141269 0.141269 0.141269
0.160093 0.160093 0.160093
0.179677 0.179677 0.179677
0.199971 0.199971 0.199971
0.220923 0.220923 0.220923
0.242482 0.242482 0.242482
0.264597 0.264597 0.264597
0.287215 0.287215 0.287215
0.310285 0.310285 0.310285
0.333757 0.333757 0.333757
0.357578 0.357578 0.357578
0.381698 0.381698 0.381698
0.406064 0.406064 0.406064
0.430626 0.430626 0.430626
0.122672 0.122672 0.122672
0.140655 0.140655 0.140655
0.159453 0.159453 0.159453
0.179013 0.179013 0.179013
0.199284 0.199284 0.199284
0.220215 0.220215 0.220215
0.241755 0.241755 0.241755
0.263851 0.263851 0.263851
0.286453 0.286453 0.286453
0.309510 0.309510 0.309510
0.332969 0.332969 0.332969
0.356779 0.356779 0.356779
0.380889 0.380889 0.380889
0.405248 0.405248 0.405248
0.429804 0.429804 0.429804
0.454506 0.454506 0.454506
0.479302 0.479302 0.479302
0.158813 0.158813 0.158813
0.178349 0.178349 0.178349
0.198597 0.198597 0.198597
0.219507 0.219507 0.219507
0.241027 0.241027 0.241027
0.263106 0.263106 0.263106
0.285692 0.285692 0.285692
0.308734 0.308734 0.308734
0.332181 0.332181 0.332181
0.355980 0.355980 0.355980
0.380081 0.380081 0.380081
0.404433 0.404433 0.404433
0.428983 0.428983 0.428983
0.453681 0.453681 0.453681
0.478474 0.478474 0.478474
0.503312 0.503312 0.503312
0.528144 0.528144 0.528144
0.197911 0.197911 0.197911
0.218800 0.218800 0.218800
0.240301 0.240301 0.240301
0.262362 0.262362 0.262362
0.284932 0.284932 0.284932
0.307959 0.307959 0.307959
0.331393 0.331393 0.331393
0.355182 0.355182 0.355182
0.379274 0.379274 0.379274
0.403618 0.403618 0.403618
0.428162 0.428162 0.428162
0.452856 0.452856 0.452856
0.477647 0.477647 0.477647
0.502484 0.502484 0.502484
0.527317 0.527317 0.527317
0.552093 0.552093 0.552093
0.576760 0.576760 0.576760
0.239575 0.239575 0.239575
0.261618 0.261618 0.261618
0.284172 0.284172 0.284172
0.307185 0.307185 0.307185
0.330606 0.330606 0.330606
0.354384 0.354384 0.354384
0.378466 0.378466 0.378466
0.402803 0.402803 0.402803
0.427341 0.427341 0.427341
0.452031 0.452031 0.452031
0.476819 0.476819 0.476819
0.501656 0.501656 0.501656
0.526490 0.526490 0.526490
0.551268 0.551268 0.551268
0.575940 0.575940 0.575940
0.600455 0.600455 0.600455
0.624760 0.624760 0.624760
0.283412 0.283412 0.283412
0.306411 0.306411 0.306411
0.329819 0.329819 0.329819
0.353586 0.353586 0.353586
0.377659 0.377659 0.377659
0.401988 0.401988 0.401988
0.426521 0.426521 0.426521
0.451206 0.451206 0.451206
0.475992 0.475992 0.475992
0.500828 0.500828 0.500828
0.525662 0.525662 0.525662
0.550444 0.550444 0.550444
0.575120 0.575120 0.575120
0.599641 0.599641 0.599641
0.623954 0.623954 0.623954
0.648009 0.648009 0.648009
0.671753 0.671753 0.671753
0.329033 0.329033 0.329033
0.352788 0.352788 0.352788
0.376852 0.376852 0.376852
0.401173 0.401173 0.401173
0.425700 0.425700 0.425700
0.450381 0.450381 0.450381
0.475165 0.475165 0.475165
0.500000 0.500000 0.500000
0.524835 0.524835 0.524835
0.549619 0.549619 0.549619
0.574300 0.574300 0.574300
0.598827 0.598827 0.598827
0.623148 0.623148 0.623148
0.647212 0.647212 0.647212
0.670967 0.670967 0.670967
0.694362 0.694362 0.694362
0.717347 0.717347 0.717347
0.376046 0.376046 0.376046
0.400359 0.400359 0.400359
0.424880 0.424880 0.424880
0.449556 0.449556 0.449556
0.474338 0.474338 0.474338
0.499172 0.499172 0.499172
0.524008 0.524008 0.524008
0.548794 0.548794 0.548794
0.573479 0.573479 0.573479
0.598012 0.598012 0.598012
0.622341 0.622341 0.622341
0.646414 0.646414 0.646414
0.670181 0.670181 0.670181
0.693589 0.693589 0.693589
0.716588 0.716588 0.716588
0.739125 0.739125 0.739125
0.761151 0.761151 0.761151
0.424060 0.424060 0.424060
0.448732 0.448732 0.448732
0.473510 0.473510 0.473510
0.498344 0.498344 0.498344
0.523181 0.523181 0.523181
0.547969 0.547969 0.547969
0.572659 0.572659 0.572659
0.597197 0.597197 0.597197
0.621534 0.621534 0.621534
0.645616 0.645616 0.645616
0.669394 0.669394 0.669394
0.692815 0.692815 0.692815
0.715828 0.715828 0.715828
0.738382 0.738382 0.738382
0.760425 0.760425 0.760425
0.781906 0.781906 0.781906
0.802774 0.802774 0.802774
0.472683 0.472683 0.472683
0.497516 0.497516 0.497516
0.522353 0.522353 0.522353
0.547144 0.547144 0.547144
0.571838 0.571838 0.571838
0.596382 0.596382 0.596382
0.620726 0.620726 0.620726
0.644818 0.644818 0.644818
0.668607 0.668607 0.668607
0.692041 0.692041 0.692041
0.715068 0.715068 0.715068
0.737638 0.737638 0.737638
0.759699 0.759699 0.759699
0.781200 0.781200 0.781200
0.802089 0.802089 0.802089
0.822314 0.822314 0.822314
0.841825 0.841825 0.841825
0.521526 0.521526 0.521526
0.546319 0.546319 0.546319
0.571017 0.571017 0.571017
0.595567 0.595567 0.595567
0.619919 0.619919 0.619919
0.644020 0.644020 0.644020
0.667819 0.667819 0.667819
0.691266 0.691266 0.691266
0.714308 0.714308 0.714308
0.736894 0.736894 0.736894
0.758973 0.758973 0.758973
0.780493 0.780493 0.780493
0.801403 0.801403 0.801403
0.821651 0.821651 0.821651
0.841187 0.841187 0.841187
0.859958 0.859958 0.859958
0.877913 0.877913 0.877913
0.570196 0.570196 0.570196
0.594752 0.594752 0.594752
0.619111 0.619111 0.619111
0.643221 0.643221 0.643221
0.667031 0.667031 0.667031
0.690490 0.690490 0.690490
0.713547 0.713547 0.713547
0.736149 0.736149 0.736149
0.758245 0.758245 0.758245
0.779785 0.779785 0.779785
0.800716 0.800716 0.800716
0.820987 0.820987 0.820987
0.840547 0.840547 0.840547
0.859345 0.859345 0.859345
0.877328 0.877328 0.877328
0.894446 0.894446 0.894446
0.910647 0.910647 0.910647
0.618302 0.618302 0.618302
0.642422 0.642422 0.642422
0.666243 0.666243 0.666243
0.689715 0.689715 0.689715
0.712785 0.712785 0.712785
0.735403 0.735403 0.735403
0.757518 0.757518 0.757518
0.779077 0.779077 0.779077
0.800029 0.800029 0.800029
0.820323 0.820323 0.820323
0.839907 0.839907 0.839907
0.858731 0.858731 0.858731
0.876742 0.876742 0.876742
0.893890 0.893890 0.893890
0.910122 0.910122 0.910122
0.925388 0.925388 0.925388
0.939635 0.939635 0.939635
0.002498 0.002498 0.002498
0.010227 0.010227 0.010227
0.019257 0.019257 0.019257
0.029537 0.029537 0.029537
0.041015 0.041015 0.041015
0.053639 0.053639 0.053639
0.067358 0.067358 0.067358
0.082121 0.082121 0.082121
0.097876 0.097876 0.097876
0.114573 0.114573 0.114573
0.132159 0.132159 0.132159
0.150582 0.150582 0.150582
0.169793 0.169793 0.169793
0.189739 0.189739 0.189739
0.210368 0.210368 0.210368
0.231630 0.231630 0.231630
0.253473 0.253473 0.253473
0.018936 0.018936 0.018936
0.029175 0.029175 0.029175
0.040613 0.040613 0.040613
0.053200 0.053200 0.053200
0.066884 0.066884 0.066884
0.081613 0.081613 0.081613
0.097336 0.097336 0.097336
0.114002 0.114002 0.114002
0.131559 0.131559 0.131559
0.149955 0.149955 0.149955
0.169140 0.169140 0.169140
0.189062 0.189062 0.189062
0.209670 0.209670 0.209670
0.230912 0.230912 0.230912
0.252736 0.252736 0.252736
0.275092 0.275092 0.275092
0.297928 0.297928 0.297928
0.040213 0.040213 0.040213
0.052762 0.052762 0.052762
0.066410 0.066410 0.066410
0.081105 0.081105 0.081105
0.096796 0.096796 0.096796
0.113431 0.113431 0.113431
0.130959 0.130959 0.130959
0.149329 0.149329 0.149329
0.168489 0.168489 0.168489
0.188387 0.188387 0.188387
0.208973 0.208973 0.208973
0.230194 0.230194 0.230194
0.252000 0.252000 0.252000
0.274339 0.274339 0.274339
0.297159 0.297159 0.297159
0.320410 0.320410 0.320410
0.344040 0.344040 0.344040
0.065938 0.065938 0.065938
0.080599 0.080599 0.080599
0.096258 0.096258 0.096258
0.112862 0.112862 0.112862
0.130361 0.130361 0.130361
0.148704 0.148704 0.148704
0.167838 0.167838 0.167838
0.187712 0.187712 0.187712
0.208276 0.208276 0.208276
0.229477 0.229477 0.229477
0.251264 0.251264 0.251264
0.273586 0.273586 0.273586
0.296392 0.296392 0.296392
0.319629 0.319629 0.319629
0.343246 0.343246 0.343246
0.367193 0.367193 0.367193
0.391417 0.391417 0.391417
0.095720 0.095720 0.095720
0.112294 0.112294 0.112294
0.129764 0.129764 0.129764
0.148079 0.148079 0.148079
0.167188 0.167188 0.167188
0.187039 0.187039 0.187039
0.207580 0.207580 0.207580
0.228761 0.228761 0.228761
0.250529 0.250529 0.250529
0.272834 0.272834 0.272834
0.295624 0.295624 0.295624
0.318848 0.318848 0.318848
0.342454 0.342454 0.342454
0.366390 0.366390 0.366390
0.390606 0.390606 0.390606
0.415050 0.415050 0.415050
0.439670 0.439670 0.439670
0.129168 0.129168 0.129168
0.147456 0.147456 0.147456
0.166539 0.166539 0.166539
0.186365 0.186365 0.186365
0.206885 0.206885 0.206885
0.228045 0.228045 0.228045
0.249795 0.249795 0.249795
0.272083 0.272083 0.272083
0.294857 0.294857 0.294857
0.318067 0.318067 0.318067
0.341661 0.341661 0.341661
0.365587 0.365587 0.365587
0.389795 0.389795 0.389795
0.414232 0.414232 0.414232
0.438847 0.438847 0.438847
0.463590 0.463590 0.463590
0.488407 0.488407 0.488407
0.165890 0.165890 0.165890
0.185693 0.185693 0.185693
0.206190 0.206190 0.206190
0.227330 0.227330 0.227330
0.249061 0.249061 0.249061
0.271332 0.271332 0.271332
0.294091 0.294091 0.294091
0.317287 0.317287 0.317287
0.340869 0.340869 0.340869
0.364785 0.364785 0.364785
0.388984 0.388984 0.388984
0.413414 0.413414 0.413414
0.438025 0.438025 0.438025
0.462763 0.462763 0.462763
0.487579 0.487579 0.487579
0.512421 0.512421 0.512421
0.537237 0.537237 0.537237
0.205496 0.205496 0.205496
0.226615 0.226615 0.226615
0.248327 0.248327 0.248327
0.270581 0.270581 0.270581
0.293325 0.293325 0.293325
0.316507 0.316507 0.316507
0.340077 0.340077 0.340077
0.363983 0.363983 0.363983
0.388173 0.388173 0.388173
0.412597 0.412597 0.412597
0.437202 0.437202 0.437202
0.461937 0.461937 0.461937
0.486751 0.486751 0.486751
0.511593 0.511593 0.511593
0.536410 0.536410 0.536410
0.561153 0.561153 0.561153
0.585768 0.585768 0.585768
0.247595 0.247595 0.247595
0.269831 0.269831 0.269831
0.292559 0.292559 0.292559
0.315728 0.315728 0.315728
0.339286 0.339286 0.339286
0.363181 0.363181 0.363181
0.387363 0.387363 0.387363
0.411779 0.411779 0.411779
0.436379 0.436379 0.436379
0.461111 0.461111 0.461111
0.485923 0.485923 0.485923
0.510765 0.510765 0.510765
0.535584 0.535584 0.535584
0.560330 0.560330 0.560330
0.584950 0.584950 0.584950
0.609394 0.609394 0.609394
0.633610 0.633610 0.633610
0.291794 0.291794 0.291794
0.314949 0.314949 0.314949
0.338495 0.338495 0.338495
0.362380 0.362380 0.362380
0.386553 0.386553 0.386553
0.410962 0.410962 0.410962
0.435557 0.435557 0.435557
0.460285 0.460285 0.460285
0.485096 0.485096 0.485096
0.509937 0.509937 0.509937
0.534758 0.534758 0.534758
0.559507 0.559507 0.559507
0.584132 0.584132 0.584132
0.608583 0.608583 0.608583
0.632807 0.632807 0.632807
0.656754 0.656754 0.656754
0.680371 0.680371 0.680371
0.337704 0.337704 0.337704
0.361579 0.361579 0.361579
0.385743 0.385743 0.385743
0.410145 0.410145 0.410145
0.434735 0.434735 0.434735
0.459459 0.459459 0.459459
0.484268 0.484268 0.484268
0.509109 0.509109 0.509109
0.533931 0.533931 0.533931
0.558683 0.558683 0.558683
0.583314 0.583314 0.583314
0.607771 0.607771 0.607771
0.632004 0.632004 0.632004
0.655960 0.655960 0.655960
0.679590 0.679590 0.679590
0.702841 0.702841 0.702841
0.725661 0.725661 0.725661
0.384933 0.384933 0.384933
0.409329 0.409329 0.409329
0.433912 0.433912 0.433912
0.458633 0.458633 0.458633
0.483440 0.483440 0.483440
0.508281 0.508281 0.508281
0.533105 0.533105 0.533105
0.557860 0.557860 0.557860
0.582495 0.582495 0.582495
0.606959 0.606959 0.606959
0.631200 0.631200 0.631200
0.655167 0.655167 0.655167
0.678808 0.678808 0.678808
0.702072 0.702072 0.702072
0.724908 0.724908 0.724908
0.747264 0.747264 0.747264
0.769088 0.769088 0.769088
0.433091 0.433091 0.433091
0.457808 0.457808 0.457808
0.482612 0.482612 0.482612
0.507453 0.507453 0.507453
0.532278 0.532278 0.532278
0.557036 0.557036 0.557036
0.581676 0.581676 0.581676
0.606147 0.606147 0.606147
0.630396 0.630396 0.630396
0.654373 0.654373 0.654373
0.678026 0.678026 0.678026
0.701303 0.701303 0.701303
0.724154 0.724154 0.724154
0.746527 0.746527 0.746527
0.768370 0.768370 0.768370
0.789632 0.789632 0.789632
0.810261 0.810261 0.810261
0.481785 0.481785 0.481785
0.506625 0.506625 0.506625
0.531451 0.531451 0.531451
0.556213 0.556213 0.556213
0.580858 0.580858 0.580858
0.605334 0.605334 0.605334
0.629592 0.629592 0.629592
0.653579 0.653579 0.653579
0.677243 0.677243 0.677243
0.700534 0.700534 0.700534
0.723400 0.723400 0.723400
0.745789 0.745789 0.745789
0.767651 0.767651 0.767651
0.788933 0.788933 0.788933
0.809584 0.809584 0.809584
0.829554 0.829554 0.829554
0.848790 0.848790 0.848790
0.530625 0.530625 0.530625
0.555389 0.555389 0.555389
0.580038 0.580038 0.580038
0.604522 0.604522 0.604522
0.628787 0.628787 0.628787
0.652784 0.652784 0.652784
0.676460 0.676460 0.676460
0.699764 0.699764 0.699764
0.722645 0.722645 0.722645
0.745051 0.745051 0.745051
0.766931 0.766931 0.766931
0.788233 0.788233 0.788233
0.808907 0.808907 0.808907
0.828900 0.828900 0.828900
0.848161 0.848161 0.848161
0.866639 0.866639 0.866639
0.884282 0.884282 0.884282
0.579219 0.579219 0.579219
0.603709 0.603709 0.603709
0.627983 0.627983 0.627983
0.651989 0.651989 0.651989
0.675677 0.675677 0.675677
0.698994 0.698994 0.698994
0.721890 0.721890 0.721890
0.744312 0.744312 0.744312
0.766211 0.766211 0.766211
0.787533 0.787533 0.787533
0.808228 0.808228 0.808228
0.828245 0.828245 0.828245
0.847531 0.847531 0.847531
0.866036 0.866036 0.866036
0.883708 0.883708 0.883708
0.900495 0.900495 0.900495
0.916347 0.916347 0.916347
0.627177 0.627177 0.627177
0.651194 0.651194 0.651194
0.674893 0.674893 0.674893
0.698223 0.698223 0.698223
0.721134 0.721134 0.721134
0.743573 0.743573 0.743573
0.765490 0.765490 0.765490
0.786832 0.786832 0.786832
0.807549 0.807549 0.807549
0.827589 0.827589 0.827589
0.846901 0.846901 0.846901
0.865432 0.865432 0.865432
0.883133 0.883133 0.883133
0.899951 0.899951 0.899951
0.915834 0.915834 0.915834
0.930733 0.930733 0.930733
0.944594 0.944594 0.944594
0.005178 0.005178 0.005178
0.013390 0.013390 0.013390
0.022884 0.022884 0.022884
0.033609 0.033609 0.033609
0.045513 0.045513 0.045513
0.058545 0.058545 0.058545
0.072653 0.072653 0.072653
0.087786 0.087786 0.087786
0.103892 0.103892 0.103892
0.120920 0.120920 0.120920
0.138819 0.138819 0.138819
0.157538 0.157538 0.157538
0.177024 0.177024 0.177024
0.197226 0.197226 0.197226
0.218094 0.218094 0.218094
0.239575 0.239575 0.239575
0.261618 0.261618 0.261618
0.022548 0.022548 0.022548
0.033232 0.033232 0.033232
0.045098 0.045098 0.045098
0.058093 0.058093 0.058093
0.072166 0.072166 0.072166
0.087265 0.087265 0.087265
0.103340 0.103340 0.103340
0.120338 0.120338 0.120338
0.138209 0.138209 0.138209
0.156901 0.156901 0.156901
0.176362 0.176362 0.176362
0.196542 0.196542 0.196542
0.217388 0.217388 0.217388
0.238849 0.238849 0.238849
0.260875 0.260875 0.260875
0.283412 0.283412 0.283412
0.306411 0.306411 0.306411
0.044684 0.044684 0.044684
0.057642 0.057642 0.057642
0.071680 0.071680 0.071680
0.086746 0.086746 0.086746
0.102789 0.102789 0.102789
0.119757 0.119757 0.119757
0.137600 0.137600 0.137600
0.156265 0.156265 0.156265
0.175702 0.175702 0.175702
0.195858 0.195858 0.195858
0.216683 0.216683 0.216683
0.238125 0.238125 0.238125
0.260132 0.260132 0.260132
0.282653 0.282653 0.282653
0.305637 0.305637 0.305637
0.329033 0.329033 0.329033
0.352788 0.352788 0.352788
0.071195 0.071195 0.071195
0.086228 0.086228 0.086228
0.102239 0.102239 0.102239
0.119177 0.119177 0.119177
0.136992 0.136992 0.136992
0.155630 0.155630 0.155630
0.175042 0.175042 0.175042
0.195175 0.195175 0.195175
0.215978 0.215978 0.215978
0.237400 0.237400 0.237400
0.259390 0.259390 0.259390
0.281895 0.281895 0.281895
0.304864 0.304864 0.304864
0.328247 0.328247 0.328247
0.351991 0.351991 0.351991
0.376046 0.376046 0.376046
0.400359 0.400359 0.400359
0.101690 0.101690 0.101690
0.118598 0.118598 0.118598
0.136384 0.136384 0.136384
0.154996 0.154996 0.154996
0.174383 0.174383 0.174383
0.194493 0.194493 0.194493
0.215275 0.215275 0.215275
0.236677 0.236677 0.236677
0.258648 0.258648 0.258648
0.281137 0.281137 0.281137
0.304092 0.304092 0.304092
0.327462 0.327462 0.327462
0.351195 0.351195 0.351195
0.375240 0.375240 0.375240
0.399545 0.399545 0.399545
0.424060 0.424060 0.424060
0.448732 0.448732 0.448732
0.135778 0.135778 0.135778
0.154363 0.154363 0.154363
0.173725 0.173725 0.173725
0.193812 0.193812 0.193812
0.214572 0.214572 0.214572
0.235954 0.235954 0.235954
0.257907 0.257907 0.257907
0.280379 0.280379 0.280379
0.303320 0.303320 0.303320
0.326676 0.326676 0.326676
0.350398 0.350398 0.350398
0.374434 0.374434 0.374434
0.398731 0.398731 0.398731
0.423240 0.423240 0.423240
0.447907 0.447907 0.447907
0.472683 0.472683 0.472683
0.497516 0.497516 0.497516
0.173068 0.173068 0.173068
0.193131 0.193131 0.193131
0.213869 0.213869 0.213869
0.235232 0.235232 0.235232
0.257167 0.257167 0.257167
0.279623 0.279623 0.279623
0.302548 0.302548 0.302548
0.325892 0.325892 0.325892
0.349602 0.349602 0.349602
0.373628 0.373628 0.373628
0.397918 0.397918 0.397918
0.422420 0.422420 0.422420
0.447083 0.447083 0.447083
0.471856 0.471856 0.471856
0.496688 0.496688 0.496688
0.521526 0.521526 0.521526
0.546319 0.546319 0.546319
0.213168 0.213168 0.213168
0.234510 0.234510 0.234510
0.256427 0.256427 0.256427
0.278866 0.278866 0.278866
0.301777 0.301777 0.301777
0.325107 0.325107 0.325107
0.348806 0.348806 0.348806
0.372823 0.372823 0.372823
0.397104 0.397104 0.397104
0.421600 0.421600 0.421600
0.446259 0.446259 0.446259
0.471029 0.471029 0.471029
0.495859 0.495859 0.495859
0.520698 0.520698 0.520698
0.545494 0.545494 0.545494
0.570196 0.570196 0.570196
0.594752 0.594752 0.594752
0.255688 0.255688 0.255688
0.278110 0.278110 0.278110
0.301006 0.301006 0.301006
0.324323 0.324323 0.324323
0.348011 0.348011 0.348011
0.372017 0.372017 0.372017
0.396291 0.396291 0.396291
0.420781 0.420781 0.420781
0.445435 0.445435 0.445435
0.470202 0.470202 0.470202
0.495031 0.495031 0.495031
0.519871 0.519871 0.519871
0.544669 0.544669 0.544669
0.569374 0.569374 0.569374
0.593936 0.593936 0.593936
0.618302 0.618302 0.618302
0.642422 0.642422 0.642422
0.300236 0.300236 0.300236
0.323540 0.323540 0.323540
0.347216 0.347216 0.347216
0.371213 0.371213 0.371213
0.395478 0.395478 0.395478
0.419962 0.419962 0.419962
0.444611 0.444611 0.444611
0.469375 0.469375 0.469375
0.494203 0.494203 0.494203
0.519043 0.519043 0.519043
0.543843 0.543843 0.543843
0.568553 0.568553 0.568553
0.593120 0.593120 0.593120
0.617494 0.617494 0.617494
0.641622 0.641622 0.641622
0.665454 0.665454 0.665454
0.688938 0.688938 0.688938
0.346421 0.346421 0.346421
0.370408 0.370408 0.370408
0.394666 0.394666 0.394666
0.419142 0.419142 0.419142
0.443787 0.443787 0.443787
0.468549 0.468549 0.468549
0.493375 0.493375 0.493375
0.518215 0.518215 0.518215
0.543018 0.543018 0.543018
0.567731 0.567731 0.567731
0.592304 0.592304 0.592304
0.616685 0.616685 0.616685
0.640823 0.640823 0.640823
0.664665 0.664665 0.664665
0.688162 0.688162 0.688162
0.711261 0.711261 0.711261
0.733911 0.733911 0.733911
0.393853 0.393853 0.393853
0.418324 0.418324 0.418324
0.442964 0.442964 0.442964
0.467722 0.467722 0.467722
0.492547 0.492547 0.492547
0.517388 0.517388 0.517388
0.542192 0.542192 0.542192
0.566909 0.566909 0.566909
0.591488 0.591488 0.591488
0.615876 0.615876 0.615876
0.640022 0.640022 0.640022
0.663876 0.663876 0.663876
0.687385 0.687385 0.687385
0.710498 0.710498 0.710498
0.733163 0.733163 0.733163
0.755330 0.755330 0.755330
0.776947 0.776947 0.776947
0.442140 0.442140 0.442140
0.466895 0.466895 0.466895
0.491719 0.491719 0.491719
0.516560 0.516560 0.516560
0.541367 0.541367 0.541367
0.566088 0.566088 0.566088
0.590671 0.590671 0.590671
0.615067 0.615067 0.615067
0.639222 0.639222 0.639222
0.663086 0.663086 0.663086
0.686607 0.686607 0.686607
0.709734 0.709734 0.709734
0.732416 0.732416 0.732416
0.754600 0.754600 0.754600
0.776236 0.776236 0.776236
0.797272 0.797272 0.797272
0.817657 0.817657 0.817657
0.490891 0.490891 0.490891
0.515732 0.515732 0.515732
0.540541 0.540541 0.540541
0.565265 0.565265 0.565265
0.589855 0.589855 0.589855
0.614257 0.614257 0.614257
0.638421 0.638421 0.638421
0.662296 0.662296 0.662296
0.685829 0.685829 0.685829
0.708970 0.708970 0.708970
0.731667 0.731667 0.731667
0.753869 0.753869 0.753869
0.775524 0.775524 0.775524
0.796581 0.796581 0.796581
0.816988 0.816988 0.816988
0.836695 0.836695 0.836695
0.855649 0.855649 0.855649
0.539715 0.539715 0.539715
0.564443 0.564443 0.564443
0.589038 0.589038 0.589038
0.613447 0.613447 0.613447
0.637620 0.637620 0.637620
0.661505 0.661505 0.661505
0.685051 0.685051 0.685051
0.708206 0.708206 0.708206
0.730918 0.730918 0.730918
0.753138 0.753138 0.753138
0.774812 0.774812 0.774812
0.795889 0.795889 0.795889
0.816319 0.816319 0.816319
0.836050 0.836050 0.836050
0.855030 0.855030 0.855030
0.873208 0.873208 0.873208
0.890532 0.890532 0.890532
0.588221 0.588221 0.588221
0.612637 0.612637 0.612637
0.636819 0.636819 0.636819
0.660714 0.660714 0.660714
0.684272 0.684272 0.684272
0.707441 0.707441 0.707441
0.730169 0.730169 0.730169
0.752405 0.752405 0.752405
0.774099 0.774099 0.774099
0.795197 0.795197 0.795197
0.815649 0.815649 0.815649
0.835404 0.835404 0.835404
0.854410 0.854410 0.854410
0.872615 0.872615 0.872615
0.889969 0.889969 0.889969
0.906419 0.906419 0.906419
0.921915 0.921915 0.921915
0.636017 0.636017 0.636017
0.659923 0.659923 0.659923
0.683493 0.683493 0.683493
0.706675 0.706675 0.706675
0.729419 0.729419 0.729419
0.751673 0.751673 0.751673
0.773385 0.773385 0.773385
0.794504 0.794504 0.794504
0.814978 0.814978 0.814978
0.834757 0.834757 0.834757
0.853789 0.853789 0.853789
0.872022 0.872022 0.872022
0.889405 0.889405 0.889405
0.905886 0.905886 0.905886
0.921414 0.921414 0.921414
0.935938 0.935938 0.935938
0.949407 0.949407 0.949407
0.008037 0.008037 0.008037
0.016725 0.016725 0.016725
0.026677 0.026677 0.026677
0.037840 0.037840 0.037840
0.050163 0.050163 0.050163
0.063595 0.063595 0.063595
0.078085 0.078085 0.078085
0.093581 0.093581 0.093581
0.110031 0.110031 0.110031
0.127385 0.127385 0.127385
0.145590 0.145590 0.145590
0.164596 0.164596 0.164596
0.184351 0.184351 0.184351
0.204803 0.204803 0.204803
0.225901 0.225901 0.225901
0.247595 0.247595 0.247595
0.269831 0.269831 0.269831
0.026325 0.026325 0.026325
