app/src/main/assets/luts/era_1980s.cube
TITLE "Generation Camera 1980s"
LUT_3D_SIZE 17
DOMAIN_MIN 0.0 0.0 0.0
DOMAIN_MAX 1.0 1.0 1.0
0.010000 0.010000 0.010000
0.055757 0.011742 0.011617
0.115862 0.014037 0.013746
0.187621 0.016785 0.016296
0.268348 0.019889 0.019175
0.355382 0.023249 0.022293
0.446094 0.026768 0.025558
0.537898 0.030347 0.028879
0.628256 0.033888 0.032164
0.714682 0.037292 0.035322
0.794741 0.040461 0.038262
0.866040 0.043295 0.040893
0.926226 0.045698 0.043122
0.972965 0.047570 0.044859
0.981207 0.047901 0.045166
0.981207 0.047901 0.045166
0.981207 0.047901 0.045166
0.013235 0.054319 0.012912
0.051014 0.051676 0.013993
0.108820 0.049871 0.015792
0.178679 0.048621 0.018031
0.257912 0.047836 0.020619
0.343860 0.047422 0.023465
0.433895 0.047285 0.026477
0.525428 0.047332 0.029564
0.615918 0.047466 0.032634
0.702872 0.047590 0.035597
0.783845 0.047605 0.038362
0.856440 0.047412 0.040836
0.918291 0.046910 0.042929
0.967090 0.047335 0.044640
0.981207 0.047901 0.045166
0.981207 0.047901 0.045166
0.981207 0.047901 0.045166
0.017447 0.111663 0.016702
0.047786 0.107745 0.017460
0.103403 0.104801 0.019123
0.171433 0.102392 0.021238
0.249203 0.100432 0.023714
0.334057 0.098835 0.026460
0.423368 0.097511 0.029385
0.514550 0.096372 0.032397
0.605060 0.095325 0.035405
0.692405 0.094277 0.038319
0.774142 0.093134 0.041046
0.847873 0.091801 0.043495
0.911234 0.090180 0.045575
0.961890 0.088172 0.047195
0.982067 0.085078 0.047688
0.981980 0.081280 0.047430
0.981895 0.077565 0.047177
0.022474 0.179612 0.021227
0.045730 0.174640 0.021685
0.099092 0.170734 0.023220
0.165217 0.167335 0.025221
0.241439 0.164365 0.027595
0.325106 0.161742 0.030251
0.413594 0.159386 0.033098
0.504319 0.157210 0.036045
0.594740 0.155130 0.039001
0.682366 0.153059 0.041874
0.764755 0.150906 0.044573
0.839512 0.148580 0.047006
0.904279 0.145990 0.049083
0.956725 0.143041 0.050713
0.983295 0.139221 0.051382
0.983189 0.134483 0.051058
0.983084 0.129813 0.050738
0.028159 0.255763 0.026343
0.044703 0.249962 0.026524
0.095754 0.245275 0.027942
0.159908 0.241061 0.029838
0.234506 0.237248 0.032119
0.316902 0.233765 0.034695
0.404477 0.230534 0.037474
0.494649 0.227478 0.040365
0.584881 0.224519 0.043278
0.672684 0.221575 0.046120
0.755621 0.218562 0.048800
0.831301 0.215397 0.051227
0.897373 0.211991 0.053311
0.951513 0.208257 0.054959
0.984722 0.203870 0.055828
0.984603 0.198379 0.055449
0.984484 0.192942 0.055074
0.034341 0.337755 0.031907
0.044562 0.331352 0.031834
0.093252 0.326066 0.033145
0.155376 0.321213 0.034944
0.228284 0.316730 0.037142
0.309336 0.312552 0.039647
0.395917 0.308609 0.042368
0.485450 0.304833 0.045213
0.575402 0.301150 0.048092
0.663289 0.297487 0.050913
0.746678 0.293769 0.053584
0.823185 0.289916 0.056015
0.890465 0.285848 0.058114
0.946206 0.281484 0.059790
0.986276 0.276680 0.060883
0.986149 0.270623 0.060460
0.986022 0.264605 0.060041
0.040861 0.423295 0.037775
0.045159 0.416512 0.037473
0.091447 0.410809 0.038684
0.151492 0.405494 0.040398
0.222652 0.400513 0.042522
0.302295 0.395808 0.044966
0.387812 0.391318 0.047638
0.476631 0.386981 0.050447
0.566223 0.382733 0.053301
0.654109 0.378508 0.056110
0.737862 0.374236 0.058782
0.815105 0.369849 0.061225
0.883504 0.365273 0.063350
0.940755 0.360432 0.065063
0.984571 0.355250 0.066275
0.987760 0.348907 0.065947
0.987630 0.342491 0.065495
0.047559 0.510167 0.043803
0.047022 0.503235 0.043320
0.090196 0.497280 0.044418
0.148121 0.491680 0.046055
0.217485 0.486373 0.048115
0.295665 0.481309 0.050507
0.380058 0.476436 0.053140
0.468097 0.471700 0.055921
0.557258 0.467045 0.058761
0.645069 0.462413 0.061567
0.729108 0.457744 0.064249
0.807007 0.452974 0.066716
0.876440 0.448040 0.068875
0.935117 0.442874 0.070636
0.980765 0.437407 0.071907
0.989375 0.430989 0.071767
0.989248 0.424350 0.071293
0.054277 0.596250 0.049849
0.053743 0.589457 0.049369
0.089353 0.583347 0.050203
0.145123 0.577635 0.051773
0.212653 0.572172 0.053778
0.289327 0.566917 0.056128
0.372547 0.561826 0.058730
0.459752 0.556852 0.061494
0.548424 0.551949 0.064329
0.636096 0.547065 0.067143
0.720354 0.542150 0.069844
0.798837 0.537149 0.072342
0.869229 0.532007 0.074546
0.929253 0.526664 0.076364
0.976652 0.521059 0.077704
0.990943 0.514704 0.077775
0.990821 0.508011 0.077292
0.060853 0.679518 0.055768
0.060337 0.673022 0.055303
0.088767 0.666967 0.055895
0.142359 0.661315 0.057407
0.208025 0.655866 0.059367
0.283158 0.650586 0.061684
0.365168 0.645440 0.064266
0.451497 0.640390 0.067023
0.539634 0.635396 0.069862
0.627117 0.630417 0.072692
0.711537 0.625409 0.075423
0.790543 0.620326 0.077962
0.861829 0.615123 0.080220
0.923130 0.609748 0.082104
0.972205 0.604149 0.083523
0.992419 0.597983 0.083828
0.992305 0.591399 0.083347
0.067129 0.758045 0.061416
0.066643 0.751995 0.060979
0.088286 0.746199 0.061351
0.139681 0.740774 0.062815
0.203465 0.735506 0.064740
0.277035 0.730366 0.067034
0.357808 0.725329 0.069605
0.443232 0.720363 0.072363
0.530800 0.715436 0.075215
0.618055 0.710516 0.078072
0.702595 0.705567 0.080841
0.782076 0.700553 0.083432
0.854201 0.695434 0.085753
0.916719 0.690169 0.087713
0.967403 0.684716 0.089220
0.993769 0.678856 0.089783
0.993666 0.672534 0.089315
0.072946 0.829992 0.066651
0.072502 0.824533 0.066252
0.087754 0.819186 0.066428
0.136943 0.814155 0.067854
0.198832 0.809232 0.069753
0.270826 0.804398 0.072033
0.350349 0.799632 0.074602
0.434852 0.794911 0.077371
0.521831 0.790211 0.080247
0.608834 0.785506 0.083140
0.693465 0.780770 0.085957
0.773385 0.775972 0.088609
0.846308 0.771083 0.091002
0.909993 0.766071 0.093047
0.962228 0.760900 0.094652
0.994970 0.755455 0.095497
0.994880 0.749541 0.095053
0.078143 0.893603 0.071329
0.077755 0.888872 0.070979
0.087012 0.884154 0.070982
0.133989 0.879679 0.072380
0.193981 0.875266 0.074262
0.264399 0.870902 0.076537
0.342668 0.866571 0.079116
0.426246 0.862259 0.081905
0.512631 0.857946 0.084814
0.599373 0.853615 0.087752
0.684081 0.849245 0.090627
0.764420 0.844815 0.093348
0.838113 0.840302 0.095824
0.902928 0.835683 0.097964
0.956668 0.830932 0.099676
0.996007 0.826007 0.100825
0.995930 0.820638 0.100417
0.082561 0.947175 0.075305
0.082241 0.943307 0.075017
0.085897 0.939388 0.074871
0.130664 0.935630 0.076249
0.188764 0.931892 0.078124
0.257612 0.928163 0.080405
0.334639 0.924435 0.083001
0.417302 0.920696 0.085821
0.503101 0.916935 0.088772
0.589588 0.913138 0.091765
0.674374 0.909293 0.094707
0.755128 0.905385 0.097508
0.829578 0.901398 0.100076
0.895502 0.897317 0.102320
0.950712 0.893122 0.104149
0.993042 0.888793 0.105471
0.996809 0.884131 0.105263
0.086042 0.989042 0.078437
0.085802 0.986169 0.078222
0.085556 0.983213 0.078000
0.126806 0.980330 0.079319
0.183025 0.977432 0.081197
0.250321 0.974508 0.083493
0.326126 0.971552 0.086116
0.407897 0.968557 0.088975
0.493133 0.965517 0.091979
0.579387 0.962422 0.095036
0.664269 0.959266 0.098055
0.745450 0.956039 0.100945
0.820661 0.952733 0.103614
0.887686 0.949337 0.105972
0.944348 0.945840 0.107927
0.988493 0.942230 0.109388
0.997514 0.938389 0.109448
0.086709 0.997039 0.079038
0.086709 0.997039 0.079038
0.086709 0.997039 0.079038
0.121034 0.997145 0.080319
0.175603 0.997310 0.082361
0.241588 0.997506 0.084841
0.316409 0.997723 0.087667
0.397516 0.997951 0.090749
0.482399 0.998181 0.093994
0.568602 0.998407 0.097311
0.653684 0.997536 0.100526
0.735320 0.995159 0.103515
0.811314 0.992695 0.106295
0.879450 0.990141 0.108777
0.937560 0.987490 0.110867
0.983500 0.984738 0.112477
0.998048 0.981825 0.112829
0.086709 0.997039 0.079038
0.086709 0.997039 0.079038
0.086709 0.997039 0.079038
0.114199 0.997124 0.080064
0.166892 0.997284 0.082035
0.231377 0.997476 0.084457
0.305072 0.997691 0.087238
0.385421 0.997917 0.090288
0.469909 0.998148 0.093515
0.556070 0.998374 0.096828
0.641500 0.998591 0.100134
0.723859 0.998791 0.103344
0.800868 0.998971 0.106366
0.870311 0.999127 0.109108
0.930017 0.999256 0.111479
0.977850 0.999357 0.113387
0.998256 0.999399 0.114204
0.010722 0.010700 0.058583
0.054899 0.012328 0.056080
0.114556 0.014551 0.054199
0.185945 0.017233 0.052823
0.266380 0.020274 0.051870
0.353201 0.023576 0.051255
0.443780 0.027040 0.050891
0.535529 0.030568 0.050692
0.625910 0.034062 0.050568
0.712437 0.037423 0.050430
0.792672 0.040553 0.050186
0.864222 0.043353 0.049744
0.924732 0.045726 0.049010
0.971865 0.047572 0.047891
0.981208 0.047906 0.045469
0.981207 0.047901 0.045166
0.981207 0.047901 0.045166
0.013728 0.053334 0.053507
0.050002 0.050619 0.050673
0.107363 0.048784 0.048659
0.176855 0.047509 0.047171
0.255800 0.046701 0.046126
0.341540 0.046270 0.045438
0.431446 0.046120 0.045021
0.522930 0.046158 0.044786
0.613448 0.046287 0.044646
0.700507 0.046409 0.044509
0.781660 0.046426 0.044284
0.854507 0.046239 0.043879
0.916682 0.045748 0.043201
0.965911 0.047287 0.044597
0.981207 0.047901 0.045166
0.981207 0.047901 0.045166
0.981207 0.047901 0.045166
0.017801 0.110191 0.049709
0.046708 0.106205 0.046747
0.101876 0.103231 0.044789
0.169536 0.100795 0.043373
0.247016 0.098813 0.042413
0.331661 0.097198 0.041825
0.420843 0.095861 0.041520
0.511974 0.094711 0.041412
0.602511 0.093658 0.041411
0.689960 0.092608 0.041425
0.771874 0.091466 0.041362
0.845868 0.090169 0.043317
0.909563 0.088594 0.045411
0.960615 0.086634 0.047048
0.982034 0.083620 0.047589
0.981947 0.079854 0.047333
0.981862 0.076171 0.047082
0.022700 0.177736 0.047006
0.044595 0.172701 0.043939
0.097505 0.168764 0.042049
0.163258 0.165339 0.040716
0.239188 0.162346 0.039854
0.322643 0.159706 0.039378
0.411001 0.157334 0.039201
0.501673 0.155148 0.039232
0.592120 0.153062 0.039382
0.679865 0.151015 0.041652
0.762446 0.148897 0.044359
0.837461 0.146609 0.046803
0.902552 0.144059 0.048893
0.955385 0.141152 0.050538
0.983255 0.137406 0.051258
0.983149 0.132694 0.050936
0.983044 0.128050 0.050618
0.028266 0.253570 0.045275
0.043522 0.247710 0.042126
0.094117 0.242992 0.040316
0.157896 0.238752 0.039078
0.232199 0.234917 0.038327
0.314382 0.231414 0.037976
0.401825 0.228169 0.037937
0.491964 0.225127 0.040117
0.582242 0.222192 0.043031
0.670160 0.219275 0.045878
0.753281 0.216292 0.048565
0.829210 0.213158 0.051003
0.895596 0.209787 0.053099
0.950114 0.206088 0.054762
0.984676 0.201770 0.055683
0.984557 0.196300 0.055306
0.984439 0.190884 0.054932
0.034339 0.335331 0.044390
0.043346 0.328873 0.041183
0.091577 0.323556 0.039464
0.153322 0.318677 0.038333
0.225933 0.314172 0.037704
0.306792 0.309996 0.039390
0.393267 0.306067 0.042107
0.482766 0.302308 0.044951
0.572755 0.298645 0.047831
0.660749 0.295004 0.050655
0.744312 0.291309 0.053333
0.821058 0.287482 0.055773
0.888643 0.283443 0.057884
0.944751 0.279108 0.059575
0.986227 0.274366 0.060721
0.986100 0.268324 0.060300
0.985974 0.262321 0.059882
0.040760 0.420724 0.044220
0.043918 0.413890 0.040978
0.089743 0.408157 0.039362
0.149432 0.402834 0.040150
0.220325 0.397857 0.042264
0.299777 0.393158 0.044701
0.385178 0.388677 0.047368
0.473954 0.384352 0.050175
0.563573 0.380119 0.053030
0.651556 0.375910 0.055842
0.735474 0.371657 0.058519
0.812947 0.367290 0.060972
0.881640 0.362735 0.063107
0.939248 0.357918 0.064834
0.983484 0.352761 0.066063
0.987710 0.346458 0.065775
0.987581 0.340051 0.065324
0.047370 0.507533 0.044628
0.046817 0.500591 0.043135
0.088538 0.494606 0.044181
0.146110 0.489003 0.045805
0.215199 0.483694 0.047854
0.293178 0.478632 0.050238
0.377446 0.473764 0.052866
0.465432 0.469035 0.055644
0.554612 0.464389 0.058484
0.642510 0.459768 0.061293
0.726704 0.455111 0.063980
0.804823 0.450356 0.066454
0.874540 0.445438 0.068623
0.933564 0.440290 0.070397
0.979620 0.434841 0.071684
0.989327 0.428456 0.071586
0.989199 0.421821 0.071113
0.054073 0.593662 0.049666
0.053540 0.586862 0.049186
0.087760 0.580722 0.049968
0.143169 0.575003 0.051525
0.210414 0.569535 0.053519
0.286877 0.564277 0.055860
0.369962 0.559185 0.058456
0.457104 0.554214 0.061217
0.545785 0.549315 0.064051
0.633535 0.544437 0.066866
0.717938 0.539530 0.069572
0.796631 0.534538 0.072077
0.867297 0.529405 0.074290
0.927657 0.524074 0.076120
0.975453 0.518481 0.077476
0.990896 0.512152 0.077591
0.990774 0.505459 0.077108
0.060656 0.677045 0.055591
0.060140 0.670537 0.055126
0.087245 0.664453 0.055668
0.140466 0.658789 0.057166
0.205838 0.653330 0.059114
0.280751 0.648044 0.061422
0.362615 0.642893 0.063997
0.448872 0.637840 0.066749
0.537007 0.632845 0.069586
0.624557 0.627867 0.072418
0.709113 0.622861 0.075152
0.788319 0.617782 0.077698
0.859868 0.612583 0.079964
0.921495 0.607213 0.081860
0.970956 0.601620 0.083293
0.992375 0.595474 0.083645
0.992262 0.588885 0.083163
0.066944 0.755743 0.061250
0.066457 0.749678 0.060811
0.086841 0.743851 0.061136
0.137856 0.738411 0.062585
0.201334 0.733129 0.064497
0.274674 0.727979 0.066781
0.355292 0.722932 0.069345
0.440633 0.717958 0.072097
0.528189 0.713026 0.074948
0.615501 0.708102 0.077805
0.700166 0.703151 0.080577
0.779836 0.698134 0.083173
0.852215 0.693014 0.085502
0.915047 0.687749 0.087473
0.966106 0.682296 0.088993
0.993730 0.676449 0.089605
0.993627 0.670117 0.089136
0.072777 0.827917 0.066499
0.072332 0.822438 0.066099
0.086392 0.817060 0.066229
0.135190 0.812009 0.067639
0.196763 0.807069 0.069525
0.268518 0.802219 0.071794
0.347874 0.797440 0.074356
0.432283 0.792707 0.077119
0.519240 0.787997 0.079992
0.606290 0.783283 0.082884
0.691035 0.778539 0.085704
0.771134 0.773734 0.088360
0.844299 0.768839 0.090761
0.908287 0.763820 0.092816
0.960886 0.758644 0.094433
0.994936 0.753205 0.095328
0.994846 0.747276 0.094883
0.077996 0.891807 0.071196
0.077605 0.887052 0.070845
0.085737 0.882302 0.070805
0.132314 0.877803 0.072185
0.191980 0.873369 0.074053
0.262146 0.868985 0.076317
0.340239 0.864637 0.078887
0.423712 0.860308 0.081669
0.510064 0.855980 0.084575
0.596842 0.851635 0.087512
0.681652 0.847251 0.090388
0.762159 0.842809 0.093114
0.836083 0.838285 0.095596
0.901191 0.833655 0.097745
0.955283 0.828892 0.099470
0.995978 0.823966 0.100670
0.995901 0.818579 0.100261
0.082440 0.945709 0.075196
0.082117 0.941813 0.074906
0.084716 0.937860 0.074719
0.129072 0.934075 0.076079
0.186834 0.930311 0.077939
0.255421 0.926559 0.080208
0.332259 0.922808 0.082794
0.414806 0.919048 0.085607
0.500560 0.915267 0.088554
0.587072 0.911451 0.091545
0.671949 0.907588 0.094488
0.752860 0.903662 0.097292
0.827530 0.899659 0.099866
0.893734 0.895561 0.102119
0.949286 0.891349 0.103959
0.992016 0.887004 0.105295
0.996785 0.882327 0.105125
0.085951 0.987957 0.078356
0.085709 0.985052 0.078138
0.085460 0.982063 0.077914
0.125302 0.979146 0.079178
0.181172 0.976218 0.081040
0.248195 0.973265 0.083323
0.323799 0.970282 0.085936
0.405442 0.967262 0.088787
0.490622 0.964196 0.091785
0.576889 0.961077 0.094840
0.661850 0.957898 0.097859
0.743176 0.954648 0.100752
0.818595 0.951320 0.103426
0.885890 0.947902 0.105792
0.942882 0.944383 0.107758
0.987415 0.940751 0.109232
0.997495 0.936889 0.109332
0.086709 0.997039 0.079038
0.086709 0.997039 0.079038
0.086709 0.997039 0.079038
0.119683 0.997141 0.080268
0.173893 0.997305 0.082297
0.239590 0.997501 0.084766
0.314197 0.997717 0.087584
0.395161 0.997944 0.090659
0.479971 0.998175 0.093901
0.566170 0.998400 0.097217
0.651273 0.996553 0.100359
0.733042 0.994147 0.103349
0.809232 0.991656 0.106134
0.877626 0.989075 0.108623
0.936055 0.986397 0.110723
0.982373 0.983617 0.112345
0.998034 0.980678 0.112739
0.086709 0.997039 0.079038
0.086709 0.997039 0.079038
0.086709 0.997039 0.079038
0.112907 0.997120 0.080015
0.165229 0.997279 0.081972
0.229416 0.997471 0.084383
0.302886 0.997684 0.087156
0.383082 0.997911 0.090199
0.467487 0.998141 0.093422
0.553634 0.998368 0.096734
0.639118 0.998585 0.100042
0.721594 0.998786 0.103256
0.798786 0.998966 0.106284
0.868472 0.999123 0.109035
0.928483 0.999253 0.111418
0.976680 0.999354 0.113341
0.998256 0.999399 0.114204
0.011679 0.011629 0.122918
0.054326 0.013185 0.119253
0.113564 0.015379 0.116199
0.184602 0.018034 0.113615
0.264757 0.021050 0.111426
0.351370 0.024331 0.109555
0.441812 0.027776 0.107920
0.533496 0.031288 0.106441
0.623885 0.034767 0.105034
0.710492 0.038117 0.103614
0.790880 0.041238 0.102095
0.862656 0.044032 0.100388
0.923465 0.046401 0.098404
0.970973 0.048246 0.096052
0.981432 0.048608 0.092480
0.981414 0.048550 0.088614
0.981396 0.048493 0.084826
0.014542 0.052662 0.115567
0.049358 0.049917 0.111582
0.106297 0.048090 0.108393
0.175436 0.046826 0.105695
0.254099 0.046034 0.103410
0.339630 0.045620 0.101460
0.429398 0.045491 0.099766
0.520816 0.045552 0.098245
0.611341 0.045707 0.096812
0.698479 0.045857 0.095384
0.779783 0.045905 0.093872
0.852853 0.045752 0.092189
0.915342 0.045961 0.090286
0.964936 0.047891 0.088169
0.981397 0.048495 0.084964
0.981379 0.048440 0.081251
0.981362 0.048386 0.077618
0.018557 0.109086 0.109458
0.046074 0.105069 0.105341
0.100811 0.102099 0.102193
0.168111 0.099672 0.099550
0.245302 0.097700 0.097336
0.329729 0.096099 0.095471
0.418766 0.094778 0.093874
0.509825 0.093647 0.092463
0.600361 0.092616 0.091153
0.687881 0.091590 0.089858
0.769940 0.090475 0.088490
0.844135 0.089175 0.086961
0.908104 0.087593 0.085180
0.959508 0.085630 0.083056
0.982153 0.082646 0.079996
0.982051 0.078861 0.076202
0.981951 0.075161 0.072493
0.023402 0.176266 0.104360
0.043976 0.171200 0.100134
0.096448 0.167263 0.097038
0.161832 0.163842 0.094463
0.237465 0.160856 0.092333
0.320696 0.158225 0.090565
0.408901 0.155866 0.089080
0.499493 0.153694 0.087793
0.589932 0.151625 0.086618
0.677724 0.149569 0.085471
0.760424 0.147438 0.084262
0.835635 0.145140 0.082901
0.900997 0.142583 0.081300
0.954177 0.139671 0.079365
0.983331 0.135955 0.076656
0.983210 0.131224 0.072968
0.983092 0.126562 0.069365
0.028917 0.251803 0.100167
0.042925 0.245912 0.095852
0.093073 0.241191 0.092821
0.156475 0.236950 0.090327
0.230474 0.233118 0.088292
0.312424 0.229621 0.086635
0.399706 0.226383 0.085273
0.489737 0.223327 0.084122
0.579977 0.220373 0.083097
0.667937 0.217440 0.082110
0.751175 0.214443 0.081072
0.827298 0.211298 0.079895
0.893952 0.207918 0.078486
0.948810 0.204214 0.076754
0.984714 0.199925 0.074427
0.984581 0.194434 0.070861
0.984450 0.188999 0.067381
0.034944 0.333337 0.096764
0.042774 0.326848 0.092383
0.090550 0.321524 0.089427
0.151912 0.316641 0.087026
0.224209 0.312135 0.085098
0.304805 0.307939 0.083562
0.391083 0.303985 0.082336
0.480466 0.300203 0.081334
0.570417 0.296521 0.080470
0.658450 0.292863 0.079656
0.742129 0.289155 0.078803
0.819066 0.285316 0.077822
0.886915 0.281267 0.076619
0.943360 0.276925 0.075104
0.986095 0.272206 0.073182
0.986093 0.266148 0.069758
0.985954 0.260125 0.066415
0.041322 0.418572 0.094031
0.043378 0.411708 0.089606
0.088740 0.405964 0.086737
0.148010 0.400616 0.084438
0.218550 0.395608 0.082628
0.297726 0.390881 0.081226
0.382930 0.386375 0.080146
0.471588 0.382028 0.079305
0.561168 0.377775 0.078613
0.649190 0.373550 0.077985
0.733222 0.369282 0.077329
0.810884 0.364903 0.076556
0.879837 0.360338 0.075572
0.937777 0.355513 0.074286
0.982412 0.350349 0.072604
0.987677 0.344056 0.069531
0.987536 0.337628 0.066340
0.047894 0.505291 0.091843
0.047296 0.498328 0.087489
0.087498 0.492284 0.084624
0.144637 0.486647 0.082438
0.213369 0.481309 0.080757
0.291071 0.476219 0.079498
0.375141 0.471327 0.078577
0.463008 0.466576 0.077906
0.552148 0.461911 0.077399
0.640083 0.457273 0.076967
0.724389 0.452601 0.076520
0.802694 0.447833 0.075966
0.872669 0.442903 0.075214
0.932018 0.437745 0.074170
0.978468 0.432288 0.072740
0.989278 0.425925 0.071406
0.989150 0.419295 0.070933
0.054498 0.591367 0.090068
0.053907 0.584538 0.085890
0.086680 0.578344 0.082957
0.141652 0.572592 0.080895
0.208539 0.567095 0.079353
0.284723 0.561811 0.078248
0.367608 0.556695 0.077494
0.454631 0.551702 0.077005
0.543270 0.546783 0.076693
0.631055 0.541888 0.076468
0.715568 0.536965 0.076240
0.794444 0.531959 0.075918
0.865363 0.526814 0.075408
0.926050 0.521482 0.075877
0.974242 0.515902 0.077247
0.990850 0.509601 0.077407
0.990727 0.502907 0.076924
0.060976 0.674770 0.088572
0.060403 0.668232 0.084581
0.086134 0.662099 0.081601
0.138915 0.656404 0.079671
0.203926 0.650916 0.078278
0.278558 0.645603 0.077337
0.360221 0.640428 0.076761
0.446356 0.635354 0.076464
0.534448 0.630339 0.076357
0.622031 0.625342 0.076350
0.706694 0.620320 0.076353
0.786087 0.615235 0.077434
0.857899 0.610040 0.079709
0.919849 0.604676 0.081616
0.969695 0.599089 0.083063
0.992332 0.592964 0.083461
0.992218 0.586369 0.082979
0.067168 0.753566 0.087213
0.066627 0.747470 0.083424
0.085708 0.741598 0.080416
0.136281 0.736127 0.078628
0.199395 0.730816 0.077393
0.272452 0.725639 0.076625
0.352865 0.720568 0.076237
0.438083 0.715572 0.076142
0.525593 0.710620 0.076250
0.612945 0.705683 0.077537
0.697732 0.700729 0.080312
0.777590 0.695711 0.082914
0.850220 0.690590 0.085251
0.913365 0.685325 0.087232
0.964797 0.679871 0.088766
0.993691 0.674038 0.089427
0.993588 0.667696 0.088957
0.072915 0.825911 0.085849
0.072418 0.820401 0.082272
0.085247 0.814980 0.079257
0.133599 0.809898 0.077622
0.194805 0.804929 0.076554
0.266273 0.800053 0.075969
0.345422 0.795248 0.075778
0.429716 0.790496 0.076866
0.516648 0.785776 0.079736
0.603743 0.781053 0.082627
0.688600 0.776301 0.085449
0.768876 0.771489 0.088110
0.842281 0.766588 0.090519
0.906571 0.761563 0.092583
0.959532 0.756381 0.094214
0.994902 0.750949 0.095159
0.994811 0.745006 0.094713
0.078057 0.890040 0.084331
0.077618 0.885253 0.080980
0.084590 0.880463 0.077980
0.130716 0.875933 0.076505
0.190011 0.871469 0.075614
0.259899 0.867060 0.076097
0.337813 0.862694 0.078657
0.421180 0.858348 0.081434
0.507496 0.854005 0.084335
0.594307 0.849646 0.087271
0.679219 0.845250 0.090149
0.759892 0.840796 0.092878
0.834045 0.836260 0.095368
0.899444 0.831619 0.097526
0.953886 0.826845 0.099262
0.995189 0.821910 0.100484
0.995871 0.816512 0.100104
0.082436 0.944248 0.082510
0.082066 0.940318 0.079397
0.083576 0.936326 0.076433
0.127489 0.932510 0.075909
0.184913 0.928721 0.077754
0.253235 0.924945 0.080011
0.329882 0.921172 0.082587
0.412312 0.917390 0.085392
0.498019 0.913589 0.088335
0.584553 0.909755 0.091324
0.669520 0.905873 0.094268
0.750585 0.901930 0.097075
0.825473 0.897910 0.099655
0.891957 0.893795 0.101916
0.947848 0.889568 0.103767
0.990977 0.885206 0.105117
0.996760 0.880514 0.104986
0.085891 0.986862 0.080232
0.085615 0.983922 0.078053
0.085363 0.980902 0.077827
0.123807 0.977949 0.079036
0.179328 0.974992 0.080883
0.246074 0.972011 0.083153
0.321476 0.969001 0.085755
0.402990 0.965954 0.088598
0.488111 0.962864 0.091592
0.574388 0.959721 0.094643
0.659427 0.956518 0.097662
0.740896 0.953246 0.100558
0.816522 0.949896 0.103238
0.884085 0.946456 0.105611
0.941404 0.942916 0.107587
0.986326 0.939262 0.109074
0.997476 0.935380 0.109215
0.086709 0.997039 0.079038
0.086709 0.997039 0.079038
0.086709 0.997039 0.079038
0.118344 0.997137 0.080218
0.172191 0.997300 0.082233
0.237599 0.997495 0.084691
0.311989 0.997710 0.087500
0.392808 0.997938 0.090569
0.477544 0.998168 0.093808
0.563713 0.997909 0.097086
0.648858 0.995557 0.100190
0.730759 0.993124 0.103183
0.807143 0.990605 0.105972
0.875794 0.987996 0.108468
0.934539 0.985292 0.110578
0.981233 0.982485 0.112212
0.998020 0.979520 0.112649
0.086709 0.997039 0.079038
0.086709 0.997039 0.079038
0.086709 0.997039 0.079038
0.111626 0.997116 0.079968
0.163576 0.997274 0.081910
0.227463 0.997465 0.084309
0.300705 0.997678 0.087073
0.380746 0.997904 0.090110
0.465067 0.998135 0.093330
0.551198 0.998362 0.096640
0.636733 0.998579 0.099949
0.719326 0.998780 0.103167
0.796697 0.998961 0.106202
0.866626 0.999119 0.108962
0.926939 0.999250 0.111356
0.975500 0.999352 0.113293
0.998256 0.999399 0.114204
0.012827 0.012743 0.199957
0.053955 0.014230 0.195334
0.112767 0.016399 0.191296
0.183447 0.019030 0.187687
0.263314 0.022025 0.184439
0.349706 0.025286 0.181482
0.439998 0.028715 0.178744
0.531604 0.032214 0.176150
0.621987 0.035683 0.173624
0.708659 0.039024 0.171086
0.789185 0.042139 0.168457
0.861173 0.044930 0.165654
0.922270 0.047298 0.162593
0.970143 0.049145 0.159187
0.981727 0.049538 0.154663
0.981704 0.049465 0.149820
0.981682 0.049394 0.145038
0.015555 0.052190 0.190734
