app/src/main/assets/luts/era_1950s.cube
TITLE "Generation Camera 1950s"
LUT_3D_SIZE 17
DOMAIN_MIN 0.0 0.0 0.0
DOMAIN_MAX 1.0 1.0 1.0
0.020000 0.020000 0.020000
0.074792 0.020000 0.020000
0.145708 0.020000 0.020000
0.229337 0.020000 0.020000
0.322272 0.020000 0.020000
0.421103 0.020000 0.020000
0.522423 0.020000 0.020000
0.622821 0.020000 0.020000
0.718890 0.020000 0.020000
0.807221 0.020000 0.020000
0.884404 0.020000 0.020000
0.947032 0.020000 0.020000
0.970000 0.020000 0.020000
0.970000 0.020000 0.020000
0.970000 0.020000 0.020000
0.970000 0.020000 0.020000
0.970000 0.020000 0.020000
0.020000 0.062771 0.020000
0.065644 0.058149 0.020000
0.134575 0.053452 0.020000
0.216773 0.048868 0.020000
0.308807 0.044399 0.020000
0.407245 0.040046 0.020000
0.508655 0.035811 0.020000
0.609604 0.031696 0.020000
0.706660 0.027703 0.020000
0.796392 0.023833 0.020000
0.875367 0.020089 0.020000
0.940154 0.020000 0.020000
0.970000 0.020000 0.020000
0.970000 0.020000 0.020000
0.970000 0.020000 0.020000
0.970000 0.020000 0.020000
0.970000 0.020000 0.020000
0.020000 0.116434 0.020000
0.056712 0.111051 0.020000
0.123382 0.105334 0.020000
0.203822 0.099701 0.020000
0.294609 0.094164 0.020000
0.392311 0.088726 0.020000
0.493495 0.083388 0.020000
0.594730 0.078152 0.020000
0.692584 0.073020 0.020000
0.783624 0.067993 0.020000
0.864419 0.063074 0.020000
0.931537 0.058264 0.020000
0.970000 0.053564 0.020000
0.970000 0.048978 0.020000
0.970000 0.046071 0.020000
0.970000 0.045305 0.020000
0.970000 0.045305 0.020000
0.020000 0.179209 0.020000
0.048150 0.173276 0.020000
0.112496 0.166742 0.020000
0.191101 0.160240 0.020000
0.280564 0.153816 0.020000
0.377453 0.147472 0.020000
0.478336 0.141211 0.020000
0.579781 0.135034 0.020000
0.678356 0.128943 0.020000
0.770629 0.122939 0.020000
0.853168 0.117024 0.020000
0.922540 0.111201 0.020000
0.970000 0.105471 0.020000
0.970000 0.099836 0.020000
0.970000 0.096058 0.020000
0.970000 0.095108 0.020000
0.970000 0.095108 0.020000
0.020000 0.249313 0.020000
0.039983 0.243039 0.020000
0.101905 0.235847 0.020000
0.178621 0.228683 0.020000
0.266684 0.221552 0.020000
0.362684 0.214483 0.020000
0.463190 0.207478 0.020000
0.564769 0.200539 0.020000
0.663989 0.193669 0.020000
0.757418 0.186868 0.020000
0.841624 0.180138 0.020000
0.913175 0.173482 0.020000
0.968640 0.166900 0.020000
0.970000 0.160396 0.020000
0.970000 0.155804 0.020000
0.970000 0.154701 0.020000
0.970000 0.154701 0.020000
0.020000 0.324964 0.020000
0.032222 0.318540 0.020000
0.091637 0.310861 0.020000
0.166388 0.303222 0.020000
0.252979 0.295569 0.020000
0.348015 0.287954 0.020000
0.448067 0.280386 0.020000
0.549704 0.272866 0.020000
0.649493 0.265395 0.020000
0.744002 0.257977 0.020000
0.829800 0.250612 0.020000
0.903454 0.243302 0.020000
0.961532 0.236050 0.020000
0.970000 0.228856 0.020000
0.970000 0.223526 0.020000
0.970000 0.222299 0.020000
0.970000 0.222299 0.020000
0.020000 0.404380 0.020000
0.024880 0.397980 0.020000
0.081711 0.389991 0.020000
0.154391 0.382025 0.020000
0.239463 0.374064 0.020000
0.333457 0.366084 0.020000
0.432980 0.358132 0.020000
0.534598 0.350210 0.020000
0.634880 0.342320 0.020000
0.730393 0.334464 0.020000
0.817706 0.326643 0.020000
0.893386 0.318860 0.020000
0.954002 0.311116 0.020000
0.970000 0.303413 0.020000
0.970000 0.297437 0.020000
0.970000 0.296119 0.020000
0.970000 0.296119 0.020000
0.020000 0.485779 0.020000
0.020000 0.479558 0.020000
0.072138 0.471438 0.020000
0.142671 0.463323 0.020000
0.226126 0.455215 0.020000
0.319022 0.447070 0.020000
0.417939 0.438914 0.020000
0.519462 0.430770 0.020000
0.620161 0.422640 0.020000
0.716602 0.414526 0.020000
0.805354 0.406430 0.020000
0.882985 0.398353 0.020000
0.946062 0.390298 0.020000
0.970000 0.382265 0.020000
0.970000 0.375754 0.020000
0.970000 0.374376 0.020000
0.970000 0.374376 0.020000
0.020000 0.567379 0.020000
0.020000 0.561475 0.020000
0.062930 0.553402 0.020000
0.131238 0.545316 0.020000
0.212983 0.537219 0.020000
0.304721 0.529109 0.020000
0.402956 0.520929 0.020000
0.504309 0.512743 0.020000
0.605347 0.504554 0.020000
0.702640 0.496362 0.020000
0.792755 0.488170 0.020000
0.872260 0.479979 0.020000
0.937723 0.471792 0.020000
0.970000 0.463609 0.020000
0.970000 0.456692 0.020000
0.970000 0.455283 0.020000
0.970000 0.455283 0.020000
0.020000 0.647397 0.020000
0.020000 0.641931 0.020000
0.054098 0.634082 0.020000
0.120105 0.626204 0.020000
0.200063 0.618297 0.020000
0.290531 0.610363 0.020000
0.388042 0.602375 0.020000
0.489148 0.594327 0.020000
0.590451 0.586257 0.020000
0.688519 0.578167 0.020000
0.779921 0.570059 0.020000
0.861224 0.561934 0.020000
0.928996 0.553795 0.020000
0.970000 0.545643 0.020000
0.970000 0.538466 0.020000
0.970000 0.537058 0.020000
0.970000 0.537058 0.020000
0.020000 0.724052 0.020000
0.020000 0.719126 0.020000
0.045653 0.711680 0.020000
0.109283 0.704187 0.020000
0.187377 0.696648 0.020000
0.276495 0.689064 0.020000
0.373198 0.681438 0.020000
0.473992 0.673718 0.020000
0.575483 0.665948 0.020000
0.674250 0.658140 0.020000
0.766863 0.650295 0.020000
0.849887 0.642416 0.020000
0.919892 0.634505 0.020000
0.970000 0.626563 0.020000
0.970000 0.619291 0.020000
0.970000 0.617914 0.020000
0.970000 0.617914 0.020000
0.020000 0.795563 0.020000
0.020000 0.791259 0.020000
0.037607 0.784395 0.020000
0.098783 0.777466 0.020000
0.174936 0.770472 0.020000
0.262627 0.763417 0.020000
0.358416 0.756302 0.020000
0.458851 0.749115 0.020000
0.560454 0.741824 0.020000
0.659845 0.734478 0.020000
0.753592 0.727077 0.020000
0.838262 0.719623 0.020000
0.910424 0.712120 0.020000
0.966646 0.704567 0.020000
0.970000 0.697382 0.020000
0.970000 0.696068 0.020000
0.970000 0.696068 0.020000
0.020000 0.860145 0.020000
0.020000 0.856532 0.020000
0.029971 0.850427 0.020000
0.088617 0.844240 0.020000
0.162753 0.837971 0.020000
0.248940 0.831622 0.020000
0.343738 0.825195 0.020000
0.443710 0.818692 0.020000
0.545376 0.812083 0.020000
0.645314 0.805378 0.020000
0.740119 0.798600 0.020000
0.826359 0.791752 0.020000
0.900602 0.784836 0.020000
0.959416 0.777853 0.020000
0.970000 0.770956 0.020000
0.970000 0.769735 0.020000
0.970000 0.769735 0.020000
0.020000 0.916019 0.020000
0.020000 0.913144 0.020000
0.022757 0.907977 0.020000
0.078796 0.902709 0.020000
0.150838 0.897343 0.020000
0.235444 0.891879 0.020000
0.329176 0.886319 0.020000
0.428594 0.880666 0.020000
0.530259 0.874920 0.020000
0.630670 0.869037 0.020000
0.726457 0.863063 0.020000
0.814190 0.857001 0.020000
0.890438 0.850852 0.020000
0.951767 0.844618 0.020000
0.970000 0.838302 0.020000
0.970000 0.837129 0.020000
0.970000 0.837129 0.020000
0.020000 0.961401 0.020000
0.020000 0.959296 0.020000
0.020000 0.955245 0.020000
0.069331 0.951075 0.020000
0.139203 0.946789 0.020000
0.222152 0.942387 0.020000
0.314740 0.937873 0.020000
0.413528 0.933247 0.020000
0.515076 0.928512 0.020000
0.615923 0.923654 0.020000
0.712616 0.918663 0.020000
0.801766 0.913566 0.020000
0.879942 0.908364 0.020000
0.943711 0.903060 0.020000
0.970000 0.897655 0.020000
0.970000 0.896466 0.020000
0.970000 0.896466 0.020000
0.020000 0.970000 0.020000
0.020000 0.970000 0.020000
0.020000 0.970000 0.020000
0.060235 0.970000 0.020000
0.127860 0.970000 0.020000
0.209075 0.970000 0.020000
0.300443 0.970000 0.020000
0.398523 0.970000 0.020000
0.499877 0.970000 0.020000
0.601067 0.967417 0.020000
0.698607 0.963597 0.020000
0.789099 0.959645 0.020000
0.869127 0.955570 0.020000
0.935260 0.951375 0.020000
0.970000 0.947061 0.020000
0.970000 0.945961 0.020000
0.970000 0.945961 0.020000
0.020000 0.970000 0.020000
0.020000 0.970000 0.020000
0.020000 0.970000 0.020000
0.053051 0.970000 0.020000
0.118609 0.970000 0.020000
0.198122 0.970000 0.020000
0.288177 0.970000 0.020000
0.385357 0.970000 0.020000
0.486246 0.970000 0.020000
0.587430 0.970000 0.020000
0.685485 0.970000 0.020000
0.776954 0.970000 0.020000
0.858486 0.970000 0.020000
0.926673 0.970000 0.020000
0.970000 0.970000 0.020000
0.970000 0.970000 0.020000
0.970000 0.970000 0.020000
0.020000 0.020000 0.063214
0.071202 0.020000 0.057881
0.141340 0.020000 0.052544
0.224402 0.020000 0.047354
0.316972 0.020000 0.042314
0.415634 0.020000 0.037425
0.516973 0.020000 0.032692
0.617573 0.020000 0.028116
0.714019 0.020000 0.023700
0.802895 0.020000 0.020000
0.880786 0.020000 0.020000
0.944276 0.020000 0.020000
0.970000 0.020000 0.020000
0.970000 0.020000 0.020000
0.970000 0.020000 0.020000
0.970000 0.020000 0.020000
0.970000 0.020000 0.020000
0.020000 0.061631 0.057868
0.062167 0.057194 0.052956
0.130283 0.052558 0.047881
0.211880 0.048033 0.042948
0.303517 0.043621 0.038160
0.401756 0.039324 0.033518
0.503159 0.035143 0.029026
0.604286 0.031080 0.024686
0.701699 0.027138 0.020500
0.791959 0.023317 0.020000
0.871627 0.020000 0.020000
0.937264 0.020000 0.020000
0.970000 0.020000 0.020000
0.970000 0.020000 0.020000
0.970000 0.020000 0.020000
0.970000 0.020000 0.020000
0.970000 0.020000 0.020000
0.020000 0.115059 0.052660
0.053367 0.109871 0.048029
0.119176 0.104209 0.043092
0.198979 0.098641 0.038299
0.289335 0.093168 0.033653
0.386808 0.087792 0.029156
0.487957 0.082514 0.024811
0.589344 0.077338 0.020621
0.687529 0.072264 0.020000
0.779075 0.067293 0.020000
0.860542 0.062429 0.020000
0.928492 0.057672 0.020000
0.970000 0.053025 0.020000
0.970000 0.048489 0.020000
0.970000 0.045491 0.020000
0.970000 0.044757 0.020000
0.970000 0.044757 0.020000
0.020000 0.177640 0.047591
0.044955 0.171923 0.043235
0.108381 0.165414 0.038438
0.186313 0.158980 0.033788
0.275313 0.152624 0.029287
0.371941 0.146347 0.024937
0.472760 0.140151 0.020742
0.574329 0.134039 0.020000
0.673211 0.128011 0.020000
0.765967 0.122070 0.020000
0.849157 0.116217 0.020000
0.919342 0.110453 0.020000
0.970000 0.104782 0.020000
0.970000 0.099204 0.020000
0.970000 0.095311 0.020000
0.970000 0.094399 0.020000
0.970000 0.094399 0.020000
0.020000 0.247592 0.042664
0.036943 0.241551 0.038577
0.097909 0.234371 0.033923
0.173894 0.227250 0.029417
0.261460 0.220189 0.025063
0.357168 0.213190 0.020864
0.457580 0.206254 0.020000
0.559255 0.199384 0.020000
0.658757 0.192581 0.020000
0.752645 0.185846 0.020000
0.837481 0.179183 0.020000
0.909826 0.172591 0.020000
0.966242 0.166074 0.020000
0.970000 0.159632 0.020000
0.970000 0.154904 0.020000
0.970000 0.153845 0.020000
0.970000 0.153845 0.020000
0.020000 0.323133 0.037883
0.029343 0.316953 0.034058
0.087771 0.309282 0.029548
0.161733 0.301652 0.025189
0.247789 0.294064 0.020985
0.342500 0.286521 0.020000
0.442427 0.279023 0.020000
0.544133 0.271573 0.020000
0.644177 0.264173 0.020000
0.739122 0.256824 0.020000
0.825527 0.249527 0.020000
0.899955 0.242286 0.020000
0.958967 0.235100 0.020000
0.970000 0.227973 0.020000
0.970000 0.222490 0.020000
0.970000 0.221312 0.020000
0.970000 0.221312 0.020000
0.020000 0.402480 0.033248
0.022165 0.396330 0.029679
0.077980 0.388346 0.025316
0.149841 0.380385 0.021107
0.234310 0.372449 0.020000
0.327948 0.364539 0.020000
0.427315 0.356658 0.020000
0.528973 0.348807 0.020000
0.629484 0.340987 0.020000
0.725408 0.333201 0.020000
0.813307 0.325450 0.020000
0.889741 0.317737 0.020000
0.951272 0.310062 0.020000
0.970000 0.302428 0.020000
0.970000 0.296285 0.020000
0.970000 0.295019 0.020000
0.970000 0.295019 0.020000
0.020000 0.483853 0.028763
0.020000 0.477883 0.025442
0.068546 0.469764 0.021229
0.138231 0.461650 0.020000
0.221036 0.453543 0.020000
0.313523 0.445446 0.020000
0.412254 0.437359 0.020000
0.513788 0.429284 0.020000
0.614689 0.421224 0.020000
0.711516 0.413179 0.020000
0.800831 0.405153 0.020000
0.879194 0.397145 0.020000
0.943168 0.389159 0.020000
0.970000 0.381195 0.020000
0.970000 0.374508 0.020000
0.970000 0.373184 0.020000
0.970000 0.373184 0.020000
0.020000 0.565468 0.024431
0.020000 0.559811 0.021351
0.059481 0.551735 0.020000
0.126912 0.543647 0.020000
0.207977 0.535548 0.020000
0.299238 0.527440 0.020000
0.397255 0.519326 0.020000
0.498589 0.511206 0.020000
0.599803 0.503083 0.020000
0.697456 0.494958 0.020000
0.788110 0.486834 0.020000
0.868327 0.478710 0.020000
0.934667 0.470591 0.020000
0.970000 0.462477 0.020000
0.970000 0.455378 0.020000
0.970000 0.454024 0.020000
0.970000 0.454024 0.020000
0.020000 0.645545 0.020252
0.020000 0.640314 0.020000
0.050797 0.632460 0.020000
0.115898 0.624575 0.020000
0.195146 0.616662 0.020000
0.285103 0.608723 0.020000
0.382330 0.600760 0.020000
0.483387 0.592773 0.020000
0.584837 0.584765 0.020000
0.683240 0.576738 0.020000
0.775158 0.568694 0.020000
0.857151 0.560633 0.020000
0.925781 0.552558 0.020000
0.970000 0.544471 0.020000
0.970000 0.537111 0.020000
0.970000 0.535757 0.020000
0.970000 0.535757 0.020000
0.020000 0.722300 0.020000
0.020000 0.717594 0.020000
0.042504 0.710138 0.020000
0.105198 0.702636 0.020000
0.182553 0.695087 0.020000
0.271130 0.687495 0.020000
0.367490 0.679860 0.020000
0.468194 0.672184 0.020000
0.569804 0.664470 0.020000
0.668880 0.656719 0.020000
0.761984 0.648933 0.020000
0.845677 0.641113 0.020000
0.916520 0.633262 0.020000
0.970000 0.625380 0.020000
0.970000 0.617926 0.020000
0.970000 0.616602 0.020000
0.970000 0.616602 0.020000
0.020000 0.793951 0.020000
0.020000 0.789849 0.020000
0.034615 0.782971 0.020000
0.094826 0.776028 0.020000
0.170211 0.769022 0.020000
0.257331 0.761954 0.020000
0.352747 0.754826 0.020000
0.453021 0.747641 0.020000
0.554714 0.740398 0.020000
0.654387 0.733101 0.020000
0.748600 0.725752 0.020000
0.833916 0.718351 0.020000
0.906896 0.710900 0.020000
0.964100 0.703402 0.020000
0.970000 0.696041 0.020000
0.970000 0.694776 0.020000
0.970000 0.694776 0.020000
0.020000 0.858718 0.020000
0.020000 0.855280 0.020000
0.027140 0.849158 0.020000
0.084791 0.842953 0.020000
0.158129 0.836667 0.020000
0.243716 0.830303 0.020000
0.338113 0.823860 0.020000
0.437880 0.817342 0.020000
0.539579 0.810749 0.020000
0.639772 0.804085 0.020000
0.735019 0.797350 0.020000
0.821881 0.790546 0.020000
0.896920 0.783675 0.020000
0.956697 0.776739 0.020000
0.970000 0.769739 0.020000
0.970000 0.768497 0.020000
0.970000 0.768497 0.020000
0.020000 0.914817 0.020000
0.020000 0.912087 0.020000
0.020092 0.906899 0.020000
0.075106 0.901610 0.020000
0.146321 0.896223 0.020000
0.230298 0.890740 0.020000
0.323598 0.885160 0.020000
0.422782 0.879488 0.020000
0.524411 0.873724 0.020000
0.625047 0.867870 0.020000
0.721250 0.861928 0.020000
0.809583 0.855899 0.020000
0.886605 0.849785 0.020000
0.948878 0.843589 0.020000
0.970000 0.837312 0.020000
0.970000 0.835984 0.020000
0.970000 0.835984 0.020000
0.020000 0.960466 0.020000
0.020000 0.958470 0.020000
0.020000 0.954394 0.020000
0.065782 0.950200 0.020000
0.134797 0.945890 0.020000
0.217087 0.941465 0.020000
0.309214 0.936928 0.020000
0.407738 0.932279 0.020000
0.509220 0.927522 0.020000
0.610223 0.922656 0.020000
0.707306 0.917685 0.020000
0.797032 0.912610 0.020000
0.875961 0.907432 0.020000
0.940654 0.902154 0.020000
0.970000 0.896777 0.020000
0.970000 0.895454 0.020000
0.970000 0.895454 0.020000
0.020000 0.970000 0.020000
0.020000 0.970000 0.020000
0.020000 0.970000 0.020000
0.056830 0.970000 0.020000
0.123569 0.970000 0.020000
0.204096 0.970000 0.020000
0.294972 0.970000 0.020000
0.392760 0.970000 0.020000
0.494019 0.970000 0.020000
0.595312 0.966644 0.020000
0.693198 0.962822 0.020000
0.784241 0.958879 0.020000
0.864999 0.954815 0.020000
0.932036 0.950633 0.020000
0.970000 0.946335 0.020000
0.970000 0.945124 0.020000
0.970000 0.945124 0.020000
0.020000 0.970000 0.020000
0.020000 0.970000 0.020000
0.020000 0.970000 0.020000
0.049769 0.970000 0.020000
0.114417 0.970000 0.020000
0.193219 0.970000 0.020000
0.282759 0.970000 0.020000
0.379621 0.970000 0.020000
0.480389 0.970000 0.020000
0.581649 0.970000 0.020000
0.679984 0.970000 0.020000
0.771980 0.970000 0.020000
0.854220 0.970000 0.020000
0.923288 0.970000 0.020000
0.970000 0.970000 0.020000
0.970000 0.970000 0.020000
0.970000 0.970000 0.020000
0.020000 0.020000 0.117505
0.067624 0.020000 0.111219
0.136913 0.020000 0.104695
0.219323 0.020000 0.098294
0.311437 0.020000 0.092019
0.409841 0.020000 0.085874
0.511118 0.020000 0.079859
0.611854 0.020000 0.073979
0.708632 0.020000 0.068235
0.798037 0.020000 0.062630
0.876654 0.020000 0.057168
0.941067 0.020000 0.051850
0.970000 0.020000 0.046680
0.970000 0.020000 0.041659
0.970000 0.020000 0.038305
0.970000 0.020000 0.037094
0.970000 0.020000 0.037094
0.020000 0.060498 0.111026
0.058731 0.056228 0.105200
0.125967 0.051615 0.098946
0.206881 0.047113 0.092812
0.298034 0.042725 0.086801
0.395987 0.038452 0.080913
0.497301 0.034295 0.075153
0.598537 0.030257 0.069523
0.696257 0.026340 0.064024
0.787022 0.022544 0.058660
0.867392 0.020000 0.053432
0.933929 0.020000 0.048344
0.970000 0.020000 0.043398
0.970000 0.020000 0.038596
0.970000 0.020000 0.035287
0.970000 0.020000 0.034196
0.970000 0.020000 0.034196
0.020000 0.113689 0.104663
0.050079 0.108696 0.099129
0.114979 0.103053 0.092992
0.194070 0.097504 0.086976
0.283913 0.092051 0.081085
0.381069 0.086695 0.075321
0.482099 0.081438 0.069687
0.583566 0.076283 0.064184
0.682029 0.071230 0.058816
0.774050 0.066281 0.053584
0.856190 0.061439 0.048492
0.925010 0.056705 0.043542
0.970000 0.052080 0.038735
0.970000 0.047567 0.034076
0.970000 0.044450 0.030735
0.970000 0.043721 0.029680
0.970000 0.043721 0.029680
0.020000 0.176075 0.098417
0.041820 0.170574 0.093171
0.104307 0.164080 0.087152
0.181498 0.157662 0.081257
0.269954 0.151322 0.075489
0.366237 0.145062 0.069851
0.466908 0.138884 0.064344
0.568527 0.132789 0.058972
0.667657 0.126778 0.053737
0.760858 0.120855 0.048640
0.844691 0.115020 0.043686
0.915718 0.109276 0.038875
0.970000 0.103624 0.034211
0.970000 0.098065 0.029696
0.970000 0.094018 0.026335
0.970000 0.093111 0.025315
0.970000 0.093111 0.025315
0.020000 0.245873 0.092291
0.033965 0.240065 0.087327
0.093962 0.232897 0.081429
0.169177 0.225789 0.075658
0.256170 0.218740 0.070015
0.351503 0.211754 0.064505
0.451737 0.204832 0.059129
0.553433 0.197975 0.053889
0.653153 0.191186 0.048789
0.747457 0.184466 0.043830
0.832907 0.177817 0.039015
0.906064 0.171241 0.034346
0.963489 0.164739 0.029827
0.970000 0.158313 0.025459
0.970000 0.153402 0.022088
0.970000 0.152346 0.021105
0.970000 0.152346 0.021105
0.020000 0.321303 0.086288
0.026526 0.315367 0.081601
0.083957 0.307705 0.075826
0.157118 0.300083 0.070180
0.242571 0.292504 0.064665
0.336878 0.284970 0.059285
0.436599 0.277482 0.054042
0.538295 0.270043 0.048937
0.638528 0.262653 0.043974
0.733859 0.255314 0.039155
0.820849 0.248029 0.034482
0.896059 0.240799 0.029958
0.956051 0.233625 0.025586
0.970000 0.226510 0.021367
0.970000 0.220820 0.020000
0.970000 0.219645 0.020000
0.970000 0.219645 0.020000
0.020000 0.400582 0.080410
0.020000 0.394681 0.075994
0.074302 0.386702 0.070344
0.145333 0.378746 0.064826
0.229170 0.370815 0.059442
0.322374 0.362911 0.054194
0.421505 0.355036 0.049085
0.523124 0.347191 0.044118
0.623794 0.339378 0.039295
0.720075 0.331599 0.034618
0.808529 0.323856 0.030089
0.885716 0.316150 0.025712
0.948197 0.308484 0.021489
0.970000 0.300858 0.020000
0.970000 0.294490 0.020000
0.970000 0.293226 0.020000
0.970000 0.293226 0.020000
0.020000 0.481927 0.074658
0.020000 0.476208 0.070509
0.065009 0.468089 0.064987
0.133834 0.459977 0.059599
0.215978 0.451872 0.054347
0.308001 0.443777 0.049234
0.406466 0.435692 0.044263
0.507933 0.427620 0.039435
0.608963 0.419563 0.034753
0.706117 0.411522 0.030221
0.795957 0.403499 0.025839
0.875044 0.395496 0.021612
0.939939 0.387514 0.020000
0.970000 0.379556 0.020000
0.970000 0.372629 0.020000
0.970000 0.371306 0.020000
0.970000 0.371306 0.020000
0.020000 0.563558 0.069037
0.020000 0.558146 0.065148
0.056089 0.550067 0.059756
0.122631 0.541977 0.054500
0.203005 0.533876 0.049383
0.293773 0.525767 0.044407
0.391494 0.517651 0.039575
0.492731 0.509531 0.034889
0.594045 0.501407 0.030352
0.691996 0.493282 0.025966
0.783146 0.485158 0.021734
0.864056 0.477035 0.020000
0.931288 0.468917 0.020000
0.970000 0.460803 0.020000
0.970000 0.453457 0.020000
0.970000 0.452103 0.020000
0.970000 0.452103 0.020000
0.020000 0.643691 0.063548
0.020000 0.638697 0.059913
0.047554 0.630836 0.054653
0.111737 0.622945 0.049532
0.190265 0.615027 0.044552
0.279699 0.607082 0.039716
0.376601 0.599114 0.035025
0.477531 0.591123 0.030484
0.579052 0.583111 0.026094
0.677723 0.575080 0.021857
0.770107 0.567032 0.020000
0.852764 0.558969 0.020000
0.922256 0.550891 0.020000
0.970000 0.542802 0.020000
0.970000 0.535190 0.020000
0.970000 0.533836 0.020000
0.970000 0.533836 0.020000
0.020000 0.720544 0.058194
0.020000 0.716060 0.054806
0.039416 0.708595 0.049681
0.101162 0.701082 0.044697
0.177767 0.693524 0.039856
0.265791 0.685923 0.035162
0.361797 0.678280 0.030616
0.462344 0.670596 0.026221
0.563995 0.662874 0.021979
0.663310 0.655116 0.020000
0.756851 0.647323 0.020000
0.841178 0.639496 0.020000
0.912854 0.631638 0.020000
0.968438 0.623750 0.020000
0.970000 0.616047 0.020000
0.970000 0.614722 0.020000
0.970000 0.614722 0.020000
0.020000 0.792337 0.052977
0.020000 0.788435 0.049830
0.031685 0.781544 0.044842
0.090918 0.774588 0.039997
0.165524 0.767569 0.035298
0.252062 0.760489 0.030748
0.347094 0.753349 0.026348
0.447182 0.746151 0.022102
0.548887 0.738898 0.020000
0.648769 0.731590 0.020000
0.743390 0.724229 0.020000
0.829311 0.716818 0.020000
0.903093 0.709357 0.020000
0.961297 0.701850 0.020000
0.970000 0.694297 0.020000
0.970000 0.692980 0.020000
0.970000 0.692980 0.020000
0.020000 0.857286 0.047899
0.020000 0.854024 0.044987
0.024373 0.847885 0.040138
0.081017 0.841663 0.035434
0.153546 0.835361 0.030880
0.238522 0.828980 0.026476
0.332504 0.822522 0.022225
0.432056 0.815988 0.020000
0.533738 0.809381 0.020000
0.634110 0.802701 0.020000
0.729735 0.795952 0.020000
0.817173 0.789134 0.020000
0.892985 0.782249 0.020000
0.953733 0.775300 0.020000
0.970000 0.768287 0.020000
0.970000 0.766826 0.020000
0.970000 0.766826 0.020000
0.020000 0.913609 0.042964
0.020000 0.911025 0.040278
0.020000 0.905816 0.035571
0.071470 0.900507 0.031012
0.141846 0.895100 0.026603
0.225182 0.889596 0.022348
0.318039 0.883998 0.020000
0.416977 0.878306 0.020000
0.518559 0.872524 0.020000
0.619346 0.866651 0.020000
0.715897 0.860691 0.020000
0.804775 0.854645 0.020000
0.882542 0.848514 0.020000
0.945757 0.842301 0.020000
0.970000 0.836007 0.020000
0.970000 0.834480 0.020000
0.970000 0.834480 0.020000
0.020000 0.959525 0.038173
0.020000 0.957639 0.035708
0.020000 0.953539 0.031144
0.062288 0.949321 0.026731
0.130435 0.944987 0.022472
0.212054 0.940539 0.020000
0.303708 0.935978 0.020000
0.401958 0.931307 0.020000
0.503363 0.926527 0.020000
0.604487 0.921639 0.020000
0.701889 0.916647 0.020000
0.792131 0.911550 0.020000
0.871774 0.906351 0.020000
0.937379 0.901053 0.020000
0.970000 0.895656 0.020000
0.970000 0.894159 0.020000
0.970000 0.894159 0.020000
0.020000 0.970000 0.033530
0.020000 0.970000 0.031277
0.020000 0.970000 0.026859
0.053483 0.970000 0.022595
0.119323 0.970000 0.020000
0.199151 0.970000 0.020000
0.289525 0.970000 0.020000
0.387008 0.970000 0.020000
0.488161 0.969590 0.020000
0.589545 0.965866 0.020000
0.687721 0.962019 0.020000
0.779250 0.958050 0.020000
0.860693 0.953962 0.020000
0.928612 0.949756 0.020000
0.970000 0.945434 0.020000
0.970000 0.944081 0.020000
0.970000 0.944081 0.020000
0.020000 0.970000 0.030703
0.020000 0.970000 0.028517
0.020000 0.970000 0.024086
0.046545 0.970000 0.020000
0.110273 0.970000 0.020000
0.188352 0.970000 0.020000
0.277365 0.970000 0.020000
0.373898 0.970000 0.020000
0.474534 0.970000 0.020000
0.575858 0.970000 0.020000
0.674455 0.970000 0.020000
0.766908 0.970000 0.020000
0.849803 0.970000 0.020000
0.919724 0.970000 0.020000
0.970000 0.970000 0.020000
0.970000 0.970000 0.020000
0.970000 0.970000 0.020000
0.020000 0.020000 0.181040
0.064101 0.020000 0.174055
0.132530 0.020000 0.166552
0.214276 0.020000 0.159149
0.305923 0.020000 0.151849
0.404057 0.020000 0.144654
0.505262 0.020000 0.137567
0.606121 0.020000 0.130590
0.703220 0.020000 0.123727
0.793143 0.020000 0.116979
0.872475 0.020000 0.110350
0.937799 0.020000 0.103842
0.970000 0.020000 0.097458
0.970000 0.020000 0.091200
0.970000 0.020000 0.086821
0.970000 0.020000 0.085292
0.970000 0.020000 0.085292
0.020000 0.059371 0.173632
