app/src/main/assets/luts/era_2026.cube
TITLE "Generation Camera 2026"
LUT_3D_SIZE 5
DOMAIN_MIN 0.0 0.0 0.0
DOMAIN_MAX 1.0 1.0 1.0
0.000000 0.000000 0.000000
0.249674 0.000000 0.000000
0.510830 0.000000 0.000000
0.771493 0.000000 0.000000
1.000000 0.000000 0.000000
0.000000 0.247497 0.000000
0.245236 0.245236 0.000000
0.506296 0.242977 0.000000
0.767068 0.240719 0.000000
1.000000 0.238462 0.000000
0.000000 0.506381 0.000000
0.240802 0.504071 0.000000
0.501761 0.501761 0.000000
0.762640 0.499452 0.000000
1.000000 0.497142 0.000000
0.000000 0.764979 0.000000
0.236371 0.762723 0.000000
0.497227 0.760466 0.000000
0.758209 0.758209 0.000000
1.000000 0.755950 0.000000
0.000000 1.000000 0.000000
0.231944 1.000000 0.000000
0.492692 1.000000 0.000000
0.753773 1.000000 0.000000
1.000000 1.000000 0.000000
0.000000 0.000000 0.251074
0.248812 0.000000 0.248812
0.509950 0.000000 0.246552
0.770634 0.000000 0.244292
1.000000 0.000000 0.242033
0.000000 0.246635 0.246635
0.244375 0.244375 0.244375
0.505415 0.242116 0.242116
0.766209 0.239858 0.239858
1.000000 0.237601 0.237601
0.000000 0.505500 0.242199
0.239941 0.503190 0.239941
0.500881 0.500881 0.237684
0.761780 0.498571 0.235428
1.000000 0.496261 0.233173
0.000000 0.764119 0.237767
0.235511 0.761863 0.235511
0.496346 0.759606 0.233256
0.757348 0.757348 0.231002
1.000000 0.755088 0.228748
0.000000 1.000000 0.233339
0.231084 1.000000 0.231084
0.491812 1.000000 0.228831
0.752912 1.000000 0.226579
1.000000 1.000000 0.224327
0.000000 0.000000 0.513688
0.247950 0.000000 0.511379
0.509069 0.000000 0.509069
0.769775 0.000000 0.506759
1.000000 0.000000 0.504450
0.000000 0.245773 0.509154
0.243514 0.243514 0.506844
0.504535 0.241255 0.504535
0.765349 0.238998 0.502225
1.000000 0.236741 0.499915
0.000000 0.504620 0.504620
0.239081 0.502310 0.502310
0.500000 0.500000 0.500000
0.760919 0.497690 0.497690
1.000000 0.495380 0.495380
0.000000 0.763259 0.500085
0.234651 0.761002 0.497775
0.495465 0.758745 0.495465
0.756486 0.756486 0.493156
1.000000 0.754227 0.490846
0.000000 1.000000 0.495550
0.230225 1.000000 0.493241
0.490931 1.000000 0.490931
0.752050 1.000000 0.488621
1.000000 1.000000 0.486312
0.000000 0.000000 0.775673
0.247088 0.000000 0.773421
0.508188 0.000000 0.771169
0.768916 0.000000 0.768916
1.000000 0.000000 0.766661
0.000000 0.244912 0.771252
0.242652 0.242652 0.768998
0.503654 0.240394 0.766744
0.764489 0.238137 0.764489
1.000000 0.235881 0.762233
0.000000 0.503739 0.766827
0.238220 0.501429 0.764572
0.499119 0.499119 0.762316
0.760059 0.496810 0.760059
1.000000 0.494500 0.757801
0.000000 0.762399 0.762399
0.233791 0.760142 0.760142
0.494585 0.757884 0.757884
0.755625 0.755625 0.755625
1.000000 0.753365 0.753365
0.000000 1.000000 0.757967
0.229366 1.000000 0.755708
0.490050 1.000000 0.753448
0.751188 1.000000 0.751188
1.000000 1.000000 0.748926
0.000000 0.000000 1.000000
0.246227 0.000000 1.000000
0.507308 0.000000 1.000000
0.768056 0.000000 1.000000
1.000000 0.000000 1.000000
0.000000 0.244050 1.000000
0.241791 0.241791 1.000000
0.502773 0.239534 1.000000
0.763629 0.237277 1.000000
1.000000 0.235021 1.000000
0.000000 0.502858 1.000000
0.237360 0.500548 1.000000
0.498239 0.498239 1.000000
0.759198 0.495929 1.000000
1.000000 0.493619 1.000000
0.000000 0.761538 1.000000
0.232932 0.759281 1.000000
0.493704 0.757023 1.000000
0.754764 0.754764 1.000000
1.000000 0.752503 1.000000
0.000000 1.000000 1.000000
0.228507 1.000000 1.000000
0.489170 1.000000 1.000000
0.750326 1.000000 1.000000
1.000000 1.000000 1.000000
