app/src/main/assets/luts/era_1910s.cube
TITLE "Generation Camera 1910s"
LUT_3D_SIZE 9
DOMAIN_MIN 0.0 0.0 0.0
DOMAIN_MAX 1.0 1.0 1.0
0.198777 0.194342 0.185375
0.259988 0.211700 0.200842
0.320533 0.228933 0.216246
0.380413 0.246042 0.231583
0.439628 0.263024 0.246852
0.498177 0.279880 0.262050
0.556060 0.296608 0.277176
0.613278 0.313207 0.292227
0.644304 0.322234 0.300430
0.230161 0.264269 0.216268
0.290636 0.281216 0.231611
0.350445 0.298037 0.246885
0.409589 0.314730 0.262089
0.468067 0.331295 0.277221
0.525880 0.347730 0.292279
0.583027 0.364034 0.307260
0.639509 0.380207 0.322162
0.670132 0.389000 0.330282
0.261055 0.333118 0.246919
0.320794 0.349649 0.262129
0.379867 0.366051 0.277267
0.438275 0.382322 0.292331
0.496017 0.398462 0.307318
0.553093 0.414469 0.322227
0.609505 0.430343 0.337055
0.665250 0.446083 0.351801
0.695471 0.454639 0.359833
0.291460 0.400875 0.277313
0.350463 0.416983 0.292383
0.408800 0.432959 0.307377
0.466471 0.448801 0.322292
0.523477 0.464510 0.337128
0.579818 0.480083 0.351880
0.635493 0.495521 0.366548
0.690502 0.510822 0.381130
0.720320 0.519135 0.389071
0.321376 0.467525 0.307436
0.379642 0.483203 0.322358
0.437243 0.498746 0.337200
0.494178 0.514153 0.351960
0.550448 0.529424 0.366636
0.606053 0.544557 0.381225
0.660991 0.559551 0.395725
0.715265 0.574406 0.410135
0.744680 0.582475 0.417980
0.350802 0.533052 0.337274
0.408332 0.548294 0.352041
0.465197 0.563398 0.366723
0.521396 0.578363 0.381320
0.576930 0.593189 0.395828
0.631798 0.607875 0.410246
0.686001 0.622419 0.424571
0.739538 0.636822 0.438801
0.768550 0.644641 0.446547
0.379739 0.597442 0.366811
0.436533 0.612240 0.381416
0.492662 0.626898 0.395931
0.548125 0.641415 0.410357
0.602922 0.655790 0.424690
0.657054 0.670022 0.438929
0.710521 0.684110 0.453071
0.763322 0.698053 0.467115
0.791931 0.705621 0.474757
0.408186 0.660678 0.396035
0.464244 0.675027 0.410469
0.519637 0.689233 0.424810
0.574364 0.703295 0.439057
0.628425 0.717213 0.453208
0.681821 0.730984 0.467260
0.734551 0.744609 0.481212
0.786616 0.758086 0.495061
0.814823 0.765398 0.502595
0.436145 0.722747 0.424930
0.491466 0.736640 0.439186
0.546123 0.750387 0.453345
0.600113 0.763987 0.467406
0.653439 0.777440 0.481367
0.706098 0.790745 0.495226
0.758093 0.803900 0.508979
0.809421 0.816905 0.522626
0.837225 0.823957 0.530047
0.203970 0.200622 0.225079
0.265050 0.217936 0.240441
0.325464 0.235126 0.255736
0.385213 0.252191 0.270962
0.444296 0.269129 0.286117
0.502714 0.285940 0.301198
0.560467 0.302623 0.316203
0.617553 0.319176 0.331132
0.648508 0.328179 0.339266
0.235270 0.270409 0.255777
0.295614 0.287313 0.271009
0.355292 0.304089 0.286170
0.414305 0.320737 0.301257
0.472652 0.337256 0.316270
0.530334 0.353646 0.331205
0.587350 0.369904 0.346060
0.643701 0.386031 0.360834
0.674253 0.394798 0.368882
0.266082 0.339117 0.286224
0.325689 0.355603 0.301317
0.384631 0.371959 0.316336
0.442908 0.388184 0.331278
0.500519 0.404278 0.346140
0.557465 0.420239 0.360921
0.613745 0.436066 0.375619
0.669359 0.451759 0.390231
0.699508 0.460288 0.398189
0.296403 0.406730 0.316403
0.355275 0.422792 0.331352
0.413481 0.438721 0.346221
0.471021 0.454517 0.361009
0.527896 0.470178 0.375714
0.584106 0.485704 0.390333
0.639649 0.501094 0.404865
0.694528 0.516347 0.419308
0.724274 0.524634 0.427171
0.326236 0.473234 0.346302
0.384371 0.488865 0.361097
0.441841 0.504360 0.375809
0.498645 0.519720 0.390437
0.554784 0.534943 0.404976
0.610257 0.550027 0.419427
0.665065 0.564973 0.433786
0.719207 0.579779 0.448051
0.748551 0.587820 0.455816
0.355579 0.538612 0.375905
0.412978 0.553806 0.390540
0.469711 0.568862 0.405088
0.525780 0.583779 0.419546
0.581182 0.598556 0.433913
0.635919 0.613192 0.448187
0.689991 0.627687 0.462365
0.743397 0.642040 0.476446
0.772338 0.649832 0.484108
0.384432 0.602851 0.405199
0.441095 0.617601 0.419666
0.497093 0.632210 0.434041
0.552425 0.646678 0.448323
0.607091 0.661003 0.462510
0.661092 0.675185 0.476600
0.714428 0.689222 0.490590
0.767098 0.703114 0.504478
0.795635 0.710654 0.512033
0.412796 0.665935 0.434169
0.468723 0.680234 0.448460
0.523985 0.694390 0.462655
0.578581 0.708402 0.476754
0.632511 0.722269 0.490753
0.685776 0.735989 0.504651
0.738375 0.749563 0.518445
0.790309 0.762988 0.532133
0.818444 0.770271 0.539578
0.440671 0.727849 0.462801
0.495862 0.741691 0.476908
0.550387 0.755387 0.490916
0.604247 0.768936 0.504823
0.657441 0.782338 0.518627
0.709970 0.795590 0.532325
0.761833 0.808693 0.545916
0.813031 0.821645 0.559397
0.840763 0.828668 0.566727
0.209149 0.206887 0.264721
0.270098 0.224158 0.279976
0.330381 0.241304 0.295161
0.389999 0.258324 0.310274
0.448951 0.275218 0.325312
0.507238 0.291984 0.340275
0.564859 0.308622 0.355159
0.621815 0.325130 0.369962
0.652698 0.334108 0.378027
0.240366 0.276534 0.295221
0.300579 0.293393 0.310341
0.360126 0.310125 0.325386
0.419008 0.326728 0.340355
0.477224 0.343202 0.355246
0.534774 0.359545 0.370057
0.591660 0.375758 0.384785
0.647879 0.391838 0.399429
0.678359 0.400580 0.407405
0.271094 0.345100 0.325460
0.330570 0.361541 0.340436
0.389381 0.377851 0.355334
0.447527 0.394030 0.370152
0.505007 0.410078 0.384887
0.561822 0.425992 0.399539
0.617971 0.441773 0.414104
0.673454 0.457418 0.428580
0.703531 0.465922 0.436463
0.301332 0.412569 0.355422
0.360073 0.428584 0.370247
0.418148 0.444467 0.384990
0.475557 0.460216 0.399649
0.532301 0.475830 0.414222
0.588379 0.491309 0.428707
0.643792 0.506651 0.443101
0.698540 0.521855 0.457402
0.728214 0.530116 0.465188
0.331081 0.478926 0.385093
0.389086 0.494510 0.399760
0.446424 0.509958 0.414341
0.503098 0.525270 0.428833
0.559105 0.540445 0.443236
0.614448 0.555481 0.457546
0.669124 0.570378 0.471761
0.723136 0.585134 0.485881
0.752407 0.593149 0.493564
0.360341 0.544156 0.414459
0.417609 0.559302 0.428960
0.474212 0.574309 0.443371
0.530149 0.589177 0.457689
0.585421 0.603906 0.471914
0.640027 0.618493 0.486042
0.693967 0.632938 0.500072
0.747242 0.647240 0.514001
0.776111 0.655005 0.521579
0.389111 0.608244 0.443506
0.445643 0.622945 0.457833
0.501510 0.637505 0.472067
0.556711 0.651923 0.486204
0.611246 0.666198 0.500242
0.665116 0.680330 0.514181
0.718321 0.694316 0.528017
0.770860 0.708158 0.541749
0.799326 0.715669 0.549217
0.417392 0.671175 0.472219
0.473188 0.685424 0.486365
0.528318 0.699530 0.500414
0.582783 0.713491 0.514361
0.636583 0.727307 0.528207
0.689716 0.740976 0.541948
0.742185 0.754498 0.555583
0.793987 0.767872 0.569110
0.822051 0.775126 0.576464
0.445184 0.732934 0.500585
0.500243 0.746725 0.514542
0.554638 0.760370 0.528397
0.608366 0.773867 0.542148
0.661429 0.787217 0.555793
0.713827 0.800418 0.569330
0.765559 0.813468 0.582756
0.816626 0.826368 0.596070
0.844286 0.833362 0.603306
0.214313 0.213137 0.304300
0.275131 0.230364 0.319446
0.335283 0.247466 0.334520
0.394770 0.264442 0.349518
0.453592 0.281291 0.364439
0.511747 0.298013 0.379280
0.569238 0.314605 0.394041
0.626062 0.331068 0.408718
0.656873 0.340020 0.416713
0.245447 0.282644 0.334600
0.305529 0.299458 0.349605
0.364945 0.316145 0.364533
0.423696 0.332703 0.379382
0.481781 0.349132 0.394150
0.539201 0.365429 0.408835
0.595955 0.381596 0.423434
0.652043 0.397629 0.437946
0.682452 0.406346 0.445849
0.276092 0.351067 0.364627
0.335437 0.367462 0.379483
0.394117 0.383727 0.394259
0.452132 0.399860 0.408951
0.509481 0.415861 0.423559
0.566164 0.431729 0.438079
0.622182 0.447463 0.452510
0.677535 0.463061 0.466849
0.707540 0.471538 0.474655
0.306247 0.418392 0.394368
0.364857 0.434361 0.409068
0.422800 0.450197 0.423684
0.480079 0.465899 0.438212
0.536692 0.481466 0.452651
0.592639 0.496897 0.466999
0.647921 0.512191 0.481254
0.702537 0.527347 0.495413
0.732140 0.535581 0.503119
0.335913 0.484602 0.423809
0.393786 0.500139 0.438345
0.450994 0.515539 0.452793
0.507536 0.530803 0.467150
0.563413 0.545930 0.481413
0.618624 0.560917 0.495581
0.673170 0.575765 0.509652
0.727050 0.590473 0.523623
0.756250 0.598461 0.531225
0.365089 0.549683 0.452935
0.422226 0.564781 0.467300
0.478698 0.579739 0.481572
0.534504 0.594559 0.495749
0.589645 0.609238 0.509829
0.644120 0.623776 0.523810
0.697929 0.638171 0.537690
0.751073 0.652423 0.551466
0.779870 0.660161 0.558959
0.393776 0.613620 0.481732
0.450177 0.628272 0.495918
0.505913 0.642782 0.510007
0.560983 0.657150 0.523998
0.615387 0.671376 0.537887
0.669126 0.685457 0.551672
0.722199 0.699393 0.565353
0.774607 0.713183 0.578926
0.803002 0.720667 0.586306
0.421974 0.676397 0.510185
0.477639 0.690597 0.524185
0.532638 0.704652 0.538084
0.586972 0.718563 0.551879
0.640640 0.732327 0.565570
0.693643 0.745945 0.579153
0.745980 0.759416 0.592627
0.797652 0.772738 0.605990
0.825643 0.779964 0.613253
0.449682 0.738000 0.538281
0.504611 0.751741 0.552087
0.558874 0.765334 0.565787
0.612472 0.778781 0.579381
0.665404 0.792078 0.592865
0.717670 0.805227 0.606239
0.769271 0.818225 0.619498
0.820207 0.831071 0.632643
0.847796 0.838036 0.639785
0.219464 0.219371 0.343816
0.280151 0.236555 0.358852
0.340172 0.253613 0.373811
0.399528 0.270545 0.388693
0.458218 0.287349 0.403495
0.516243 0.304025 0.418214
0.573602 0.320573 0.432849
0.630296 0.336989 0.447398
0.661035 0.345917 0.455321
0.250515 0.288738 0.373911
0.310465 0.305508 0.388800
0.369750 0.322150 0.403609
0.428370 0.338663 0.418337
0.486324 0.355045 0.432980
0.543613 0.371297 0.447537
0.600236 0.387417 0.462006
0.656193 0.403404 0.476384
0.686530 0.412095 0.484213
0.281076 0.357019 0.403724
0.340290 0.373368 0.418459
0.398839 0.389587 0.433111
0.456723 0.405674 0.447676
0.513941 0.421629 0.462153
0.570493 0.437450 0.476541
0.626380 0.453136 0.490835
0.681602 0.468687 0.505036
0.711535 0.477138 0.512765
0.311148 0.424198 0.433242
0.369626 0.440121 0.447815
0.427439 0.455910 0.462301
0.484586 0.471565 0.476697
0.541068 0.487085 0.491001
0.596884 0.502468 0.505210
0.652035 0.517714 0.519324
0.706520 0.532822 0.533338
0.736051 0.541029 0.540964
0.340730 0.490262 0.462449
0.398473 0.505751 0.476853
0.455549 0.521104 0.491166
0.511960 0.536320 0.505385
0.567706 0.551398 0.519507
0.622786 0.566337 0.533532
0.677201 0.581136 0.547456
0.730950 0.595794 0.561278
0.760078 0.603755 0.568796
0.369824 0.555193 0.491332
0.426830 0.570243 0.505559
0.483170 0.585153 0.519691
0.538845 0.599923 0.533725
0.593855 0.614553 0.547659
0.648199 0.629041 0.561491
0.701877 0.643387 0.575218
0.754890 0.657589 0.588839
0.783615 0.665299 0.596246
0.398427 0.618979 0.519875
0.454697 0.633581 0.533919
0.510302 0.648042 0.547862
0.565240 0.662361 0.561704
0.619514 0.676536 0.575442
0.673122 0.690566 0.589073
0.726064 0.704452 0.602596
0.778341 0.718191 0.616009
0.806663 0.725646 0.623300
0.426542 0.681602 0.548066
0.482075 0.695752 0.561917
0.536944 0.709757 0.575665
0.591146 0.723616 0.589307
0.644684 0.737330 0.602841
0.697555 0.750897 0.616264
0.749761 0.764316 0.629576
0.801302 0.777585 0.642772
0.829222 0.784783 0.649944
0.454167 0.743049 0.575889
0.508964 0.756739 0.589541
0.563096 0.770281 0.603085
0.616563 0.783676 0.616520
0.669364 0.796921 0.629842
0.721499 0.810018 0.643050
0.772969 0.822963 0.656142
0.823774 0.835757 0.669115
0.851291 0.842692 0.676163
0.224601 0.225590 0.383267
0.285156 0.242730 0.398190
0.345046 0.259744 0.413035
0.404271 0.276632 0.427798
0.462830 0.293391 0.442479
0.520724 0.310022 0.457075
0.577952 0.326524 0.471583
0.634515 0.342895 0.486002
0.665182 0.351797 0.493853
0.255568 0.294817 0.413155
0.315388 0.311542 0.427926
0.374542 0.328139 0.442615
0.433030 0.344606 0.457219
0.490853 0.360943 0.471736
0.548011 0.377149 0.486163
0.604503 0.393223 0.500500
0.660329 0.409163 0.514743
0.690594 0.417828 0.522496
0.286046 0.362955 0.442751
0.345129 0.379258 0.457363
0.403547 0.395431 0.471889
0.461300 0.411472 0.486325
0.518387 0.427380 0.500671
0.574808 0.443154 0.514923
0.630564 0.458793 0.529080
0.685654 0.474296 0.543140
0.715516 0.482721 0.550791
0.316035 0.429989 0.472042
0.374382 0.445865 0.486487
0.432064 0.461607 0.500841
0.489080 0.477215 0.515103
0.545431 0.492687 0.529270
0.601116 0.508023 0.543339
0.656136 0.523220 0.557309
0.710490 0.538280 0.571178
0.739949 0.546461 0.578723
0.345534 0.495905 0.501012
0.403145 0.511347 0.515283
0.460091 0.526652 0.529459
0.516371 0.541820 0.543538
0.571985 0.556849 0.557518
0.626934 0.571740 0.571397
0.681218 0.586490 0.585173
0.734836 0.601098 0.598843
0.763893 0.609032 0.606278
0.374544 0.560687 0.529648
0.431419 0.575688 0.543737
0.487628 0.590549 0.557727
0.543172 0.605271 0.571616
0.598051 0.619851 0.585402
0.652263 0.634290 0.599083
0.705811 0.648585 0.612657
0.758693 0.662737 0.626121
0.787347 0.670419 0.633441
0.403064 0.624320 0.557936
0.459203 0.638874 0.571835
0.514676 0.653285 0.585631
0.569484 0.667554 0.599323
0.623626 0.681678 0.612907
0.677103 0.695659 0.626382
0.729915 0.709493 0.639746
0.782060 0.723181 0.652997
0.810311 0.730608 0.660199
0.431095 0.686790 0.585860
0.486498 0.700889 0.599562
0.541235 0.714844 0.613157
0.595307 0.728653 0.626643
0.648713 0.742315 0.640019
0.701454 0.755830 0.653281
0.753529 0.769197 0.666428
0.804938 0.782415 0.679457
0.832786 0.789584 0.686536
0.458637 0.748081 0.613407
0.513303 0.761719 0.626904
0.567304 0.775210 0.640291
0.620640 0.788553 0.653564
0.673310 0.801747 0.666723
0.725314 0.814790 0.679764
0.776653 0.827683 0.692686
0.827327 0.840424 0.705487
0.854772 0.847330 0.712439
0.229723 0.231795 0.422653
0.290148 0.248890 0.437462
0.349907 0.265860 0.452190
0.409000 0.282703 0.466834
0.467429 0.299418 0.481392
0.525191 0.316004 0.495861
0.582288 0.332460 0.510241
0.638720 0.348785 0.524528
0.669316 0.357662 0.532306
0.260607 0.300880 0.452330
0.320296 0.317560 0.466982
0.379319 0.334112 0.481549
0.437676 0.350534 0.496028
0.495368 0.366825 0.510416
0.552395 0.382984 0.524713
0.608756 0.399012 0.538916
0.664451 0.414905 0.553022
0.694644 0.423545 0.560699
0.291002 0.368874 0.481706
0.349954 0.385133 0.496194
0.408241 0.401259 0.510592
0.465862 0.417254 0.524898
0.522818 0.433115 0.539110
0.579109 0.448842 0.553226
0.634733 0.464433 0.567244
0.689693 0.479889 0.581161
0.719483 0.488288 0.588733
0.320907 0.435763 0.510767
0.379123 0.451593 0.525082
0.436674 0.467288 0.539304
0.493559 0.482849 0.553429
0.549779 0.498273 0.567457
0.605333 0.513560 0.581385
0.660222 0.528710 0.595211
0.714445 0.543720 0.608932
0.743833 0.551875 0.616395
0.350323 0.501531 0.539497
0.407803 0.516926 0.553633
0.464618 0.532183 0.567671
0.520767 0.547303 0.581609
0.576250 0.562284 0.595445
0.631068 0.577125 0.609176
0.685221 0.591826 0.622802
0.738708 0.606385 0.636320
0.767693 0.614291 0.643670
0.379250 0.566164 0.567884
0.435994 0.581116 0.581832
0.492072 0.595929 0.595678
0.547485 0.610601 0.609421
0.602232 0.625132 0.623058
0.656314 0.639521 0.636586
0.709731 0.653766 0.650004
0.762482 0.667868 0.663310
0.791064 0.675522 0.670543
0.407687 0.629645 0.595912
0.463695 0.644149 0.609665
0.519037 0.658510 0.623313
0.573714 0.672729 0.636852
0.627725 0.686803 0.650282
0.681071 0.700733 0.663599
0.733751 0.714516 0.676803
0.785766 0.728153 0.689890
0.813945 0.735552 0.697001
0.435635 0.691960 0.623568
0.490906 0.706009 0.637118
0.545512 0.719913 0.650559
0.599453 0.733671 0.663888
0.652728 0.747282 0.677103
0.705338 0.760746 0.690202
0.757282 0.774061 0.703183
0.808560 0.787226 0.716043
0.836337 0.794366 0.723028
0.463093 0.753094 0.650836
0.517628 0.766681 0.664176
0.571498 0.780121 0.677403
0.624703 0.793412 0.690514
0.677242 0.806553 0.703507
0.729115 0.819545 0.716379
0.780323 0.832384 0.729130
0.830866 0.845072 0.741756
0.858239 0.851949 0.748612
0.234831 0.237983 0.461973
0.295125 0.255035 0.476667
0.354753 0.271961 0.491276
0.413716 0.288759 0.505798
0.472013 0.305428 0.520231
0.529644 0.321969 0.534574
0.586610 0.338379 0.548823
0.642911 0.354659 0.562977
0.673435 0.363510 0.570681
0.265632 0.306927 0.491437
0.325190 0.323563 0.505968
0.384082 0.340069 0.520410
0.442308 0.356445 0.534762
0.499869 0.372690 0.549021
0.556764 0.388804 0.563185
0.612994 0.404784 0.577252
0.668559 0.420631 0.591220
0.698680 0.429245 0.598819
0.295944 0.374778 0.520589
0.354765 0.390991 0.534950
0.412921 0.407071 0.549219
0.470411 0.423019 0.563393
0.527236 0.438833 0.577470
0.583395 0.454513 0.591447
0.638889 0.470057 0.605324
0.693717 0.485465 0.619098
0.723436 0.493837 0.626590
0.325766 0.441521 0.549417
0.383851 0.457304 0.563600
0.441270 0.472952 0.577687
0.498025 0.488465 0.591675
0.554113 0.503842 0.605563
0.609536 0.519081 0.619347
0.664294 0.534182 0.633026
0.718386 0.549144 0.646598
0.747702 0.557272 0.653978
0.355098 0.507141 0.577905
0.412447 0.522488 0.591903
0.469131 0.537697 0.605801
0.525149 0.552769 0.619596
0.580501 0.567701 0.633286
0.635188 0.582494 0.646869
0.689210 0.597145 0.660343
0.742566 0.611655 0.673706
0.771479 0.619533 0.680970
0.383942 0.571623 0.606038
0.440554 0.586527 0.619844
0.496502 0.601291 0.633545
0.551784 0.615914 0.647139
0.606400 0.630396 0.660625
0.660351 0.644735 0.673999
0.713636 0.658930 0.687260
0.766256 0.672981 0.700406
0.794766 0.680607 0.707550
0.412295 0.634952 0.633804
0.468172 0.649407 0.647409
0.523383 0.663719 0.660906
0.577929 0.677887 0.674292
0.631809 0.691911 0.687565
0.685024 0.705790 0.700723
0.737573 0.719522 0.713764
0.789457 0.733107 0.726686
0.817564 0.740478 0.733705
0.440160 0.697113 0.661187
0.495301 0.711111 0.674585
0.549776 0.724964 0.687869
0.603585 0.738671 0.701039
0.656729 0.752231 0.714092
0.709208 0.765643 0.727027
0.761021 0.778906 0.739839
0.812168 0.792019 0.752529
0.839873 0.799130 0.759420
0.467535 0.758090 0.688174
0.521939 0.771626 0.701356
0.575678 0.785014 0.714421
0.628752 0.798253 0.727367
0.681160 0.811342 0.740193
0.732902 0.824281 0.752895
0.783979 0.837067 0.765473
0.834390 0.849702 0.777923
0.861692 0.856550 0.784681
0.239926 0.244157 0.501226
0.300088 0.261164 0.515802
0.359585 0.278045 0.530291
0.418417 0.294799 0.544690
0.476583 0.311423 0.558997
0.534083 0.327918 0.573210
0.590918 0.344283 0.587328
0.647088 0.360516 0.601347
0.677540 0.369342 0.608975
0.270643 0.312959 0.530473
0.330070 0.329549 0.544881
0.388830 0.346010 0.559198
0.446926 0.362341 0.573421
0.504356 0.378540 0.587549
0.561120 0.394607 0.601578
0.617219 0.410541 0.615508
0.672652 0.426341 0.629335
0.702702 0.434929 0.636857
0.300871 0.380666 0.559399
0.359562 0.396833 0.573632
0.417586 0.412867 0.587770
0.474946 0.428768 0.601810
0.531639 0.444535 0.615750
0.587668 0.460168 0.629588
0.643030 0.475664 0.643322
0.697727 0.491024 0.656950
0.727374 0.499370 0.664361
0.330610 0.447263 0.587990
0.388564 0.462999 0.602041
0.445853 0.478600 0.615991
0.502476 0.494066 0.629840
0.558433 0.509394 0.643585
0.613726 0.524585 0.657224
0.668352 0.539638 0.670755
0.722313 0.554551 0.684176
0.751557 0.562652 0.691473
0.359859 0.512735 0.616232
0.417077 0.528034 0.630092
0.473630 0.543195 0.643848
0.529517 0.558218 0.657498
0.584738 0.573102 0.671041
0.639294 0.587845 0.684473
0.693185 0.602447 0.697794
0.746410 0.616907 0.711000
0.775251 0.624758 0.718178
0.388619 0.577067 0.644110
0.445101 0.591922 0.657772
0.500918 0.606636 0.671326
0.556068 0.621210 0.684770
0.610554 0.635642 0.698103
0.664373 0.649931 0.711321
0.717528 0.664076 0.724423
0.770017 0.678076 0.737408
0.798455 0.685674 0.744462
0.416890 0.640243 0.671611
0.472636 0.654647 0.685066
0.527716 0.668909 0.698411
0.582131 0.683027 0.711641
0.635880 0.697001 0.724756
0.688963 0.710829 0.737753
0.741382 0.724510 0.750630
0.793134 0.738043 0.763384
0.821170 0.745386 0.770311
0.444671 0.702248 0.698719
0.499681 0.716196 0.711961
0.554025 0.729998 0.725088
0.607703 0.743654 0.738097
0.660716 0.757163 0.750987
0.713064 0.770523 0.763754
0.764746 0.783733 0.776398
0.815762 0.796794 0.788915
0.843395 0.803876 0.795710
0.471963 0.763068 0.725420
0.526236 0.776553 0.738442
0.579844 0.789889 0.751344
0.632787 0.803076 0.764124
0.685064 0.816112 0.776781
0.736675 0.828998 0.789311
0.787621 0.841732 0.801714
0.837901 0.854313 0.813986
0.865131 0.861132 0.820646
