app/src/main/assets/luts/era_1940s.cube
TITLE "Generation Camera 1940s"
LUT_3D_SIZE 5
DOMAIN_MIN 0.0 0.0 0.0
DOMAIN_MAX 1.0 1.0 1.0
0.000000 0.000000 0.000000
0.036670 0.036670 0.036670
0.091987 0.091987 0.091987
0.162661 0.162661 0.162661
0.245400 0.245400 0.245400
0.089878 0.089878 0.089878
0.160093 0.160093 0.160093
0.242482 0.242482 0.242482
0.333757 0.333757 0.333757
0.430626 0.430626 0.430626
0.239575 0.239575 0.239575
0.330606 0.330606 0.330606
0.427341 0.427341 0.427341
0.526490 0.526490 0.526490
0.624760 0.624760 0.624760
0.424060 0.424060 0.424060
0.523181 0.523181 0.523181
0.621534 0.621534 0.621534
0.715828 0.715828 0.715828
0.802774 0.802774 0.802774
0.618302 0.618302 0.618302
0.712785 0.712785 0.712785
0.800029 0.800029 0.800029
0.876742 0.876742 0.876742
0.939635 0.939635 0.939635
0.011073 0.011073 0.011073
0.054962 0.054962 0.054962
0.116292 0.116292 0.116292
0.191772 0.191772 0.191772
0.278110 0.278110 0.278110
0.114002 0.114002 0.114002
0.189062 0.189062 0.189062
0.275092 0.275092 0.275092
0.368800 0.368800 0.368800
0.466895 0.466895 0.466895
0.272083 0.272083 0.272083
0.365587 0.365587 0.365587
0.463590 0.463590 0.463590
0.562798 0.562798 0.562798
0.659923 0.659923 0.659923
0.460285 0.460285 0.460285
0.559507 0.559507 0.559507
0.656754 0.656754 0.656754
0.748736 0.748736 0.748736
0.832162 0.832162 0.832162
0.653579 0.653579 0.653579
0.745789 0.745789 0.745789
0.829554 0.829554 0.829554
0.901582 0.901582 0.901582
0.958583 0.958583 0.958583
0.024932 0.024932 0.024932
0.075599 0.075599 0.075599
0.142499 0.142499 0.142499
0.222342 0.222342 0.222342
0.311838 0.311838 0.311838
0.140042 0.140042 0.140042
0.219507 0.219507 0.219507
0.308734 0.308734 0.308734
0.404433 0.404433 0.404433
0.503312 0.503312 0.503312
0.305637 0.305637 0.305637
0.401173 0.401173 0.401173
0.500000 0.500000 0.500000
0.598827 0.598827 0.598827
0.694362 0.694362 0.694362
0.496688 0.496688 0.496688
0.595567 0.595567 0.595567
0.691266 0.691266 0.691266
0.780493 0.780493 0.780493
0.859958 0.859958 0.859958
0.688162 0.688162 0.688162
0.777658 0.777658 0.777658
0.857501 0.857501 0.857501
0.924401 0.924401 0.924401
0.975068 0.975068 0.975068
0.041417 0.041417 0.041417
0.098418 0.098418 0.098418
0.170446 0.170446 0.170446
0.254211 0.254211 0.254211
0.346421 0.346421 0.346421
0.167838 0.167838 0.167838
0.251264 0.251264 0.251264
0.343246 0.343246 0.343246
0.440493 0.440493 0.440493
0.539715 0.539715 0.539715
0.340077 0.340077 0.340077
0.437202 0.437202 0.437202
0.536410 0.536410 0.536410
0.634413 0.634413 0.634413
0.727917 0.727917 0.727917
0.533105 0.533105 0.533105
0.631200 0.631200 0.631200
0.724908 0.724908 0.724908
0.810937 0.810937 0.810937
0.885998 0.885998 0.885998
0.721890 0.721890 0.721890
0.808228 0.808228 0.808228
0.883708 0.883708 0.883708
0.945038 0.945038 0.945038
0.988927 0.988927 0.988927
0.060365 0.060365 0.060365
0.123258 0.123258 0.123258
0.199971 0.199971 0.199971
0.287215 0.287215 0.287215
0.381698 0.381698 0.381698
0.197226 0.197226 0.197226
0.284172 0.284172 0.284172
0.378466 0.378466 0.378466
0.476819 0.476819 0.476819
0.575940 0.575940 0.575940
0.375240 0.375240 0.375240
0.473510 0.473510 0.473510
0.572659 0.572659 0.572659
0.669394 0.669394 0.669394
0.760425 0.760425 0.760425
0.569374 0.569374 0.569374
0.666243 0.666243 0.666243
0.757518 0.757518 0.757518
0.839907 0.839907 0.839907
0.910122 0.910122 0.910122
0.754600 0.754600 0.754600
0.837339 0.837339 0.837339
0.908012 0.908012 0.908012
0.963330 0.963330 0.963330
1.000000 1.000000 1.000000
