app/src/main/assets/luts/era_1930s.cube
TITLE "Generation Camera 1930s"
LUT_3D_SIZE 17
DOMAIN_MIN 0.0 0.0 0.0
DOMAIN_MAX 1.0 1.0 1.0
0.176498 0.176498 0.176498
0.189075 0.189075 0.189075
0.201608 0.201608 0.201608
0.214100 0.214100 0.214100
0.226553 0.226553 0.226553
0.238971 0.238971 0.238971
0.251355 0.251355 0.251355
0.263706 0.263706 0.263706
0.276028 0.276028 0.276028
0.288320 0.288320 0.288320
0.300585 0.300585 0.300585
0.312824 0.312824 0.312824
0.325037 0.325037 0.325037
0.337226 0.337226 0.337226
0.349393 0.349393 0.349393
0.361536 0.361536 0.361536
0.373659 0.373659 0.373659
0.201147 0.201147 0.201147
0.213641 0.213641 0.213641
0.226096 0.226096 0.226096
0.238515 0.238515 0.238515
0.250900 0.250900 0.250900
0.263252 0.263252 0.263252
0.275575 0.275575 0.275575
0.287868 0.287868 0.287868
0.300134 0.300134 0.300134
0.312374 0.312374 0.312374
0.324588 0.324588 0.324588
0.336778 0.336778 0.336778
0.348945 0.348945 0.348945
0.361090 0.361090 0.361090
0.373213 0.373213 0.373213
0.385316 0.385316 0.385316
0.397398 0.397398 0.397398
0.225638 0.225638 0.225638
0.238058 0.238058 0.238058
0.250445 0.250445 0.250445
0.262799 0.262799 0.262799
0.275122 0.275122 0.275122
0.287417 0.287417 0.287417
0.299683 0.299683 0.299683
0.311924 0.311924 0.311924
0.324139 0.324139 0.324139
0.336330 0.336330 0.336330
0.348498 0.348498 0.348498
0.360644 0.360644 0.360644
0.372768 0.372768 0.372768
0.384871 0.384871 0.384871
0.396954 0.396954 0.396954
0.409018 0.409018 0.409018
0.421064 0.421064 0.421064
0.249989 0.249989 0.249989
0.262345 0.262345 0.262345
0.274669 0.274669 0.274669
0.286965 0.286965 0.286965
0.299233 0.299233 0.299233
0.311474 0.311474 0.311474
0.323690 0.323690 0.323690
0.335882 0.335882 0.335882
0.348051 0.348051 0.348051
0.360197 0.360197 0.360197
0.372322 0.372322 0.372322
0.384426 0.384426 0.384426
0.396510 0.396510 0.396510
0.408575 0.408575 0.408575
0.420621 0.420621 0.420621
0.432649 0.432649 0.432649
0.444659 0.444659 0.444659
0.274216 0.274216 0.274216
0.286513 0.286513 0.286513
0.298782 0.298782 0.298782
0.311024 0.311024 0.311024
0.323241 0.323241 0.323241
0.335434 0.335434 0.335434
0.347604 0.347604 0.347604
0.359751 0.359751 0.359751
0.371876 0.371876 0.371876
0.383981 0.383981 0.383981
0.396066 0.396066 0.396066
0.408131 0.408131 0.408131
0.420178 0.420178 0.420178
0.432206 0.432206 0.432206
0.444217 0.444217 0.444217
0.456211 0.456211 0.456211
0.468188 0.468188 0.468188
0.298331 0.298331 0.298331
0.310574 0.310574 0.310574
0.322792 0.322792 0.322792
0.334986 0.334986 0.334986
0.347156 0.347156 0.347156
0.359304 0.359304 0.359304
0.371431 0.371431 0.371431
0.383536 0.383536 0.383536
0.395622 0.395622 0.395622
0.407688 0.407688 0.407688
0.419735 0.419735 0.419735
0.431764 0.431764 0.431764
0.443776 0.443776 0.443776
0.455770 0.455770 0.455770
0.467748 0.467748 0.467748
0.479710 0.479710 0.479710
0.491656 0.491656 0.491656
0.322343 0.322343 0.322343
0.334538 0.334538 0.334538
0.346709 0.346709 0.346709
0.358858 0.358858 0.358858
0.370985 0.370985 0.370985
0.383091 0.383091 0.383091
0.395177 0.395177 0.395177
0.407244 0.407244 0.407244
0.419292 0.419292 0.419292
0.431322 0.431322 0.431322
0.443334 0.443334 0.443334
0.455329 0.455329 0.455329
0.467308 0.467308 0.467308
0.479270 0.479270 0.479270
0.491217 0.491217 0.491217
0.503148 0.503148 0.503148
0.515064 0.515064 0.515064
0.346262 0.346262 0.346262
0.358411 0.358411 0.358411
0.370539 0.370539 0.370539
0.382646 0.382646 0.382646
0.394733 0.394733 0.394733
0.406801 0.406801 0.406801
0.418849 0.418849 0.418849
0.430880 0.430880 0.430880
0.442893 0.442893 0.442893
0.454888 0.454888 0.454888
0.466867 0.466867 0.466867
0.478830 0.478830 0.478830
0.490777 0.490777 0.490777
0.502709 0.502709 0.502709
0.514626 0.514626 0.514626
0.526529 0.526529 0.526529
0.538417 0.538417 0.538417
0.370093 0.370093 0.370093
0.382201 0.382201 0.382201
0.394289 0.394289 0.394289
0.406357 0.406357 0.406357
0.418406 0.418406 0.418406
0.430437 0.430437 0.430437
0.442451 0.442451 0.442451
0.454447 0.454447 0.454447
0.466427 0.466427 0.466427
0.478390 0.478390 0.478390
0.490338 0.490338 0.490338
0.502271 0.502271 0.502271
0.514188 0.514188 0.514188
0.526091 0.526091 0.526091
0.537980 0.537980 0.537980
0.549855 0.549855 0.549855
0.561717 0.561717 0.561717
0.393844 0.393844 0.393844
0.405913 0.405913 0.405913
0.417963 0.417963 0.417963
0.429995 0.429995 0.429995
0.442009 0.442009 0.442009
0.454006 0.454006 0.454006
0.465986 0.465986 0.465986
0.477950 0.477950 0.477950
0.489899 0.489899 0.489899
0.501832 0.501832 0.501832
0.513750 0.513750 0.513750
0.525653 0.525653 0.525653
0.537543 0.537543 0.537543
0.549418 0.549418 0.549418
0.561280 0.561280 0.561280
0.573129 0.573129 0.573129
0.584965 0.584965 0.584965
0.417520 0.417520 0.417520
0.429553 0.429553 0.429553
0.441568 0.441568 0.441568
0.453565 0.453565 0.453565
0.465546 0.465546 0.465546
0.477511 0.477511 0.477511
0.489460 0.489460 0.489460
0.501393 0.501393 0.501393
0.513312 0.513312 0.513312
0.525216 0.525216 0.525216
0.537106 0.537106 0.537106
0.548982 0.548982 0.548982
0.560844 0.560844 0.560844
0.572694 0.572694 0.572694
0.584530 0.584530 0.584530
0.596354 0.596354 0.596354
0.608166 0.608166 0.608166
0.441126 0.441126 0.441126
0.453124 0.453124 0.453124
0.465105 0.465105 0.465105
0.477071 0.477071 0.477071
0.489020 0.489020 0.489020
0.500954 0.500954 0.500954
0.512873 0.512873 0.512873
0.524778 0.524778 0.524778
0.536669 0.536669 0.536669
0.548545 0.548545 0.548545
0.560408 0.560408 0.560408
0.572258 0.572258 0.572258
0.584095 0.584095 0.584095
0.595919 0.595919 0.595919
0.607731 0.607731 0.607731
0.619531 0.619531 0.619531
0.631319 0.631319 0.631319
0.464665 0.464665 0.464665
0.476631 0.476631 0.476631
0.488581 0.488581 0.488581
0.500516 0.500516 0.500516
0.512435 0.512435 0.512435
0.524340 0.524340 0.524340
0.536231 0.536231 0.536231
0.548108 0.548108 0.548108
0.559972 0.559972 0.559972
0.571822 0.571822 0.571822
0.583660 0.583660 0.583660
0.595484 0.595484 0.595484
0.607297 0.607297 0.607297
0.619097 0.619097 0.619097
0.630886 0.630886 0.630886
0.642663 0.642663 0.642663
0.654428 0.654428 0.654428
0.488141 0.488141 0.488141
0.500077 0.500077 0.500077
0.511997 0.511997 0.511997
0.523903 0.523903 0.523903
0.535794 0.535794 0.535794
0.547672 0.547672 0.547672
0.559536 0.559536 0.559536
0.571386 0.571386 0.571386
0.583224 0.583224 0.583224
0.595050 0.595050 0.595050
0.606862 0.606862 0.606862
0.618663 0.618663 0.618663
0.630452 0.630452 0.630452
0.642230 0.642230 0.642230
0.653996 0.653996 0.653996
0.665750 0.665750 0.665750
0.677494 0.677494 0.677494
0.511559 0.511559 0.511559
0.523465 0.523465 0.523465
0.535357 0.535357 0.535357
0.547235 0.547235 0.547235
0.559099 0.559099 0.559099
0.570951 0.570951 0.570951
0.582789 0.582789 0.582789
0.594615 0.594615 0.594615
0.606428 0.606428 0.606428
0.618229 0.618229 0.618229
0.630019 0.630019 0.630019
0.641797 0.641797 0.641797
0.653563 0.653563 0.653563
0.665318 0.665318 0.665318
0.677063 0.677063 0.677063
0.688796 0.688796 0.688796
0.700519 0.700519 0.700519
0.534920 0.534920 0.534920
0.546798 0.546798 0.546798
0.558663 0.558663 0.558663
0.570515 0.570515 0.570515
0.582354 0.582354 0.582354
0.594180 0.594180 0.594180
0.605994 0.605994 0.605994
0.617795 0.617795 0.617795
0.629585 0.629585 0.629585
0.641363 0.641363 0.641363
0.653130 0.653130 0.653130
0.664886 0.664886 0.664886
0.676631 0.676631 0.676631
0.688365 0.688365 0.688365
0.700088 0.700088 0.700088
0.711801 0.711801 0.711801
0.723505 0.723505 0.723505
0.558227 0.558227 0.558227
0.570079 0.570079 0.570079
0.581918 0.581918 0.581918
0.593745 0.593745 0.593745
0.605559 0.605559 0.605559
0.617361 0.617361 0.617361
0.629152 0.629152 0.629152
0.640930 0.640930 0.640930
0.652698 0.652698 0.652698
0.664454 0.664454 0.664454
0.676199 0.676199 0.676199
0.687933 0.687933 0.687933
0.699657 0.699657 0.699657
0.711371 0.711371 0.711371
0.723074 0.723074 0.723074
0.734768 0.734768 0.734768
0.746451 0.746451 0.746451
0.181299 0.181299 0.181299
0.193858 0.193858 0.193858
0.206375 0.206375 0.206375
0.218852 0.218852 0.218852
0.231292 0.231292 0.231292
0.243696 0.243696 0.243696
0.256068 0.256068 0.256068
0.268408 0.268408 0.268408
0.280718 0.280718 0.280718
0.292999 0.292999 0.292999
0.305254 0.305254 0.305254
0.317483 0.317483 0.317483
0.329687 0.329687 0.329687
0.341868 0.341868 0.341868
0.354025 0.354025 0.354025
0.366161 0.366161 0.366161
0.378275 0.378275 0.378275
0.205915 0.205915 0.205915
0.218394 0.218394 0.218394
0.230835 0.230835 0.230835
0.243241 0.243241 0.243241
0.255613 0.255613 0.255613
0.267954 0.267954 0.267954
0.280265 0.280265 0.280265
0.292548 0.292548 0.292548
0.304804 0.304804 0.304804
0.317034 0.317034 0.317034
0.329239 0.329239 0.329239
0.341420 0.341420 0.341420
0.353578 0.353578 0.353578
0.365715 0.365715 0.365715
0.377830 0.377830 0.377830
0.389925 0.389925 0.389925
0.402000 0.402000 0.402000
0.230378 0.230378 0.230378
0.242785 0.242785 0.242785
0.255158 0.255158 0.255158
0.267501 0.267501 0.267501
0.279813 0.279813 0.279813
0.292097 0.292097 0.292097
0.304353 0.304353 0.304353
0.316584 0.316584 0.316584
0.328790 0.328790 0.328790
0.340972 0.340972 0.340972
0.353131 0.353131 0.353131
0.365269 0.365269 0.365269
0.377385 0.377385 0.377385
0.389480 0.389480 0.389480
0.401556 0.401556 0.401556
0.413613 0.413613 0.413613
0.425651 0.425651 0.425651
0.254704 0.254704 0.254704
0.267047 0.267047 0.267047
0.279360 0.279360 0.279360
0.291645 0.291645 0.291645
0.303903 0.303903 0.303903
0.316135 0.316135 0.316135
0.328341 0.328341 0.328341
0.340524 0.340524 0.340524
0.352684 0.352684 0.352684
0.364823 0.364823 0.364823
0.376939 0.376939 0.376939
0.389036 0.389036 0.389036
0.401112 0.401112 0.401112
0.413170 0.413170 0.413170
0.425209 0.425209 0.425209
0.437230 0.437230 0.437230
0.449233 0.449233 0.449233
0.278908 0.278908 0.278908
0.291194 0.291194 0.291194
0.303452 0.303452 0.303452
0.315685 0.315685 0.315685
0.327893 0.327893 0.327893
0.340077 0.340077 0.340077
0.352238 0.352238 0.352238
0.364376 0.364376 0.364376
0.376494 0.376494 0.376494
0.388591 0.388591 0.388591
0.400668 0.400668 0.400668
0.412727 0.412727 0.412727
0.424766 0.424766 0.424766
0.436788 0.436788 0.436788
0.448792 0.448792 0.448792
0.460780 0.460780 0.460780
0.472751 0.472751 0.472751
0.303002 0.303002 0.303002
0.315236 0.315236 0.315236
0.327444 0.327444 0.327444
0.339629 0.339629 0.339629
0.351791 0.351791 0.351791
0.363930 0.363930 0.363930
0.376049 0.376049 0.376049
0.388146 0.388146 0.388146
0.400224 0.400224 0.400224
0.412283 0.412283 0.412283
0.424324 0.424324 0.424324
0.436346 0.436346 0.436346
0.448351 0.448351 0.448351
0.460339 0.460339 0.460339
0.472311 0.472311 0.472311
0.484266 0.484266 0.484266
0.496206 0.496206 0.496206
0.326995 0.326995 0.326995
0.339181 0.339181 0.339181
0.351344 0.351344 0.351344
0.363484 0.363484 0.363484
0.375603 0.375603 0.375603
0.387702 0.387702 0.387702
0.399780 0.399780 0.399780
0.411840 0.411840 0.411840
0.423881 0.423881 0.423881
0.435904 0.435904 0.435904
0.447910 0.447910 0.447910
0.459898 0.459898 0.459898
0.471870 0.471870 0.471870
0.483827 0.483827 0.483827
0.495767 0.495767 0.495767
0.507693 0.507693 0.507693
0.519604 0.519604 0.519604
0.350896 0.350896 0.350896
0.363038 0.363038 0.363038
0.375158 0.375158 0.375158
0.387257 0.387257 0.387257
0.399336 0.399336 0.399336
0.411397 0.411397 0.411397
0.423438 0.423438 0.423438
0.435462 0.435462 0.435462
0.447468 0.447468 0.447468
0.459457 0.459457 0.459457
0.471430 0.471430 0.471430
0.483387 0.483387 0.483387
0.495328 0.495328 0.495328
0.507255 0.507255 0.507255
0.519166 0.519166 0.519166
0.531063 0.531063 0.531063
0.542946 0.542946 0.542946
0.374712 0.374712 0.374712
0.386812 0.386812 0.386812
0.398892 0.398892 0.398892
0.410953 0.410953 0.410953
0.422996 0.422996 0.422996
0.435020 0.435020 0.435020
0.447027 0.447027 0.447027
0.459017 0.459017 0.459017
0.470990 0.470990 0.470990
0.482947 0.482947 0.482947
0.494889 0.494889 0.494889
0.506816 0.506816 0.506816
0.518728 0.518728 0.518728
0.530626 0.530626 0.530626
0.542509 0.542509 0.542509
0.554379 0.554379 0.554379
0.566236 0.566236 0.566236
0.398448 0.398448 0.398448
0.410510 0.410510 0.410510
0.422553 0.422553 0.422553
0.434578 0.434578 0.434578
0.446585 0.446585 0.446585
0.458576 0.458576 0.458576
0.470550 0.470550 0.470550
0.482508 0.482508 0.482508
0.494450 0.494450 0.494450
0.506378 0.506378 0.506378
0.518290 0.518290 0.518290
0.530188 0.530188 0.530188
0.542072 0.542072 0.542072
0.553943 0.553943 0.553943
0.565800 0.565800 0.565800
0.577644 0.577644 0.577644
0.589475 0.589475 0.589475
0.422110 0.422110 0.422110
0.434136 0.434136 0.434136
0.446144 0.446144 0.446144
0.458135 0.458135 0.458135
0.470110 0.470110 0.470110
0.482068 0.482068 0.482068
0.494011 0.494011 0.494011
0.505939 0.505939 0.505939
0.517852 0.517852 0.517852
0.529751 0.529751 0.529751
0.541635 0.541635 0.541635
0.553506 0.553506 0.553506
0.565364 0.565364 0.565364
0.577208 0.577208 0.577208
0.589040 0.589040 0.589040
0.600859 0.600859 0.600859
0.612666 0.612666 0.612666
0.445702 0.445702 0.445702
0.457694 0.457694 0.457694
0.469669 0.469669 0.469669
0.481629 0.481629 0.481629
0.493572 0.493572 0.493572
0.505500 0.505500 0.505500
0.517414 0.517414 0.517414
0.529313 0.529313 0.529313
0.541198 0.541198 0.541198
0.553070 0.553070 0.553070
0.564928 0.564928 0.564928
0.576773 0.576773 0.576773
0.588605 0.588605 0.588605
0.600424 0.600424 0.600424
0.612232 0.612232 0.612232
0.624027 0.624027 0.624027
0.635811 0.635811 0.635811
0.469229 0.469229 0.469229
0.481189 0.481189 0.481189
0.493133 0.493133 0.493133
0.505062 0.505062 0.505062
0.516976 0.516976 0.516976
0.528876 0.528876 0.528876
0.540761 0.540761 0.540761
0.552633 0.552633 0.552633
0.564492 0.564492 0.564492
0.576337 0.576337 0.576337
0.588170 0.588170 0.588170
0.599990 0.599990 0.599990
0.611797 0.611797 0.611797
0.623593 0.623593 0.623593
0.635377 0.635377 0.635377
0.647150 0.647150 0.647150
0.658911 0.658911 0.658911
0.492694 0.492694 0.492694
0.504623 0.504623 0.504623
0.516538 0.516538 0.516538
0.528438 0.528438 0.528438
0.540324 0.540324 0.540324
0.552197 0.552197 0.552197
0.564056 0.564056 0.564056
0.575901 0.575901 0.575901
0.587734 0.587734 0.587734
0.599555 0.599555 0.599555
0.611363 0.611363 0.611363
0.623159 0.623159 0.623159
0.634944 0.634944 0.634944
0.646717 0.646717 0.646717
0.658479 0.658479 0.658479
0.670229 0.670229 0.670229
0.681969 0.681969 0.681969
0.516100 0.516100 0.516100
0.528001 0.528001 0.528001
0.539887 0.539887 0.539887
0.551760 0.551760 0.551760
0.563620 0.563620 0.563620
0.575466 0.575466 0.575466
0.587299 0.587299 0.587299
0.599120 0.599120 0.599120
0.610929 0.610929 0.610929
0.622726 0.622726 0.622726
0.634511 0.634511 0.634511
0.646284 0.646284 0.646284
0.658046 0.658046 0.658046
0.669797 0.669797 0.669797
0.681538 0.681538 0.681538
0.693267 0.693267 0.693267
0.704986 0.704986 0.704986
0.539450 0.539450 0.539450
0.551324 0.551324 0.551324
0.563183 0.563183 0.563183
0.575030 0.575030 0.575030
0.586864 0.586864 0.586864
0.598686 0.598686 0.598686
0.610495 0.610495 0.610495
0.622292 0.622292 0.622292
0.634077 0.634077 0.634077
0.645851 0.645851 0.645851
0.657614 0.657614 0.657614
0.669365 0.669365 0.669365
0.681106 0.681106 0.681106
0.692836 0.692836 0.692836
0.704555 0.704555 0.704555
0.716265 0.716265 0.716265
0.727964 0.727964 0.727964
0.562747 0.562747 0.562747
0.574595 0.574595 0.574595
0.586429 0.586429 0.586429
0.598251 0.598251 0.598251
0.610061 0.610061 0.610061
0.621858 0.621858 0.621858
0.633644 0.633644 0.633644
0.645418 0.645418 0.645418
0.657181 0.657181 0.657181
0.668933 0.668933 0.668933
0.680674 0.680674 0.680674
0.692404 0.692404 0.692404
0.704124 0.704124 0.704124
0.715834 0.715834 0.715834
0.727534 0.727534 0.727534
0.739223 0.739223 0.739223
0.750903 0.750903 0.750903
0.186093 0.186093 0.186093
0.198636 0.198636 0.198636
0.211137 0.211137 0.211137
0.223599 0.223599 0.223599
0.236025 0.236025 0.236025
0.248417 0.248417 0.248417
0.260776 0.260776 0.260776
0.273104 0.273104 0.273104
0.285404 0.285404 0.285404
0.297675 0.297675 0.297675
0.309920 0.309920 0.309920
0.322139 0.322139 0.322139
0.334334 0.334334 0.334334
0.346506 0.346506 0.346506
0.358655 0.358655 0.358655
0.370782 0.370782 0.370782
0.382889 0.382889 0.382889
0.210678 0.210678 0.210678
0.223142 0.223142 0.223142
0.235569 0.235569 0.235569
0.247962 0.247962 0.247962
0.260322 0.260322 0.260322
0.272651 0.272651 0.272651
0.284952 0.284952 0.284952
0.297224 0.297224 0.297224
0.309470 0.309470 0.309470
0.321690 0.321690 0.321690
0.333886 0.333886 0.333886
0.346058 0.346058 0.346058
0.358208 0.358208 0.358208
0.370336 0.370336 0.370336
0.382444 0.382444 0.382444
0.394531 0.394531 0.394531
0.406599 0.406599 0.406599
0.235112 0.235112 0.235112
0.247506 0.247506 0.247506
0.259868 0.259868 0.259868
0.272198 0.272198 0.272198
0.284500 0.284500 0.284500
0.296773 0.296773 0.296773
0.309020 0.309020 0.309020
0.321241 0.321241 0.321241
0.333438 0.333438 0.333438
0.345611 0.345611 0.345611
0.357762 0.357762 0.357762
0.369891 0.369891 0.369891
0.381999 0.381999 0.381999
0.394087 0.394087 0.394087
0.406155 0.406155 0.406155
0.418205 0.418205 0.418205
0.430236 0.430236 0.430236
0.259414 0.259414 0.259414
0.271745 0.271745 0.271745
0.284048 0.284048 0.284048
0.296322 0.296322 0.296322
0.308570 0.308570 0.308570
0.320792 0.320792 0.320792
0.332989 0.332989 0.332989
0.345163 0.345163 0.345163
0.357315 0.357315 0.357315
0.369445 0.369445 0.369445
0.381554 0.381554 0.381554
0.393642 0.393642 0.393642
0.405712 0.405712 0.405712
0.417762 0.417762 0.417762
0.429794 0.429794 0.429794
0.441808 0.441808 0.441808
0.453806 0.453806 0.453806
0.283596 0.283596 0.283596
0.295871 0.295871 0.295871
0.308119 0.308119 0.308119
0.320342 0.320342 0.320342
0.332541 0.332541 0.332541
0.344716 0.344716 0.344716
0.356868 0.356868 0.356868
0.368999 0.368999 0.368999
0.381109 0.381109 0.381109
0.393198 0.393198 0.393198
0.405268 0.405268 0.405268
0.417319 0.417319 0.417319
0.429352 0.429352 0.429352
0.441367 0.441367 0.441367
0.453365 0.453365 0.453365
0.465346 0.465346 0.465346
0.477311 0.477311 0.477311
0.307669 0.307669 0.307669
0.319893 0.319893 0.319893
0.332093 0.332093 0.332093
0.344268 0.344268 0.344268
0.356422 0.356422 0.356422
0.368553 0.368553 0.368553
0.380663 0.380663 0.380663
0.392754 0.392754 0.392754
0.404824 0.404824 0.404824
0.416876 0.416876 0.416876
0.428909 0.428909 0.428909
0.440925 0.440925 0.440925
0.452924 0.452924 0.452924
0.464905 0.464905 0.464905
0.476871 0.476871 0.476871
0.488820 0.488820 0.488820
0.500755 0.500755 0.500755
0.331644 0.331644 0.331644
0.343821 0.343821 0.343821
0.355975 0.355975 0.355975
0.368107 0.368107 0.368107
0.380218 0.380218 0.380218
0.392309 0.392309 0.392309
0.404381 0.404381 0.404381
0.416433 0.416433 0.416433
0.428467 0.428467 0.428467
0.440483 0.440483 0.440483
0.452482 0.452482 0.452482
0.464465 0.464465 0.464465
0.476431 0.476431 0.476431
0.488381 0.488381 0.488381
0.500316 0.500316 0.500316
0.512236 0.512236 0.512236
0.524141 0.524141 0.524141
0.355528 0.355528 0.355528
0.367661 0.367661 0.367661
0.379773 0.379773 0.379773
0.391865 0.391865 0.391865
0.403937 0.403937 0.403937
0.415990 0.415990 0.415990
0.428025 0.428025 0.428025
0.440042 0.440042 0.440042
0.452041 0.452041 0.452041
0.464024 0.464024 0.464024
0.475991 0.475991 0.475991
0.487942 0.487942 0.487942
0.499877 0.499877 0.499877
0.511798 0.511798 0.511798
0.523704 0.523704 0.523704
0.535595 0.535595 0.535595
0.547473 0.547473 0.547473
0.379328 0.379328 0.379328
0.391420 0.391420 0.391420
0.403493 0.403493 0.403493
0.415547 0.415547 0.415547
0.427582 0.427582 0.427582
0.439600 0.439600 0.439600
0.451600 0.451600 0.451600
0.463584 0.463584 0.463584
0.475551 0.475551 0.475551
0.487502 0.487502 0.487502
0.499438 0.499438 0.499438
0.511359 0.511359 0.511359
0.523266 0.523266 0.523266
0.535158 0.535158 0.535158
0.547036 0.547036 0.547036
0.558901 0.558901 0.558901
0.570753 0.570753 0.570753
0.403049 0.403049 0.403049
0.415104 0.415104 0.415104
0.427140 0.427140 0.427140
0.439158 0.439158 0.439158
0.451159 0.451159 0.451159
0.463143 0.463143 0.463143
0.475111 0.475111 0.475111
0.487063 0.487063 0.487063
0.499000 0.499000 0.499000
0.510921 0.510921 0.510921
0.522828 0.522828 0.522828
0.534721 0.534721 0.534721
0.546600 0.546600 0.546600
0.558465 0.558465 0.558465
0.570317 0.570317 0.570317
0.582156 0.582156 0.582156
0.593982 0.593982 0.593982
0.426697 0.426697 0.426697
0.438716 0.438716 0.438716
0.450718 0.450718 0.450718
0.462702 0.462702 0.462702
0.474671 0.474671 0.474671
0.486624 0.486624 0.486624
0.498561 0.498561 0.498561
0.510483 0.510483 0.510483
0.522390 0.522390 0.522390
0.534284 0.534284 0.534284
0.546163 0.546163 0.546163
0.558029 0.558029 0.558029
0.569881 0.569881 0.569881
0.581721 0.581721 0.581721
0.593547 0.593547 0.593547
0.605362 0.605362 0.605362
0.617164 0.617164 0.617164
0.450276 0.450276 0.450276
0.462262 0.462262 0.462262
0.474231 0.474231 0.474231
0.486184 0.486184 0.486184
0.498122 0.498122 0.498122
0.510045 0.510045 0.510045
0.521953 0.521953 0.521953
0.533846 0.533846 0.533846
0.545726 0.545726 0.545726
0.557592 0.557592 0.557592
0.569445 0.569445 0.569445
0.581285 0.581285 0.581285
0.593113 0.593113 0.593113
0.604927 0.604927 0.604927
0.616730 0.616730 0.616730
0.628521 0.628521 0.628521
0.640300 0.640300 0.640300
0.473791 0.473791 0.473791
0.485745 0.485745 0.485745
0.497683 0.497683 0.497683
0.509606 0.509606 0.509606
0.521515 0.521515 0.521515
0.533409 0.533409 0.533409
0.545289 0.545289 0.545289
0.557156 0.557156 0.557156
0.569009 0.569009 0.569009
0.580850 0.580850 0.580850
0.592678 0.592678 0.592678
0.604493 0.604493 0.604493
0.616296 0.616296 0.616296
0.628087 0.628087 0.628087
0.639867 0.639867 0.639867
0.651635 0.651635 0.651635
0.663393 0.663393 0.663393
0.497244 0.497244 0.497244
0.509168 0.509168 0.509168
0.521077 0.521077 0.521077
0.532972 0.532972 0.532972
0.544852 0.544852 0.544852
0.556720 0.556720 0.556720
0.568574 0.568574 0.568574
0.580415 0.580415 0.580415
0.592243 0.592243 0.592243
0.604059 0.604059 0.604059
0.615862 0.615862 0.615862
0.627654 0.627654 0.627654
0.639434 0.639434 0.639434
0.651203 0.651203 0.651203
0.662960 0.662960 0.662960
0.674707 0.674707 0.674707
0.686443 0.686443 0.686443
0.520639 0.520639 0.520639
0.532534 0.532534 0.532534
0.544416 0.544416 0.544416
0.556283 0.556283 0.556283
0.568138 0.568138 0.568138
0.579979 0.579979 0.579979
0.591808 0.591808 0.591808
0.603624 0.603624 0.603624
0.615428 0.615428 0.615428
0.627220 0.627220 0.627220
0.639001 0.639001 0.639001
0.650770 0.650770 0.650770
0.662528 0.662528 0.662528
0.674275 0.674275 0.674275
0.686011 0.686011 0.686011
0.697737 0.697737 0.697737
0.709452 0.709452 0.709452
0.543979 0.543979 0.543979
0.555847 0.555847 0.555847
0.567702 0.567702 0.567702
0.579544 0.579544 0.579544
0.591373 0.591373 0.591373
0.603190 0.603190 0.603190
0.614994 0.614994 0.614994
0.626787 0.626787 0.626787
0.638568 0.638568 0.638568
0.650337 0.650337 0.650337
0.662095 0.662095 0.662095
0.673843 0.673843 0.673843
0.685579 0.685579 0.685579
0.697305 0.697305 0.697305
0.709021 0.709021 0.709021
0.720726 0.720726 0.720726
0.732422 0.732422 0.732422
0.567266 0.567266 0.567266
0.579108 0.579108 0.579108
0.590938 0.590938 0.590938
0.602755 0.602755 0.602755
0.614560 0.614560 0.614560
0.626353 0.626353 0.626353
0.638134 0.638134 0.638134
0.649904 0.649904 0.649904
0.661663 0.661663 0.661663
0.673411 0.673411 0.673411
0.685148 0.685148 0.685148
0.696874 0.696874 0.696874
0.708590 0.708590 0.708590
0.720296 0.720296 0.720296
0.731992 0.731992 0.731992
0.743678 0.743678 0.743678
0.755354 0.755354 0.755354
0.190880 0.190880 0.190880
0.203407 0.203407 0.203407
0.215893 0.215893 0.215893
0.228341 0.228341 0.228341
0.240754 0.240754 0.240754
0.253133 0.253133 0.253133
0.265480 0.265480 0.265480
0.277797 0.277797 0.277797
0.290086 0.290086 0.290086
0.302347 0.302347 0.302347
0.314582 0.314582 0.314582
0.326791 0.326791 0.326791
0.338977 0.338977 0.338977
0.351140 0.351140 0.351140
0.363281 0.363281 0.363281
0.375401 0.375401 0.375401
0.387499 0.387499 0.387499
0.215434 0.215434 0.215434
