app/src/main/assets/luts/era_1910s.cube
TITLE "Generation Camera 1910s"
LUT_3D_SIZE 5
DOMAIN_MIN 0.0 0.0 0.0
DOMAIN_MAX 1.0 1.0 1.0
0.198777 0.194342 0.185375
0.320533 0.228933 0.216246
0.439628 0.263024 0.246852
0.556060 0.296608 0.277176
0.644304 0.322234 0.300430
0.261055 0.333118 0.246919
0.379867 0.366051 0.277267
0.496017 0.398462 0.307318
0.609505 0.430343 0.337055
0.695471 0.454639 0.359833
0.321376 0.467525 0.307436
0.437243 0.498746 0.337200
0.550448 0.529424 0.366636
0.660991 0.559551 0.395725
0.744680 0.582475 0.417980
0.379739 0.597442 0.366811
0.492662 0.626898 0.395931
0.602922 0.655790 0.424690
0.710521 0.684110 0.453071
0.791931 0.705621 0.474757
0.436145 0.722747 0.424930
0.546123 0.750387 0.453345
0.653439 0.777440 0.481367
0.758093 0.803900 0.508979
0.837225 0.823957 0.530047
0.209149 0.206887 0.264721
0.330381 0.241304 0.295161
0.448951 0.275218 0.325312
0.564859 0.308622 0.355159
0.652698 0.334108 0.378027
0.271094 0.345100 0.325460
0.389381 0.377851 0.355334
0.505007 0.410078 0.384887
0.617971 0.441773 0.414104
0.703531 0.465922 0.436463
0.331081 0.478926 0.385093
0.446424 0.509958 0.414341
0.559105 0.540445 0.443236
0.669124 0.570378 0.471761
0.752407 0.593149 0.493564
0.389111 0.608244 0.443506
0.501510 0.637505 0.472067
0.611246 0.666198 0.500242
0.718321 0.694316 0.528017
0.799326 0.715669 0.549217
0.445184 0.732934 0.500585
0.554638 0.760370 0.528397
0.661429 0.787217 0.555793
0.765559 0.813468 0.582756
0.844286 0.833362 0.603306
0.219464 0.219371 0.343816
0.340172 0.253613 0.373811
0.458218 0.287349 0.403495
0.573602 0.320573 0.432849
0.661035 0.345917 0.455321
0.281076 0.357019 0.403724
0.398839 0.389587 0.433111
0.513941 0.421629 0.462153
0.626380 0.453136 0.490835
0.711535 0.477138 0.512765
0.340730 0.490262 0.462449
0.455549 0.521104 0.491166
0.567706 0.551398 0.519507
0.677201 0.581136 0.547456
0.760078 0.603755 0.568796
0.398427 0.618979 0.519875
0.510302 0.648042 0.547862
0.619514 0.676536 0.575442
0.726064 0.704452 0.602596
0.806663 0.725646 0.623300
0.454167 0.743049 0.575889
0.563096 0.770281 0.603085
0.669364 0.796921 0.629842
0.772969 0.822963 0.656142
0.851291 0.842692 0.676163
0.229723 0.231795 0.422653
0.349907 0.265860 0.452190
0.467429 0.299418 0.481392
0.582288 0.332460 0.510241
0.669316 0.357662 0.532306
0.291002 0.368874 0.481706
0.408241 0.401259 0.510592
0.522818 0.433115 0.539110
0.634733 0.464433 0.567244
0.719483 0.488288 0.588733
0.350323 0.501531 0.539497
0.464618 0.532183 0.567671
0.576250 0.562284 0.595445
0.685221 0.591826 0.622802
0.767693 0.614291 0.643670
0.407687 0.629645 0.595912
0.519037 0.658510 0.623313
0.627725 0.686803 0.650282
0.733751 0.714516 0.676803
0.813945 0.735552 0.697001
0.463093 0.753094 0.650836
0.571498 0.780121 0.677403
0.677242 0.806553 0.703507
0.780323 0.832384 0.729130
0.858239 0.851949 0.748612
0.239926 0.244157 0.501226
0.359585 0.278045 0.530291
0.476583 0.311423 0.558997
0.590918 0.344283 0.587328
0.677540 0.369342 0.608975
0.300871 0.380666 0.559399
0.417586 0.412867 0.587770
0.531639 0.444535 0.615750
0.643030 0.475664 0.643322
0.727374 0.499370 0.664361
0.359859 0.512735 0.616232
0.473630 0.543195 0.643848
0.584738 0.573102 0.671041
0.693185 0.602447 0.697794
0.775251 0.624758 0.718178
0.416890 0.640243 0.671611
0.527716 0.668909 0.698411
0.635880 0.697001 0.724756
0.741382 0.724510 0.750630
0.821170 0.745386 0.770311
0.471963 0.763068 0.725420
0.579844 0.789889 0.751344
0.685064 0.816112 0.776781
0.787621 0.841732 0.801714
0.865131 0.861132 0.820646
