app/src/main/assets/luts/era_2000s.cube
TITLE "Generation Camera 2000s"
LUT_3D_SIZE 17
DOMAIN_MIN 0.0 0.0 0.0
DOMAIN_MAX 1.0 1.0 1.0
0.000001 0.000001 0.000001
0.037344 0.000001 0.000001
0.091606 0.000001 0.000001
0.159718 0.000001 0.000001
0.238999 0.000001 0.000001
0.326704 0.000001 0.000001
0.420018 0.000001 0.000001
0.516073 0.000001 0.000001
0.611958 0.000001 0.000001
0.704729 0.000001 0.000001
0.791422 0.000001 0.000001
0.869057 0.000001 0.000001
0.934652 0.000001 0.000001
0.985227 0.000001 0.000001
1.000000 0.000001 0.000001
1.000000 0.000001 0.000001
1.000000 0.000001 0.000001
0.000001 0.035379 0.000001
0.029611 0.031595 0.000001
0.081222 0.027932 0.000001
0.147144 0.024390 0.000001
0.224699 0.020973 0.000001
0.311154 0.017681 0.000001
0.403706 0.014520 0.000001
0.499497 0.011490 0.000001
0.595619 0.008598 0.000001
0.689136 0.005850 0.000001
0.777085 0.003258 0.000001
0.856489 0.000853 0.000001
0.924365 0.000001 0.000001
0.977734 0.000001 0.000001
1.000000 0.000001 0.000001
1.000000 0.000001 0.000001
1.000000 0.000001 0.000001
0.000001 0.086400 0.000001
0.022384 0.081371 0.000001
0.071260 0.076443 0.000001
0.134912 0.071618 0.000001
0.210661 0.066896 0.000001
0.295784 0.062281 0.000001
0.387491 0.057772 0.000001
0.482930 0.053373 0.000001
0.579204 0.049084 0.000001
0.673379 0.044907 0.000001
0.762497 0.040844 0.000001
0.843581 0.036897 0.000001
0.913651 0.033067 0.000001
0.969724 0.029356 0.000001
1.000000 0.025766 0.000001
1.000000 0.022300 0.000001
1.000000 0.018958 0.000001
0.000001 0.150324 0.000001
0.015682 0.144256 0.000001
0.061734 0.138271 0.000001
0.123039 0.132371 0.000001
0.196900 0.126557 0.000001
0.280609 0.120830 0.000001
0.371386 0.115193 0.000001
0.466389 0.109647 0.000001
0.562727 0.104193 0.000001
0.657473 0.098833 0.000001
0.747671 0.093569 0.000001
0.830348 0.088402 0.000001
0.902523 0.083334 0.000001
0.961213 0.078366 0.000001
1.000000 0.073500 0.000001
1.000000 0.068737 0.000001
1.000000 0.064080 0.000001
0.000001 0.224803 0.000001
0.009530 0.217903 0.000001
0.052657 0.211069 0.000001
0.111536 0.204300 0.000001
0.183430 0.197600 0.000001
0.265643 0.190968 0.000001
0.355406 0.184408 0.000001
0.449887 0.177920 0.000001
0.546203 0.171507 0.000001
0.641432 0.165170 0.000001
0.732623 0.158910 0.000001
0.816805 0.152729 0.000001
0.890996 0.146629 0.000001
0.952216 0.140611 0.000001
0.997487 0.134678 0.000001
1.000000 0.128829 0.000001
1.000000 0.123068 0.000001
0.000001 0.307435 0.000001
0.003973 0.299918 0.000001
0.044044 0.292446 0.000001
0.100417 0.285022 0.000001
0.170265 0.277646 0.000001
0.250900 0.270322 0.000001
0.339565 0.263049 0.000001
0.433439 0.255830 0.000001
0.529647 0.248667 0.000001
0.625273 0.241562 0.000001
0.717368 0.234515 0.000001
0.802966 0.227529 0.000001
0.879087 0.220605 0.000001
0.942747 0.213745 0.000001
0.990971 0.206950 0.000001
1.000000 0.200222 0.000001
1.000000 0.193564 0.000001
0.000001 0.395764 0.000001
0.000001 0.387847 0.000001
0.035909 0.379955 0.000001
0.089697 0.372092 0.000001
0.157419 0.364259 0.000001
0.236394 0.356457 0.000001
0.323878 0.348688 0.000001
0.417061 0.340953 0.000001
0.513074 0.333256 0.000001
0.609009 0.325596 0.000001
0.701921 0.317977 0.000001
0.788848 0.310399 0.000001
0.866809 0.302864 0.000001
0.932823 0.295374 0.000001
0.983911 0.287931 0.000001
1.000000 0.280536 0.000001
1.000000 0.273191 0.000001
0.000001 0.487283 0.000001
0.000001 0.479187 0.000001
0.028266 0.471097 0.000001
0.079388 0.463016 0.000001
0.144905 0.454946 0.000001
0.222139 0.446887 0.000001
0.308360 0.438841 0.000001
0.400766 0.430812 0.000001
0.496499 0.422799 0.000001
0.592655 0.414805 0.000001
0.686298 0.406831 0.000001
0.774465 0.398880 0.000001
0.854179 0.390952 0.000001
0.922459 0.383051 0.000001
0.976322 0.375176 0.000001
1.000000 0.367331 0.000001
1.000000 0.359516 0.000001
0.000001 0.579446 0.000001
0.000001 0.571396 0.000001
0.021132 0.563333 0.000001
0.069504 0.555258 0.000001
0.132738 0.547174 0.000001
0.208151 0.539082 0.000001
0.293024 0.530984 0.000001
0.384569 0.522882 0.000001
0.479936 0.514777 0.000001
0.576228 0.506671 0.000001
0.670513 0.498566 0.000001
0.759832 0.490463 0.000001
0.841211 0.482365 0.000001
0.911668 0.474273 0.000001
0.968221 0.466188 0.000001
1.000000 0.458113 0.000001
1.000000 0.450049 0.000001
0.000001 0.669678 0.000001
0.000001 0.661901 0.000001
0.014527 0.654091 0.000001
0.060058 0.646250 0.000001
0.120930 0.638379 0.000001
0.194441 0.630480 0.000001
0.277886 0.622556 0.000001
0.368486 0.614607 0.000001
0.463401 0.606635 0.000001
0.559741 0.598642 0.000001
0.654581 0.590631 0.000001
0.744965 0.582602 0.000001
0.827921 0.574558 0.000001
0.900467 0.566500 0.000001
0.959621 0.558430 0.000001
1.000000 0.550349 0.000001
1.000000 0.542260 0.000001
0.000001 0.755384 0.000001
0.000001 0.748109 0.000001
0.008479 0.740781 0.000001
0.051065 0.733401 0.000001
0.109496 0.725971 0.000001
0.181026 0.718494 0.000001
0.262959 0.710970 0.000001
0.352529 0.703402 0.000001
0.446907 0.695792 0.000001
0.543211 0.688140 0.000001
0.638518 0.680450 0.000001
0.729878 0.672722 0.000001
0.814323 0.664959 0.000001
0.888870 0.657161 0.000001
0.950537 0.649332 0.000001
0.996349 0.641473 0.000001
1.000000 0.633585 0.000001
0.000001 0.833954 0.000001
0.000001 0.827410 0.000001
0.003039 0.820793 0.000001
0.042537 0.814104 0.000001
0.098448 0.807345 0.000001
0.167917 0.800518 0.000001
0.248258 0.793624 0.000001
0.336715 0.786667 0.000001
0.430471 0.779646 0.000001
0.526650 0.772565 0.000001
0.622338 0.765424 0.000001
0.714588 0.758226 0.000001
0.800433 0.750972 0.000001
0.876893 0.743664 0.000001
0.940986 0.736304 0.000001
0.989733 0.728894 0.000001
1.000000 0.721435 0.000001
0.000001 0.902772 0.000001
0.000001 0.897188 0.000001
0.000001 0.891512 0.000001
0.034489 0.885743 0.000001
0.087801 0.879885 0.000001
0.155130 0.873938 0.000001
0.233796 0.867905 0.000001
0.321058 0.861787 0.000001
0.414106 0.855586 0.000001
0.510076 0.849304 0.000001
0.606057 0.842942 0.000001
0.699108 0.836503 0.000001
0.786265 0.829989 0.000001
0.864550 0.823400 0.000001
0.930981 0.816738 0.000001
0.982577 0.810007 0.000001
1.000000 0.803206 0.000001
0.000001 0.959220 0.000001
0.000001 0.954827 0.000001
0.000001 0.950320 0.000001
0.026937 0.945702 0.000001
0.077568 0.940973 0.000001
0.142678 0.936136 0.000001
0.219589 0.931193 0.000001
0.305572 0.926144 0.000001
0.397828 0.920993 0.000001
0.493501 0.915740 0.000001
0.589689 0.910388 0.000001
0.683454 0.904938 0.000001
0.771836 0.899392 0.000001
0.851858 0.893752 0.000001
0.920538 0.888019 0.000001
0.974895 0.882195 0.000001
1.000000 0.876283 0.000001
0.000001 1.000000 0.000001
0.000001 0.997715 0.000001
0.000001 0.994608 0.000001
0.019898 0.991368 0.000001
0.067762 0.987998 0.000001
0.130575 0.984500 0.000001
0.205650 0.980875 0.000001
0.290271 0.977126 0.000001
0.381651 0.973253 0.000001
0.476942 0.969259 0.000001
0.573250 0.965145 0.000001
0.667641 0.960913 0.000001
0.757160 0.956565 0.000001
0.838831 0.952103 0.000001
0.909672 0.947528 0.000001
0.966702 0.942843 0.000001
1.000000 0.938048 0.000001
0.000001 1.000000 0.000001
0.000001 1.000000 0.000001
0.000001 1.000000 0.000001
0.013391 1.000000 0.000001
0.058397 1.000000 0.000001
0.118834 1.000000 0.000001
0.191992 1.000000 0.000001
0.275170 1.000000 0.000001
0.365589 1.000000 0.000001
0.460414 1.000000 0.000001
0.556754 1.000000 0.000001
0.651685 1.000000 0.000001
0.742252 0.998899 0.000001
0.825483 0.995844 0.000001
0.898398 0.992656 0.000001
0.958013 0.989337 0.000001
1.000000 0.985889 0.000001
0.000001 1.000000 0.000001
0.000001 1.000000 0.000001
0.000001 1.000000 0.000001
0.007447 1.000000 0.000001
0.049487 1.000000 0.000001
0.107468 1.000000 0.000001
0.178631 1.000000 0.000001
0.260282 1.000000 0.000001
0.349658 1.000000 0.000001
0.443930 1.000000 0.000001
0.540217 1.000000 0.000001
0.635599 1.000000 0.000001
0.727127 1.000000 0.000001
0.811831 1.000000 0.000001
0.886731 1.000000 0.000001
0.948844 1.000000 0.000001
0.995193 1.000000 0.000001
0.000001 0.000001 0.046142
0.035681 0.000001 0.042045
0.089394 0.000001 0.038063
0.157053 0.000001 0.034198
0.235979 0.000001 0.030451
0.323428 0.000001 0.026825
0.416589 0.000001 0.023321
0.512596 0.000001 0.019942
0.608538 0.000001 0.016691
0.701473 0.000001 0.013569
0.788436 0.000001 0.010582
0.866450 0.000001 0.007734
0.932530 0.000001 0.005032
0.983699 0.000001 0.002492
1.000000 0.000001 0.000170
1.000000 0.000001 0.000001
1.000000 0.000001 0.000001
0.000001 0.033742 0.037886
0.028053 0.030009 0.034026
0.079097 0.026398 0.030285
0.144549 0.022909 0.026664
0.221732 0.019545 0.023166
0.307915 0.016309 0.019793
0.400297 0.013204 0.016547
0.496021 0.010233 0.013432
0.592182 0.007401 0.010451
0.685845 0.004718 0.007609
0.774046 0.002199 0.004914
0.853810 0.000001 0.002382
0.922153 0.000001 0.000076
0.976096 0.000001 0.000001
1.000000 0.000001 0.000001
1.000000 0.000001 0.000001
1.000000 0.000001 0.000001
0.000001 0.084231 0.030119
0.020934 0.079245 0.026504
0.069225 0.074361 0.023012
0.132392 0.069580 0.019644
0.207751 0.064903 0.016404
0.292585 0.060334 0.013295
0.384103 0.055872 0.010320
0.479458 0.051519 0.007484
0.575753 0.047278 0.004796
0.670055 0.043150 0.002272
0.759406 0.039137 0.000001
0.840832 0.035240 0.000001
0.911350 0.031460 0.000001
0.967980 0.027801 0.000001
1.000000 0.024264 0.000001
1.000000 0.020851 0.000001
1.000000 0.017564 0.000001
0.000001 0.147712 0.022858
0.014345 0.141679 0.019496
0.059792 0.135730 0.016262
0.120595 0.129866 0.013158
0.194050 0.124090 0.010189
0.277452 0.118401 0.007360
0.368023 0.112803 0.004679
0.462924 0.107296 0.002163
0.559265 0.101882 0.000001
0.654119 0.096563 0.000001
0.744533 0.091341 0.000001
0.827533 0.086216 0.000001
0.900138 0.081190 0.000001
0.959365 0.076266 0.000001
1.000000 0.071444 0.000001
1.000000 0.066727 0.000001
1.000000 0.062115 0.000001
0.000001 0.221835 0.016119
0.008313 0.214964 0.013022
0.050812 0.208157 0.010059
0.109171 0.201418 0.007236
0.180643 0.194747 0.004562
0.262531 0.188146 0.002054
0.352071 0.181616 0.000001
0.446432 0.175160 0.000001
0.542733 0.168780 0.000001
0.638052 0.162475 0.000001
0.729440 0.156249 0.000001
0.813926 0.150103 0.000001
0.888530 0.144038 0.000001
0.950268 0.138056 0.000001
0.996166 0.132159 0.000001
1.000000 0.126347 0.000001
1.000000 0.120624 0.000001
0.000001 0.304205 0.009929
0.002892 0.296707 0.007112
0.042298 0.289256 0.004445
0.098135 0.281852 0.001946
0.167544 0.274498 0.000001
0.247837 0.267196 0.000001
0.336261 0.259946 0.000001
0.429998 0.252751 0.000001
0.526172 0.245612 0.000001
0.621869 0.238532 0.000001
0.714144 0.231511 0.000001
0.800028 0.224551 0.000001
0.876542 0.217654 0.000001
0.940703 0.210822 0.000001
0.989534 0.204056 0.000001
1.000000 0.197358 0.000001
1.000000 0.190729 0.000001
0.000001 0.392365 0.004329
0.000001 0.384459 0.001838
0.034264 0.376579 0.000001
0.087500 0.368728 0.000001
0.154766 0.360908 0.000001
0.233383 0.353120 0.000001
0.320609 0.345366 0.000001
0.413635 0.337647 0.000001
0.509597 0.329966 0.000001
0.605585 0.322323 0.000001
0.698659 0.314721 0.000001
0.785852 0.307162 0.000001
0.864189 0.299646 0.000001
0.930686 0.292176 0.000001
0.982362 0.284753 0.000001
1.000000 0.277380 0.000001
1.000000 0.270057 0.000001
0.000001 0.483809 0.000001
0.000001 0.475716 0.000001
0.026727 0.467630 0.000001
0.077279 0.459553 0.000001
0.142324 0.451487 0.000001
0.219183 0.443434 0.000001
0.305128 0.435395 0.000001
0.397360 0.427372 0.000001
0.493023 0.419367 0.000001
0.589215 0.411382 0.000001
0.683000 0.403418 0.000001
0.771416 0.395476 0.000001
0.851487 0.387560 0.000001
0.920230 0.379670 0.000001
0.974665 0.371807 0.000001
1.000000 0.363975 0.000001
1.000000 0.356174 0.000001
0.000001 0.575994 0.000001
0.000001 0.567939 0.000001
0.019702 0.559870 0.000001
0.067486 0.551792 0.000001
0.130231 0.543704 0.000001
0.205252 0.535609 0.000001
0.289832 0.527509 0.000001
0.381186 0.519405 0.000001
0.476465 0.511300 0.000001
0.572774 0.503194 0.000001
0.667183 0.495090 0.000001
0.756733 0.486989 0.000001
0.838450 0.478893 0.000001
0.909352 0.470804 0.000001
0.966458 0.462723 0.000001
1.000000 0.454653 0.000001
1.000000 0.446594 0.000001
0.000001 0.666346 0.000001
0.000001 0.658555 0.000001
0.013211 0.650732 0.000001
0.058134 0.642877 0.000001
0.118500 0.634994 0.000001
0.191603 0.627084 0.000001
0.274737 0.619149 0.000001
0.365128 0.611190 0.000001
0.459937 0.603209 0.000001
0.556277 0.595208 0.000001
0.651222 0.587189 0.000001
0.741818 0.579154 0.000001
0.825094 0.571103 0.000001
0.898067 0.563040 0.000001
0.957755 0.554965 0.000001
1.000000 0.546881 0.000001
1.000000 0.538788 0.000001
0.000001 0.752270 0.000001
0.000001 0.744972 0.000001
0.007284 0.737621 0.000001
0.049237 0.730220 0.000001
0.107146 0.722770 0.000001
0.178250 0.715272 0.000001
0.259856 0.707729 0.000001
0.349200 0.700143 0.000001
0.443455 0.692515 0.000001
0.539739 0.684846 0.000001
0.635133 0.677140 0.000001
0.726688 0.669396 0.000001
0.811433 0.661618 0.000001
0.886389 0.653807 0.000001
0.948572 0.645965 0.000001
0.995007 0.638093 0.000001
1.000000 0.630193 0.000001
0.000001 0.831156 0.000001
0.000001 0.824581 0.000001
0.001988 0.817932 0.000001
0.040809 0.811213 0.000001
0.096182 0.804425 0.000001
0.165208 0.797569 0.000001
0.245204 0.790648 0.000001
0.333418 0.783663 0.000001
0.427032 0.776616 0.000001
0.523175 0.769509 0.000001
0.618931 0.762343 0.000001
0.711356 0.755121 0.000001
0.797483 0.747844 0.000001
0.874334 0.740514 0.000001
0.938924 0.733132 0.000001
0.988277 0.725701 0.000001
1.000000 0.718221 0.000001
0.000001 0.900388 0.000001
0.000001 0.894765 0.000001
0.000001 0.889049 0.000001
0.032864 0.883241 0.000001
0.085620 0.877345 0.000001
0.152490 0.871360 0.000001
0.230795 0.865291 0.000001
0.317795 0.859137 0.000001
0.410685 0.852901 0.000001
0.506599 0.846585 0.000001
0.602630 0.840190 0.000001
0.695838 0.833718 0.000001
0.783260 0.827171 0.000001
0.861917 0.820551 0.000001
0.928826 0.813860 0.000001
0.981009 0.807098 0.000001
1.000000 0.800269 0.000001
0.000001 0.957349 0.000001
0.000001 0.952908 0.000001
0.000001 0.948353 0.000001
0.025418 0.943687 0.000001
0.075476 0.938912 0.000001
0.140110 0.934029 0.000001
0.216643 0.929040 0.000001
0.302347 0.923947 0.000001
0.394426 0.918752 0.000001
0.490026 0.913457 0.000001
0.586246 0.908062 0.000001
0.680150 0.902571 0.000001
0.768777 0.896984 0.000001
0.849153 0.891304 0.000001
0.918293 0.885532 0.000001
0.973218 0.879670 0.000001
1.000000 0.873720 0.000001
0.000001 0.999430 0.000001
0.000001 0.996399 0.000001
0.000001 0.993234 0.000001
0.018488 0.989938 0.000001
0.065761 0.986513 0.000001
0.128082 0.982961 0.000001
0.202761 0.979282 0.000001
0.287086 0.975479 0.000001
0.378272 0.971554 0.000001
0.473473 0.967509 0.000001
0.569794 0.963344 0.000001
0.664306 0.959062 0.000001
0.754051 0.954665 0.000001
0.836057 0.950155 0.000001
0.907340 0.945532 0.000001
0.964920 0.940800 0.000001
1.000000 0.935959 0.000001
0.000001 1.000000 0.000001
0.000001 1.000000 0.000001
0.000001 1.000000 0.000001
0.012096 1.000000 0.000001
0.056490 1.000000 0.000001
0.116418 1.000000 0.000001
0.189165 1.000000 0.000001
0.272029 1.000000 0.000001
0.362237 1.000000 0.000001
0.456952 1.000000 0.000001
0.553288 1.000000 0.000001
0.648321 1.000000 0.000001
0.739097 0.997605 0.000001
0.822645 0.994492 0.000001
0.895983 0.991248 0.000001
0.956129 0.987874 0.000001
1.000000 0.984371 0.000001
0.000001 1.000000 0.000001
0.000001 1.000000 0.000001
0.000001 1.000000 0.000001
0.006276 1.000000 0.000001
0.047677 1.000000 0.000001
0.105133 1.000000 0.000001
0.175868 1.000000 0.000001
0.257188 1.000000 0.000001
0.346334 1.000000 0.000001
0.440479 1.000000 0.000001
0.536744 1.000000 0.000001
0.632210 1.000000 0.000001
0.723929 1.000000 0.000001
0.808931 1.000000 0.000001
0.884236 1.000000 0.000001
0.946861 1.000000 0.000001
0.993830 1.000000 0.000001
0.000001 0.000001 0.115135
0.034040 0.000001 0.109589
0.087199 0.000001 0.104136
0.154402 0.000001 0.098777
0.232969 0.000001 0.093514
0.320160 0.000001 0.088348
0.413165 0.000001 0.083281
0.509119 0.000001 0.078314
0.605114 0.000001 0.073450
0.698209 0.000001 0.068688
0.785439 0.000001 0.064032
0.863827 0.000001 0.059482
0.930390 0.000001 0.055041
0.982148 0.000001 0.050710
1.000000 0.000001 0.046490
1.000000 0.000001 0.042383
1.000000 0.000001 0.038392
0.000001 0.032126 0.103893
0.026517 0.028445 0.098538
0.076991 0.024886 0.093280
0.141970 0.021451 0.088118
0.218777 0.018141 0.083055
0.304684 0.014961 0.078093
0.396892 0.011913 0.073233
0.492545 0.009001 0.068476
0.588742 0.006232 0.063825
0.682546 0.003616 0.059280
0.770995 0.001180 0.054844
0.851115 0.000001 0.050518
0.919922 0.000001 0.046303
0.974435 0.000001 0.042201
1.000000 0.000001 0.038215
1.000000 0.000001 0.034345
1.000000 0.000001 0.030594
0.000001 0.082080 0.093045
0.019507 0.077137 0.087888
0.067210 0.072297 0.082830
0.129887 0.067561 0.077872
0.204854 0.062930 0.073017
0.289394 0.058406 0.068265
0.380721 0.053991 0.063618
0.475988 0.049687 0.059078
0.572299 0.045494 0.054647
0.666724 0.041415 0.050325
0.756305 0.037451 0.046116
0.838069 0.033604 0.042019
0.909032 0.029876 0.038038
0.966214 0.026269 0.034174
1.000000 0.022785 0.030428
1.000000 0.019426 0.026802
1.000000 0.016194 0.023299
0.000001 0.145114 0.082605
0.013032 0.139117 0.077651
0.057871 0.133204 0.072801
0.118167 0.127378 0.068053
0.191213 0.121639 0.063411
0.274304 0.115989 0.058876
0.364666 0.110429 0.054450
0.459461 0.104962 0.050133
0.555801 0.099589 0.045929
0.650760 0.094311 0.041838
0.741385 0.089130 0.037862
0.824704 0.084048 0.034002
0.897735 0.079066 0.030262
0.957497 0.074185 0.026642
1.000000 0.069408 0.023145
1.000000 0.064736 0.019772
1.000000 0.060170 0.016527
0.000001 0.218880 0.072585
0.007122 0.212036 0.067842
0.048987 0.205258 0.063205
0.106824 0.198548 0.058675
0.177870 0.191907 0.054253
0.259430 0.185336 0.049942
0.348743 0.178838 0.045742
0.442980 0.172414 0.041656
0.539261 0.166066 0.037685
0.634667 0.159795 0.033831
0.726248 0.153603 0.030096
0.811035 0.147491 0.026482
0.886046 0.141462 0.022990
0.948300 0.135516 0.019624
0.994821 0.129655 0.016384
1.000000 0.123882 0.013276
1.000000 0.118196 0.010302
0.000001 0.300984 0.062999
0.001847 0.293505 0.058473
0.040572 0.286074 0.054057
0.095871 0.278692 0.049750
0.164837 0.271360 0.045556
0.244785 0.264079 0.041475
0.332965 0.256853 0.037509
0.426559 0.249682 0.033661
0.522696 0.242568 0.029931
0.618462 0.235513 0.026322
0.710911 0.228518 0.022836
0.797077 0.221585 0.019475
0.873981 0.214716 0.016242
0.938639 0.207912 0.013139
0.988074 0.201174 0.010171
1.000000 0.194506 0.007343
1.000000 0.187907 0.004663
0.000001 0.388970 0.053861
0.000001 0.381075 0.049559
0.032642 0.373208 0.045370
0.085322 0.365370 0.041294
0.152128 0.357564 0.037334
0.230383 0.349790 0.033490
0.317347 0.342051 0.029766
0.410214 0.334348 0.026163
0.506120 0.326683 0.022682
0.602159 0.319057 0.019327
0.695388 0.311473 0.016099
0.782846 0.303932 0.013002
0.861553 0.296436 0.010041
0.928528 0.288986 0.007219
0.980791 0.281584 0.004546
1.000000 0.274232 0.002039
1.000000 0.266932 0.000001
0.000001 0.480337 0.045184
0.000001 0.472247 0.041113
0.025210 0.464164 0.037158
0.075189 0.456092 0.033320
0.139758 0.448031 0.029601
0.216238 0.439984 0.026003
0.301904 0.431952 0.022528
0.393959 0.423937 0.019179
0.489549 0.415940 0.015957
0.585772 0.407963 0.012866
0.679695 0.400009 0.009910
0.768356 0.392078 0.007095
0.848780 0.384172 0.004429
0.917983 0.376294 0.001931
0.972986 0.368444 0.000001
1.000000 0.360625 0.000001
1.000000 0.352838 0.000001
0.000001 0.572541 0.036983
0.000001 0.564479 0.033150
0.018296 0.556406 0.029437
0.065487 0.548324 0.025844
0.127740 0.540233 0.022375
0.202365 0.532136 0.019031
0.286649 0.524034 0.015815
0.377808 0.515929 0.012730
0.472995 0.507823 0.009781
0.569318 0.499718 0.006972
0.663846 0.491614 0.004313
0.753623 0.483516 0.001823
0.835674 0.475422 0.000001
0.907018 0.467337 0.000001
0.964673 0.459260 0.000001
1.000000 0.451195 0.000001
1.000000 0.443142 0.000001
0.000001 0.663009 0.029272
0.000001 0.655203 0.025685
0.011920 0.647366 0.022222
0.056230 0.639500 0.018883
0.116087 0.631605 0.015673
0.188777 0.623684 0.012595
0.271598 0.615738 0.009651
0.361776 0.607769 0.006849
0.456476 0.599780 0.004197
0.552811 0.591771 0.001716
0.647858 0.583744 0.000001
0.738662 0.575702 0.000001
0.822253 0.567646 0.000001
0.895649 0.559577 0.000001
0.955868 0.551498 0.000001
0.999936 0.543410 0.000001
1.000000 0.535315 0.000001
0.000001 0.749146 0.022069
0.000001 0.741825 0.018736
0.006117 0.734453 0.015532
0.047430 0.727030 0.012459
0.104814 0.719559 0.009522
0.175489 0.712042 0.006726
0.256764 0.704481 0.004081
0.345878 0.696876 0.001609
0.440005 0.689230 0.000001
0.536266 0.681545 0.000001
0.631744 0.673823 0.000001
0.723488 0.666064 0.000001
0.808531 0.658272 0.000001
0.883891 0.650447 0.000001
0.946587 0.642592 0.000001
0.993641 0.634708 0.000001
1.000000 0.626797 0.000001
0.000001 0.828345 0.015391
0.000001 0.821738 0.012324
0.000978 0.815059 0.009393
0.039102 0.808310 0.006604
0.093932 0.801492 0.003966
0.162513 0.794608 0.001502
0.242161 0.787660 0.000001
0.330127 0.780648 0.000001
0.423597 0.773575 0.000001
0.519698 0.766442 0.000001
0.615520 0.759252 0.000001
0.708116 0.752006 0.000001
0.794522 0.744706 0.000001
0.871759 0.737354 0.000001
0.936843 0.729950 0.000001
0.986796 0.722498 0.000001
1.000000 0.714999 0.000001
0.000001 0.897988 0.009264
0.000001 0.892324 0.006482
0.000001 0.886569 0.003851
0.031260 0.880723 0.001396
0.083457 0.874788 0.000001
0.149865 0.868767 0.000001
0.227805 0.862661 0.000001
0.314540 0.856472 0.000001
0.407267 0.850202 0.000001
0.503122 0.843851 0.000001
0.599200 0.837423 0.000001
0.692562 0.830919 0.000001
0.780243 0.824341 0.000001
0.859268 0.817690 0.000001
0.926653 0.810968 0.000001
0.979417 0.804177 0.000001
1.000000 0.797319 0.000001
0.000001 0.955458 0.003737
0.000001 0.950968 0.001291
0.000001 0.946365 0.000001
0.023921 0.941652 0.000001
0.073402 0.936830 0.000001
0.137558 0.931902 0.000001
0.213708 0.926868 0.000001
0.299130 0.921731 0.000001
0.391029 0.916493 0.000001
0.486552 0.911155 0.000001
0.582801 0.905719 0.000001
0.676839 0.900186 0.000001
0.765708 0.894559 0.000001
0.846433 0.888839 0.000001
0.916030 0.883029 0.000001
0.971519 0.877129 0.000001
1.000000 0.871142 0.000001
0.000001 0.998146 0.000001
0.000001 0.995057 0.000001
0.000001 0.991836 0.000001
0.017102 0.988485 0.000001
0.063779 0.985005 0.000001
0.125605 0.981398 0.000001
0.199885 0.977666 0.000001
0.283911 0.973811 0.000001
0.374898 0.969834 0.000001
0.470004 0.965737 0.000001
0.566336 0.961522 0.000001
0.660964 0.957190 0.000001
0.750933 0.952744 0.000001
0.833270 0.948185 0.000001
0.904991 0.943516 0.000001
0.963116 0.938736 0.000001
1.000000 0.933850 0.000001
0.000001 1.000000 0.000001
0.000001 1.000000 0.000001
0.000001 1.000000 0.000001
0.010827 1.000000 0.000001
0.054603 1.000000 0.000001
0.114019 1.000000 0.000001
0.186351 1.000000 0.000001
0.268898 1.000000 0.000001
0.358890 1.000000 0.000001
0.453492 1.000000 0.000001
0.549821 1.000000 0.000001
0.644952 0.999323 0.000001
0.735933 0.996286 0.000001
0.819793 0.993117 0.000001
0.893551 0.989816 0.000001
0.954224 0.986387 0.000001
0.998838 0.982829 0.000001
0.000001 1.000000 0.000001
0.000001 1.000000 0.000001
0.000001 1.000000 0.000001
0.005133 1.000000 0.000001
0.045888 1.000000 0.000001
0.102816 1.000000 0.000001
0.173118 1.000000 0.000001
0.254105 1.000000 0.000001
0.343017 1.000000 0.000001
0.437032 1.000000 0.000001
0.533271 1.000000 0.000001
0.628817 1.000000 0.000001
0.720722 1.000000 0.000001
0.806017 1.000000 0.000001
0.881724 1.000000 0.000001
0.944858 1.000000 0.000001
0.992443 1.000000 0.000001
0.000001 0.000001 0.202153
0.032420 0.000001 0.195474
0.085023 0.000001 0.188865
0.151767 0.000001 0.182328
0.229971 0.000001 0.175864
0.316899 0.000001 0.169475
0.409744 0.000001 0.163162
0.505642 0.000001 0.156927
0.601687 0.000001 0.150772
0.694938 0.000001 0.144698
0.782431 0.000001 0.138707
0.861190 0.000001 0.132801
0.928230 0.000001 0.126980
0.980573 0.000001 0.121247
1.000000 0.000001 0.115603
1.000000 0.000001 0.110050
1.000000 0.000001 0.104589
0.000001 0.030532 0.188570
