app/src/main/assets/luts/era_1990s.cube
TITLE "Generation Camera 1990s"
LUT_3D_SIZE 9
DOMAIN_MIN 0.0 0.0 0.0
DOMAIN_MAX 1.0 1.0 1.0
0.055037 0.055037 0.055037
0.155944 0.058924 0.060740
0.261296 0.062820 0.066463
0.369696 0.066725 0.072205
0.479749 0.070639 0.077966
0.590058 0.074562 0.083746
0.699226 0.078493 0.089543
0.805858 0.082433 0.095359
0.908558 0.086382 0.101192
0.064609 0.157895 0.062602
0.166010 0.161987 0.068331
0.271719 0.166087 0.074080
0.380341 0.170193 0.079847
0.490480 0.174306 0.085632
0.600739 0.178425 0.091435
0.709723 0.182551 0.097257
0.816034 0.186683 0.103096
0.918277 0.190821 0.108953
0.074236 0.265339 0.070201
0.176116 0.269580 0.075956
0.282170 0.273826 0.081729
0.391001 0.278075 0.087520
0.501213 0.282330 0.093329
0.611409 0.286588 0.099157
0.720194 0.290851 0.105001
0.826171 0.295118 0.110864
0.927944 0.299389 0.116743
0.083915 0.375894 0.077834
0.186262 0.380226 0.083613
0.292647 0.384560 0.089410
0.401673 0.388896 0.095225
0.511945 0.393234 0.101058
0.622065 0.397575 0.106909
0.730639 0.401918 0.112776
0.836268 0.406262 0.118661
0.937558 0.410609 0.124562
0.093645 0.488082 0.085499
0.196446 0.492447 0.091302
0.303149 0.496812 0.097123
0.412358 0.501178 0.102962
0.522676 0.505543 0.108818
0.632707 0.509909 0.114691
0.741055 0.514274 0.120581
0.846325 0.518639 0.126488
0.947119 0.523003 0.132410
0.103426 0.600426 0.093196
0.206667 0.604767 0.099023
0.313675 0.609107 0.104867
0.423052 0.613444 0.110729
0.533404 0.617779 0.116607
0.643333 0.622112 0.122503
0.751443 0.626442 0.128415
0.856339 0.630770 0.134343
0.956623 0.635095 0.140287
0.113255 0.711450 0.100924
0.216924 0.715710 0.106774
0.324223 0.719967 0.112642
0.433756 0.724218 0.118526
0.544128 0.728466 0.124427
0.653941 0.732709 0.130344
0.761801 0.736947 0.136277
0.866309 0.741180 0.142226
0.963533 0.745409 0.148191
0.123132 0.819676 0.108683
0.227214 0.823799 0.114556
0.334792 0.827914 0.120446
0.444468 0.832024 0.126352
0.554847 0.836126 0.132274
0.664532 0.840222 0.138213
0.772127 0.844311 0.144167
0.876235 0.848393 0.150137
0.963533 0.852467 0.156122
0.133055 0.923629 0.116472
0.237538 0.927556 0.122367
0.345381 0.931474 0.128279
0.455187 0.935383 0.134207
0.565559 0.939283 0.140150
0.675102 0.943175 0.146110
0.782419 0.947057 0.152084
0.886115 0.950930 0.158074
0.963533 0.954794 0.164079
0.056532 0.059296 0.151420
0.157517 0.063193 0.157408
0.262926 0.067099 0.163411
0.371362 0.071014 0.169428
0.481429 0.074937 0.175460
0.591731 0.078870 0.181506
0.700871 0.082810 0.187566
0.807454 0.086760 0.193639
0.910083 0.090718 0.199726
0.066113 0.162379 0.159361
0.167590 0.166479 0.165369
0.273354 0.170586 0.171391
0.382010 0.174699 0.177428
0.492161 0.178819 0.183478
0.602411 0.182946 0.189542
0.711364 0.187078 0.195620
0.817624 0.191217 0.201711
0.919794 0.195363 0.207815
0.075748 0.269986 0.167329
0.177702 0.274232 0.173356
0.283809 0.278482 0.179397
0.392671 0.282737 0.185452
0.502893 0.286996 0.191520
0.613079 0.291259 0.197602
0.721831 0.295526 0.203697
0.827755 0.299798 0.209805
0.929453 0.304073 0.215925
0.085435 0.380640 0.175322
0.187854 0.384974 0.181367
0.294290 0.389311 0.187427
0.403346 0.393649 0.193500
0.513625 0.397990 0.199586
0.623733 0.402333 0.205685
0.732272 0.406678 0.211797
0.837846 0.411024 0.217921
0.939059 0.415373 0.224058
0.095174 0.492864 0.183339
0.198044 0.497230 0.189403
0.304796 0.501595 0.195480
0.414032 0.505961 0.201571
0.524356 0.510326 0.207674
0.634372 0.514691 0.213790
0.742684 0.519056 0.219919
0.847896 0.523420 0.226059
0.948611 0.527784 0.232211
0.104962 0.605182 0.191381
0.208271 0.609522 0.197463
0.315325 0.613859 0.203557
0.424728 0.618194 0.209665
0.535083 0.622526 0.215785
0.644995 0.626856 0.221917
0.753067 0.631184 0.228061
0.857903 0.635509 0.234217
0.958107 0.639831 0.240385
0.114798 0.716117 0.199446
0.218533 0.720373 0.205545
0.325876 0.724625 0.211657
0.435433 0.728872 0.217781
0.545807 0.733114 0.223917
0.655601 0.737352 0.230065
0.763420 0.741585 0.236225
0.867867 0.745813 0.242396
0.963533 0.750037 0.248578
0.124682 0.824193 0.207534
0.228829 0.828308 0.213650
0.336449 0.832416 0.219778
0.446146 0.836518 0.225918
0.556525 0.840613 0.232070
0.666188 0.844701 0.238233
0.773741 0.848783 0.244408
0.877785 0.852857 0.250594
0.963533 0.856924 0.256790
0.134612 0.927931 0.215644
0.239158 0.931848 0.221776
0.347041 0.935757 0.227920
0.456865 0.939656 0.234076
0.567236 0.943546 0.240243
0.676755 0.947428 0.246421
0.784028 0.951300 0.252610
0.887658 0.955163 0.258810
0.963533 0.959016 0.265020
0.058029 0.063566 0.251922
0.159092 0.067473 0.258121
0.264557 0.071389 0.264330
0.373028 0.075313 0.270549
0.483109 0.079246 0.276778
0.593404 0.083188 0.283017
0.702516 0.087138 0.289264
0.809049 0.091096 0.295521
0.911607 0.095063 0.301787
0.067618 0.166871 0.260142
0.169171 0.170979 0.266354
0.274989 0.175093 0.272577
0.383678 0.179213 0.278809
0.493841 0.183340 0.285050
0.604082 0.187474 0.291301
0.713005 0.191614 0.297561
0.819213 0.195759 0.303829
0.921310 0.199911 0.310106
0.077262 0.274638 0.268380
0.179290 0.278889 0.274605
0.285448 0.283144 0.280840
0.394342 0.287403 0.287085
0.504574 0.291667 0.293339
0.614748 0.295935 0.299601
0.723468 0.300207 0.305873
0.829337 0.304482 0.312152
0.930961 0.308762 0.318440
0.086957 0.385389 0.276635
0.189448 0.389726 0.282873
0.295933 0.394064 0.289121
0.405018 0.398405 0.295378
0.515306 0.402748 0.301643
0.625400 0.407093 0.307917
0.733904 0.411440 0.314199
0.839422 0.415789 0.320489
0.940558 0.420139 0.326787
0.096703 0.497647 0.284907
0.199643 0.502013 0.291158
0.306443 0.506378 0.297417
0.415706 0.510743 0.303685
0.526036 0.515109 0.309962
0.636037 0.519473 0.316247
0.744312 0.523838 0.322539
0.849465 0.528202 0.328839
0.950101 0.532565 0.335147
0.106499 0.609937 0.293195
0.209875 0.614273 0.299458
0.316976 0.618608 0.305729
0.426404 0.622940 0.312008
0.536763 0.627270 0.318295
0.646657 0.631598 0.324590
0.754690 0.635922 0.330893
0.859466 0.640244 0.337203
0.959588 0.644564 0.343519
0.116343 0.720780 0.301499
0.220143 0.725031 0.307773
0.327531 0.729278 0.314055
0.437110 0.733520 0.320345
0.547485 0.737757 0.326642
0.657260 0.741990 0.332947
0.765038 0.746217 0.339259
0.869423 0.750440 0.345578
0.963533 0.754658 0.351904
0.126234 0.828701 0.309818
0.230444 0.832809 0.316102
0.338106 0.836910 0.322395
0.447824 0.841004 0.328695
0.558202 0.845092 0.335002
0.667844 0.849173 0.341316
0.775354 0.853246 0.347638
0.879334 0.857312 0.353965
0.963533 0.861372 0.360299
0.136171 0.932222 0.318151
0.240778 0.936130 0.324446
0.348701 0.940028 0.330748
0.458545 0.943918 0.337058
0.568912 0.947798 0.343374
0.678408 0.951670 0.349698
0.785636 0.955531 0.356027
0.889199 0.959384 0.362363
0.963533 0.963227 0.368705
0.059527 0.067847 0.355324
0.160667 0.071763 0.361659
0.266189 0.075689 0.368000
0.374695 0.079623 0.374347
0.484790 0.083565 0.380699
0.595077 0.087516 0.387056
0.704160 0.091475 0.393418
0.810643 0.095443 0.399784
0.913130 0.099419 0.406155
0.069125 0.171372 0.363723
0.170752 0.175487 0.370066
0.276625 0.179608 0.376415
0.385347 0.183735 0.382769
0.495522 0.187869 0.389127
0.605753 0.192010 0.395491
0.714645 0.196156 0.401859
0.820801 0.200309 0.408231
0.922824 0.204467 0.414607
0.078776 0.279295 0.372133
0.180878 0.283551 0.378484
0.287089 0.287811 0.384839
0.396013 0.292075 0.391199
0.506254 0.296343 0.397564
0.616417 0.300615 0.403933
0.725104 0.304892 0.410307
0.830919 0.309172 0.416684
0.932467 0.313456 0.423065
0.088480 0.390140 0.380553
0.191042 0.394479 0.386910
0.297577 0.398821 0.393272
0.406691 0.403164 0.399638
0.516986 0.407509 0.406009
0.627066 0.411856 0.412383
0.735536 0.416205 0.418762
0.840998 0.420555 0.425144
0.942056 0.424907 0.431529
0.098234 0.502430 0.388981
0.201243 0.506796 0.395345
0.308091 0.511161 0.401712
0.417380 0.515526 0.408084
0.527716 0.519891 0.414460
0.637701 0.524255 0.420840
0.745939 0.528619 0.427223
0.851034 0.532982 0.433609
0.951591 0.537345 0.439997
0.108037 0.614688 0.397418
0.211481 0.619023 0.403787
0.318627 0.623355 0.410160
0.428080 0.627684 0.416538
0.538442 0.632011 0.422918
0.648319 0.636336 0.429302
0.756313 0.640658 0.435689
0.861028 0.644977 0.442079
0.961069 0.649293 0.448471
0.117889 0.725437 0.405862
0.221754 0.729684 0.412237
0.329185 0.733925 0.418615
0.438787 0.738162 0.424997
0.549164 0.742394 0.431382
0.658919 0.746621 0.437770
0.766655 0.750844 0.444160
0.870978 0.755061 0.450553
0.963533 0.759273 0.456948
0.127787 0.833201 0.414314
0.232060 0.837302 0.420693
0.339764 0.841396 0.427076
0.449502 0.845482 0.433462
0.559880 0.849562 0.439851
0.669500 0.853635 0.446242
0.776966 0.857701 0.452636
0.880882 0.861759 0.459031
0.963533 0.865810 0.465429
0.137732 0.936503 0.422772
0.242399 0.940401 0.429156
0.350362 0.944289 0.435542
0.460224 0.948169 0.441932
0.570589 0.952039 0.448324
0.680061 0.955900 0.454718
0.787243 0.959752 0.461115
0.890740 0.963533 0.467512
0.963533 0.963533 0.473912
0.061026 0.072138 0.460404
0.162244 0.076064 0.466801
0.267821 0.079999 0.473201
0.376362 0.083943 0.479601
0.486470 0.087894 0.486002
0.596749 0.091854 0.492404
0.705803 0.095823 0.498806
0.812236 0.099800 0.505208
0.914651 0.103785 0.511610
0.070633 0.175880 0.468885
0.172335 0.180002 0.475285
0.278262 0.184131 0.481685
0.387016 0.188265 0.488087
0.497202 0.192406 0.494489
0.607424 0.196553 0.500891
0.716284 0.200706 0.507293
0.822388 0.204865 0.513694
0.924338 0.209030 0.520096
0.080292 0.283958 0.477369
0.182467 0.288218 0.483770
0.288729 0.292483 0.490172
0.397684 0.296751 0.496574
0.507935 0.301024 0.502976
0.618085 0.305301 0.509378
0.726739 0.309581 0.515779
0.832500 0.313865 0.522180
0.933972 0.318153 0.528580
0.090004 0.394895 0.485855
0.192637 0.399236 0.492257
0.299222 0.403579 0.498659
0.408364 0.407925 0.505061
0.518666 0.412272 0.511463
0.628733 0.416621 0.517864
0.737166 0.420971 0.524265
0.842572 0.425323 0.530664
0.943553 0.429677 0.537062
0.099766 0.507213 0.494342
0.202844 0.511578 0.500744
0.309739 0.515943 0.507146
0.419055 0.520308 0.513547
0.529396 0.524672 0.519949
0.639364 0.529036 0.526349
0.747565 0.533400 0.532748
0.852602 0.537762 0.539146
0.953078 0.542124 0.545542
0.109577 0.619437 0.502829
0.213087 0.623769 0.509231
0.320279 0.628098 0.515632
0.429756 0.632425 0.522033
0.540121 0.636749 0.528433
0.649980 0.641071 0.534832
0.757934 0.645389 0.541229
0.862589 0.649705 0.547625
0.962548 0.654018 0.554018
0.119436 0.730089 0.511316
0.223365 0.734330 0.517717
0.330840 0.738567 0.524118
0.440465 0.742799 0.530517
0.550842 0.747025 0.536916
0.660577 0.751247 0.543312
0.768272 0.755464 0.549707
0.872532 0.759676 0.556100
0.963533 0.763883 0.562490
0.129342 0.837694 0.519802
0.233677 0.841787 0.526202
0.341422 0.845873 0.532601
0.451181 0.849952 0.538999
0.561557 0.854024 0.545395
0.671155 0.858089 0.551789
0.778577 0.862147 0.558182
0.882429 0.866197 0.564571
0.963533 0.870240 0.570958
0.139293 0.940773 0.528286
0.244021 0.944661 0.534685
0.352023 0.948539 0.541082
0.461903 0.952409 0.547478
0.572265 0.956269 0.553872
0.681712 0.960120 0.560263
0.788849 0.963533 0.566651
0.892279 0.963533 0.573037
0.963533 0.963533 0.579420
0.062527 0.076440 0.565942
0.163821 0.080376 0.572328
0.269454 0.084320 0.578711
0.378029 0.088273 0.585091
0.488151 0.092234 0.591467
0.598422 0.096203 0.597839
0.707446 0.100180 0.604207
0.813828 0.104166 0.610571
0.916171 0.108160 0.616930
0.072142 0.180397 0.574407
0.173919 0.184526 0.580789
0.279899 0.188661 0.587168
0.388686 0.192802 0.593543
0.498883 0.196950 0.599914
0.609094 0.201104 0.606280
0.717923 0.205263 0.612642
0.823974 0.209429 0.619000
0.925850 0.213600 0.625352
0.081810 0.288626 0.582867
0.184057 0.292891 0.589244
0.290371 0.297160 0.595618
0.399356 0.301433 0.601988
0.509615 0.305710 0.608353
0.619753 0.309991 0.614713
0.728374 0.314275 0.621069
0.834080 0.318564 0.627420
0.935476 0.322855 0.633765
0.091529 0.399651 0.591321
0.194232 0.403995 0.597693
0.300867 0.408340 0.604061
0.410037 0.412688 0.610425
0.520347 0.417037 0.616784
0.630398 0.421387 0.623138
0.738797 0.425739 0.629487
0.844145 0.430093 0.635830
0.945048 0.434448 0.642168
0.101299 0.511996 0.599767
0.204445 0.516361 0.606134
0.311388 0.520725 0.612496
0.420730 0.525090 0.618854
0.531075 0.529454 0.625206
0.641028 0.533817 0.631553
0.749191 0.538179 0.637895
0.854169 0.542541 0.644231
0.954565 0.546902 0.650560
0.111117 0.624183 0.608207
0.214694 0.628512 0.614568
0.321931 0.632839 0.620923
0.431432 0.637163 0.627274
0.541801 0.641484 0.633619
0.651640 0.645802 0.639959
0.759555 0.650118 0.646293
0.864149 0.654430 0.652620
0.963533 0.658740 0.658941
0.120984 0.734736 0.616638
0.224978 0.738972 0.622992
0.332496 0.743203 0.629341
0.442142 0.747429 0.635685
0.552521 0.751651 0.642022
0.662235 0.755867 0.648354
0.769888 0.760078 0.654679
0.874085 0.764285 0.660998
0.963533 0.768485 0.667310
0.130897 0.842178 0.625061
0.235294 0.846263 0.631408
0.343081 0.850342 0.637749
0.452860 0.854413 0.644085
0.563234 0.858478 0.650415
0.672809 0.862535 0.656738
0.780188 0.866584 0.663054
0.883974 0.870627 0.669364
0.963533 0.874661 0.675666
0.140855 0.945032 0.633474
0.245643 0.948910 0.639814
0.353684 0.952778 0.646147
0.463582 0.956638 0.652475
0.573941 0.960488 0.658796
0.683364 0.963533 0.665110
0.790454 0.963533 0.671417
0.893817 0.963533 0.677717
0.963533 0.963533 0.684009
0.064029 0.080753 0.670717
0.165400 0.084698 0.677017
0.271088 0.088651 0.683311
0.379697 0.092613 0.689596
0.489831 0.096583 0.695873
0.600094 0.100561 0.702142
0.709089 0.104548 0.708402
0.815419 0.108542 0.714653
0.917690 0.112545 0.720895
0.073652 0.184921 0.679068
0.175504 0.189057 0.685359
0.281537 0.193199 0.691641
0.390356 0.197347 0.697916
0.500564 0.201501 0.704182
0.610764 0.205661 0.710439
0.719561 0.209828 0.716687
0.825559 0.214000 0.722926
0.927361 0.218177 0.729156
0.083328 0.293299 0.687406
0.185648 0.297568 0.693686
0.292013 0.301842 0.699957
0.401028 0.306119 0.706221
0.511296 0.310400 0.712475
0.621421 0.314685 0.718720
0.730008 0.318974 0.724956
0.835659 0.323266 0.731182
0.936978 0.327562 0.737399
0.093055 0.404410 0.695729
0.195829 0.408756 0.701998
0.302513 0.413103 0.708259
0.411711 0.417453 0.714510
0.522027 0.421803 0.720752
0.632064 0.426156 0.726985
0.740426 0.430510 0.733208
0.845718 0.434865 0.739421
0.946542 0.439221 0.745624
0.102833 0.516778 0.704038
0.206048 0.521143 0.710296
0.313038 0.525507 0.716544
0.422405 0.529871 0.722783
0.532755 0.534234 0.729013
0.642691 0.538596 0.735233
0.750816 0.542958 0.741442
0.855734 0.547319 0.747642
0.956050 0.551679 0.753831
0.112659 0.628926 0.712332
0.216302 0.633252 0.718577
0.323584 0.637576 0.724813
0.433109 0.641897 0.731040
0.543480 0.646215 0.737256
0.653300 0.650530 0.743463
0.761175 0.654843 0.749659
0.865708 0.659152 0.755844
0.963533 0.663458 0.762018
0.122533 0.739377 0.720609
0.226591 0.743607 0.726842
0.334152 0.747833 0.733065
0.443820 0.752054 0.739279
0.554199 0.756270 0.745482
0.663892 0.760481 0.751674
0.771503 0.764686 0.757856
0.875636 0.768887 0.764027
0.963533 0.773082 0.770186
0.132453 0.846654 0.728870
0.236913 0.850731 0.735090
0.344740 0.854802 0.741300
0.454538 0.858866 0.747500
0.564911 0.862922 0.753689
0.674463 0.866971 0.759867
0.781798 0.871013 0.766034
0.885519 0.875047 0.772189
0.963533 0.879073 0.778333
0.142418 0.949280 0.737114
0.247266 0.953148 0.743320
0.355346 0.957006 0.749517
0.465262 0.960855 0.755702
0.575616 0.963533 0.761876
0.685014 0.963533 0.768040
0.792059 0.963533 0.774191
0.895354 0.963533 0.780331
0.963533 0.963533 0.786459
0.065532 0.085075 0.773508
0.166979 0.089030 0.779650
0.272722 0.092992 0.785779
0.381365 0.096963 0.791896
0.491512 0.100942 0.798000
0.601765 0.104929 0.804091
0.710730 0.108925 0.810169
0.817010 0.112928 0.816234
0.919208 0.116939 0.822285
0.075164 0.189452 0.781647
0.177090 0.193595 0.787772
0.283176 0.197744 0.793885
0.392026 0.201899 0.799985
0.502244 0.206060 0.806072
0.612434 0.210226 0.812146
0.721199 0.214399 0.818207
0.827143 0.218577 0.824253
0.928870 0.222761 0.830286
0.084848 0.297977 0.789764
0.187239 0.302251 0.795873
0.293655 0.306528 0.801969
0.402700 0.310810 0.808052
0.512976 0.315095 0.814121
0.623089 0.319384 0.820177
0.731641 0.323677 0.826220
0.837237 0.327973 0.832247
0.938480 0.332272 0.838261
0.094583 0.409172 0.797860
0.197427 0.413519 0.803952
0.304160 0.417869 0.810030
0.413385 0.422220 0.816095
0.523707 0.426572 0.822147
0.633729 0.430926 0.828184
0.742055 0.435281 0.834208
0.847289 0.439638 0.840216
0.948035 0.443996 0.846210
0.104368 0.521560 0.805933
0.207651 0.525924 0.812007
0.314688 0.530288 0.818068
0.424081 0.534651 0.824115
0.534435 0.539014 0.830148
0.644353 0.543375 0.836166
0.752440 0.547736 0.842170
0.857299 0.552096 0.848159
0.957534 0.556455 0.854133
0.114202 0.633666 0.813982
0.217911 0.637989 0.820039
0.325238 0.642310 0.826081
0.434785 0.646628 0.832109
0.545158 0.650943 0.838123
0.654960 0.655255 0.844122
0.762795 0.659564 0.850107
0.867265 0.663870 0.856076
0.963533 0.668172 0.862029
0.124083 0.744012 0.822008
0.228205 0.748237 0.828046
0.335809 0.752458 0.834069
0.445498 0.756673 0.840079
0.555877 0.760883 0.846073
0.665549 0.765088 0.852052
0.773117 0.769288 0.858016
0.877187 0.773483 0.863965
0.963533 0.777671 0.869898
0.134011 0.851121 0.830009
0.238532 0.855191 0.836028
0.346400 0.859254 0.842033
0.456217 0.863310 0.848022
0.566588 0.867358 0.853996
0.676117 0.871399 0.859956
0.783407 0.875432 0.865899
0.887062 0.879458 0.871826
0.963533 0.883476 0.877738
0.143983 0.953517 0.837985
0.248891 0.957375 0.843985
0.357009 0.961223 0.849969
0.466941 0.963533 0.855939
0.577292 0.963533 0.861893
0.686664 0.963533 0.867831
0.793662 0.963533 0.873753
0.896890 0.963533 0.879659
0.963533 0.963533 0.885548
0.067037 0.089408 0.873096
0.168560 0.093371 0.879004
0.274358 0.097343 0.884895
0.383034 0.101323 0.890769
0.493192 0.105311 0.896627
0.603437 0.109307 0.902466
0.712371 0.113311 0.908289
0.818599 0.117323 0.914093
0.920725 0.121342 0.919879
0.076677 0.193992 0.880924
0.178676 0.198141 0.886810
0.284815 0.202296 0.892679
0.393697 0.206458 0.898530
0.503925 0.210625 0.904365
0.614103 0.214798 0.910181
0.722836 0.218977 0.915980
0.828726 0.223161 0.921760
0.930379 0.227351 0.927522
0.086369 0.302659 0.888723
0.188832 0.306937 0.894586
0.295299 0.311219 0.900432
0.404372 0.315505 0.906261
0.514657 0.319794 0.912072
0.624756 0.324087 0.917864
0.733274 0.328384 0.923639
0.838813 0.332684 0.929394
0.939979 0.336987 0.935131
0.096112 0.413935 0.896492
0.199026 0.418285 0.902333
0.305807 0.422636 0.908155
0.415059 0.426988 0.913960
0.525387 0.431342 0.919747
0.635394 0.435698 0.925515
0.743683 0.440055 0.931265
0.848859 0.444413 0.936995
0.949526 0.448772 0.942706
0.105905 0.526342 0.904231
0.209256 0.530705 0.910048
0.316338 0.535068 0.915847
0.425756 0.539431 0.921628
0.536114 0.543792 0.927390
0.646015 0.548153 0.933133
0.754064 0.552513 0.938857
0.858863 0.556871 0.944562
0.959016 0.561229 0.950248
0.115746 0.638403 0.911938
0.219521 0.642723 0.917731
0.326892 0.647041 0.923506
0.436462 0.651355 0.929262
0.546837 0.655667 0.934999
0.656619 0.659976 0.940718
0.764413 0.664281 0.946416
0.868822 0.668583 0.952095
0.963533 0.672882 0.957754
0.125635 0.748641 0.919614
0.229820 0.752861 0.925383
0.337466 0.757076 0.931133
0.447176 0.761286 0.936864
0.557554 0.765490 0.942576
0.667205 0.769689 0.948268
0.774731 0.773883 0.953940
0.878736 0.778072 0.959593
0.963533 0.782255 0.963533
0.135569 0.855580 0.927258
0.240152 0.859642 0.933001
0.348060 0.863697 0.938726
0.457896 0.867745 0.944432
0.568265 0.871785 0.950117
0.677770 0.875818 0.955783
0.785015 0.879843 0.961429
0.888604 0.883860 0.963533
0.963533 0.887869 0.963533
0.145548 0.957743 0.934868
0.250515 0.961590 0.940586
0.358672 0.963533 0.946286
0.468621 0.963533 0.951965
0.578967 0.963533 0.957624
0.688314 0.963533 0.963264
0.795265 0.963533 0.963533
0.898424 0.963533 0.963533
0.963533 0.963533 0.963533
