app/src/main/assets/luts/era_1980s.cube
TITLE "Generation Camera 1980s"
LUT_3D_SIZE 5
DOMAIN_MIN 0.0 0.0 0.0
DOMAIN_MAX 1.0 1.0 1.0
0.010000 0.010000 0.010000
0.268348 0.019889 0.019175
0.628256 0.033888 0.032164
0.926226 0.045698 0.043122
0.981207 0.047901 0.045166
0.028159 0.255763 0.026343
0.234506 0.237248 0.032119
0.584881 0.224519 0.043278
0.897373 0.211991 0.053311
0.984484 0.192942 0.055074
0.054277 0.596250 0.049849
0.212653 0.572172 0.053778
0.548424 0.551949 0.064329
0.869229 0.532007 0.074546
0.990821 0.508011 0.077292
0.078143 0.893603 0.071329
0.193981 0.875266 0.074262
0.512631 0.857946 0.084814
0.838113 0.840302 0.095824
0.995930 0.820638 0.100417
0.086709 0.997039 0.079038
0.166892 0.997284 0.082035
0.469909 0.998148 0.093515
0.800868 0.998971 0.106366
0.998256 0.999399 0.114204
0.014123 0.013999 0.286663
0.262012 0.023154 0.267896
0.620189 0.036765 0.253361
0.921130 0.048374 0.238630
0.982025 0.050485 0.217897
0.030824 0.248764 0.249525
0.227603 0.230057 0.230131
0.575950 0.217429 0.216358
0.891050 0.205163 0.203069
0.984878 0.186472 0.184046
0.056153 0.587164 0.222768
0.205822 0.562783 0.204085
0.539121 0.542454 0.192314
0.862037 0.522521 0.181733
0.990958 0.498605 0.165939
0.079588 0.886745 0.199597
0.187596 0.867977 0.182348
0.503275 0.850341 0.173197
0.830331 0.832452 0.166023
0.995963 0.812579 0.154497
0.088154 0.997146 0.169506
0.161391 0.997348 0.154542
0.460838 0.998178 0.148826
0.792733 0.998986 0.146078
0.998313 0.999418 0.140309
0.019889 0.019592 0.670132
0.257488 0.028363 0.646567
0.613485 0.041902 0.624848
0.916801 0.053604 0.602853
0.983689 0.055906 0.577380
0.035817 0.243725 0.623340
0.223124 0.225123 0.598640
0.568811 0.212877 0.576646
0.885728 0.201141 0.554748
0.986204 0.183080 0.529354
0.060931 0.579492 0.580766
0.201949 0.555006 0.555768
0.531953 0.534760 0.534403
0.855963 0.515020 0.513600
0.991929 0.491380 0.489492
0.084408 0.880416 0.539435
0.184638 0.861325 0.514604
0.496361 0.843462 0.494363
0.823754 0.825418 0.475259
0.996653 0.805450 0.453319
0.093355 0.997520 0.493174
0.159737 0.997684 0.468953
0.454536 0.998453 0.450347
0.785965 0.999208 0.433662
0.998899 0.999619 0.415021
0.024465 0.024031 0.971625
0.252267 0.032615 0.957211
0.606316 0.046273 0.942084
0.912099 0.058259 0.926100
0.985174 0.060951 0.908596
0.040022 0.238239 0.942285
0.218290 0.219894 0.925717
0.561459 0.208186 0.908803
0.880208 0.197149 0.891200
0.987483 0.179901 0.871986
0.065306 0.571684 0.910173
0.198068 0.547194 0.891891
0.524832 0.527138 0.873752
0.849856 0.507711 0.855178
0.992940 0.484485 0.835004
0.089208 0.874008 0.875658
0.182039 0.854644 0.855973
0.489767 0.836612 0.837008
0.817299 0.818479 0.817944
0.997420 0.798494 0.797431
0.098942 0.997900 0.837264
0.158848 0.998041 0.816359
0.448867 0.998756 0.796856
0.779498 0.999459 0.777728
0.999568 0.999850 0.757543
0.024898 0.024451 1.000000
0.243692 0.032899 1.000000
0.596769 0.046749 1.000000
0.905910 0.059122 1.000000
0.985575 0.062352 1.000000
0.040217 0.229719 1.000000
0.210185 0.211654 1.000000
0.551809 0.200539 1.000000
0.873302 0.190287 1.000000
0.987856 0.173984 1.000000
0.065911 0.562055 1.000000
0.191120 0.537573 1.000000
0.515612 0.517750 1.000000
0.842577 0.498705 1.000000
0.993322 0.475988 1.000000
0.090597 0.866845 1.000000
0.176690 0.847208 1.000000
0.481342 0.829035 1.000000
0.809899 0.810854 1.000000
0.997806 0.790903 1.000000
0.101607 0.998072 1.000000
0.155660 0.998215 1.000000
0.441703 0.998917 1.000000
0.772290 0.999606 1.000000
1.000000 1.000000 1.000000
