app/src/main/assets/luts/era_1940s.cube
TITLE "Generation Camera 1940s"
LUT_3D_SIZE 9
DOMAIN_MIN 0.0 0.0 0.0
DOMAIN_MAX 1.0 1.0 1.0
0.000000 0.000000 0.000000
0.015799 0.015799 0.015799
0.036670 0.036670 0.036670
0.062204 0.062204 0.062204
0.091987 0.091987 0.091987
0.125610 0.125610 0.125610
0.162661 0.162661 0.162661
0.202728 0.202728 0.202728
0.245400 0.245400 0.245400
0.035897 0.035897 0.035897
0.061282 0.061282 0.061282
0.090931 0.090931 0.090931
0.124432 0.124432 0.124432
0.161375 0.161375 0.161375
0.201348 0.201348 0.201348
0.243940 0.243940 0.243940
0.288739 0.288739 0.288739
0.335335 0.335335 0.335335
0.089878 0.089878 0.089878
0.123258 0.123258 0.123258
0.160093 0.160093 0.160093
0.199971 0.199971 0.199971
0.242482 0.242482 0.242482
0.287215 0.287215 0.287215
0.333757 0.333757 0.333757
0.381698 0.381698 0.381698
0.430626 0.430626 0.430626
0.158813 0.158813 0.158813
0.198597 0.198597 0.198597
0.241027 0.241027 0.241027
0.285692 0.285692 0.285692
0.332181 0.332181 0.332181
0.380081 0.380081 0.380081
0.428983 0.428983 0.428983
0.478474 0.478474 0.478474
0.528144 0.528144 0.528144
0.239575 0.239575 0.239575
0.284172 0.284172 0.284172
0.330606 0.330606 0.330606
0.378466 0.378466 0.378466
0.427341 0.427341 0.427341
0.476819 0.476819 0.476819
0.526490 0.526490 0.526490
0.575940 0.575940 0.575940
0.624760 0.624760 0.624760
0.329033 0.329033 0.329033
0.376852 0.376852 0.376852
0.425700 0.425700 0.425700
0.475165 0.475165 0.475165
0.524835 0.524835 0.524835
0.574300 0.574300 0.574300
0.623148 0.623148 0.623148
0.670967 0.670967 0.670967
0.717347 0.717347 0.717347
0.424060 0.424060 0.424060
0.473510 0.473510 0.473510
0.523181 0.523181 0.523181
0.572659 0.572659 0.572659
0.621534 0.621534 0.621534
0.669394 0.669394 0.669394
0.715828 0.715828 0.715828
0.760425 0.760425 0.760425
0.802774 0.802774 0.802774
0.521526 0.521526 0.521526
0.571017 0.571017 0.571017
0.619919 0.619919 0.619919
0.667819 0.667819 0.667819
0.714308 0.714308 0.714308
0.758973 0.758973 0.758973
0.801403 0.801403 0.801403
0.841187 0.841187 0.841187
0.877913 0.877913 0.877913
0.618302 0.618302 0.618302
0.666243 0.666243 0.666243
0.712785 0.712785 0.712785
0.757518 0.757518 0.757518
0.800029 0.800029 0.800029
0.839907 0.839907 0.839907
0.876742 0.876742 0.876742
0.910122 0.910122 0.910122
0.939635 0.939635 0.939635
0.005178 0.005178 0.005178
0.022884 0.022884 0.022884
0.045513 0.045513 0.045513
0.072653 0.072653 0.072653
0.103892 0.103892 0.103892
0.138819 0.138819 0.138819
0.177024 0.177024 0.177024
0.218094 0.218094 0.218094
0.261618 0.261618 0.261618
0.044684 0.044684 0.044684
0.071680 0.071680 0.071680
0.102789 0.102789 0.102789
0.137600 0.137600 0.137600
0.175702 0.175702 0.175702
0.216683 0.216683 0.216683
0.260132 0.260132 0.260132
0.305637 0.305637 0.305637
0.352788 0.352788 0.352788
0.101690 0.101690 0.101690
0.136384 0.136384 0.136384
0.174383 0.174383 0.174383
0.215275 0.215275 0.215275
0.258648 0.258648 0.258648
0.304092 0.304092 0.304092
0.351195 0.351195 0.351195
0.399545 0.399545 0.399545
0.448732 0.448732 0.448732
0.173068 0.173068 0.173068
0.213869 0.213869 0.213869
0.257167 0.257167 0.257167
0.302548 0.302548 0.302548
0.349602 0.349602 0.349602
0.397918 0.397918 0.397918
0.447083 0.447083 0.447083
0.496688 0.496688 0.496688
0.546319 0.546319 0.546319
0.255688 0.255688 0.255688
0.301006 0.301006 0.301006
0.348011 0.348011 0.348011
0.396291 0.396291 0.396291
0.445435 0.445435 0.445435
0.495031 0.495031 0.495031
0.544669 0.544669 0.544669
0.593936 0.593936 0.593936
0.642422 0.642422 0.642422
0.346421 0.346421 0.346421
0.394666 0.394666 0.394666
0.443787 0.443787 0.443787
0.493375 0.493375 0.493375
0.543018 0.543018 0.543018
0.592304 0.592304 0.592304
0.640823 0.640823 0.640823
0.688162 0.688162 0.688162
0.733911 0.733911 0.733911
0.442140 0.442140 0.442140
0.491719 0.491719 0.491719
0.541367 0.541367 0.541367
0.590671 0.590671 0.590671
0.639222 0.639222 0.639222
0.686607 0.686607 0.686607
0.732416 0.732416 0.732416
0.776236 0.776236 0.776236
0.817657 0.817657 0.817657
0.539715 0.539715 0.539715
0.589038 0.589038 0.589038
0.637620 0.637620 0.637620
0.685051 0.685051 0.685051
0.730918 0.730918 0.730918
0.774812 0.774812 0.774812
0.816319 0.816319 0.816319
0.855030 0.855030 0.855030
0.890532 0.890532 0.890532
0.636017 0.636017 0.636017
0.683493 0.683493 0.683493
0.729419 0.729419 0.729419
0.773385 0.773385 0.773385
0.814978 0.814978 0.814978
0.853789 0.853789 0.853789
0.889405 0.889405 0.889405
0.921414 0.921414 0.921414
0.949407 0.949407 0.949407
0.011073 0.011073 0.011073
0.030632 0.030632 0.030632
0.054962 0.054962 0.054962
0.083653 0.083653 0.083653
0.116292 0.116292 0.116292
0.152469 0.152469 0.152469
0.191772 0.191772 0.191772
0.233789 0.233789 0.233789
0.278110 0.278110 0.278110
0.054079 0.054079 0.054079
0.082631 0.082631 0.082631
0.115145 0.115145 0.115145
0.151210 0.151210 0.151210
0.190416 0.190416 0.190416
0.232349 0.232349 0.232349
0.276600 0.276600 0.276600
0.322757 0.322757 0.322757
0.370408 0.370408 0.370408
0.114002 0.114002 0.114002
0.149955 0.149955 0.149955
0.189062 0.189062 0.189062
0.230912 0.230912 0.230912
0.275092 0.275092 0.275092
0.321192 0.321192 0.321192
0.368800 0.368800 0.368800
0.417505 0.417505 0.417505
0.466895 0.466895 0.466895
0.187712 0.187712 0.187712
0.229477 0.229477 0.229477
0.273586 0.273586 0.273586
0.319629 0.319629 0.319629
0.367193 0.367193 0.367193
0.415868 0.415868 0.415868
0.465242 0.465242 0.465242
0.514904 0.514904 0.514904
0.564443 0.564443 0.564443
0.272083 0.272083 0.272083
0.318067 0.318067 0.318067
0.365587 0.365587 0.365587
0.414232 0.414232 0.414232
0.463590 0.463590 0.463590
0.513249 0.513249 0.513249
0.562798 0.562798 0.562798
0.611827 0.611827 0.611827
0.659923 0.659923 0.659923
0.363983 0.363983 0.363983
0.412597 0.412597 0.412597
0.461937 0.461937 0.461937
0.511593 0.511593 0.511593
0.561153 0.561153 0.561153
0.610205 0.610205 0.610205
0.658339 0.658339 0.658339
0.705143 0.705143 0.705143
0.750205 0.750205 0.750205
0.460285 0.460285 0.460285
0.509937 0.509937 0.509937
0.559507 0.559507 0.559507
0.608583 0.608583 0.608583
0.656754 0.656754 0.656754
0.703608 0.703608 0.703608
0.748736 0.748736 0.748736
0.791724 0.791724 0.791724
0.832162 0.832162 0.832162
0.557860 0.557860 0.557860
0.606959 0.606959 0.606959
0.655167 0.655167 0.655167
0.702072 0.702072 0.702072
0.747264 0.747264 0.747264
0.790330 0.790330 0.790330
0.830860 0.830860 0.830860
0.868441 0.868441 0.868441
0.902664 0.902664 0.902664
0.653579 0.653579 0.653579
0.700534 0.700534 0.700534
0.745789 0.745789 0.745789
0.788933 0.788933 0.788933
0.829554 0.829554 0.829554
0.867241 0.867241 0.867241
0.901582 0.901582 0.901582
0.932166 0.932166 0.932166
0.958583 0.958583 0.958583
0.017664 0.017664 0.017664
0.039021 0.039021 0.039021
0.064998 0.064998 0.064998
0.095184 0.095184 0.095184
0.129168 0.129168 0.129168
0.166539 0.166539 0.166539
0.206885 0.206885 0.206885
0.249795 0.249795 0.249795
0.294857 0.294857 0.294857
0.064062 0.064062 0.064062
0.094114 0.094114 0.094114
0.127978 0.127978 0.127978
0.165243 0.165243 0.165243
0.205496 0.205496 0.205496
0.248327 0.248327 0.248327
0.293325 0.293325 0.293325
0.340077 0.340077 0.340077
0.388173 0.388173 0.388173
0.126792 0.126792 0.126792
0.163950 0.163950 0.163950
0.204111 0.204111 0.204111
0.246862 0.246862 0.246862
0.291794 0.291794 0.291794
0.338495 0.338495 0.338495
0.386553 0.386553 0.386553
0.435557 0.435557 0.435557
0.485096 0.485096 0.485096
0.202728 0.202728 0.202728
0.245400 0.245400 0.245400
0.290266 0.290266 0.290266
0.336914 0.336914 0.336914
0.384933 0.384933 0.384933
0.433913 0.433913 0.433913
0.483440 0.483440 0.483440
0.533105 0.533105 0.533105
0.582495 0.582495 0.582495
0.288739 0.288739 0.288739
0.335335 0.335335 0.335335
0.383315 0.383315 0.383315
0.432269 0.432269 0.432269
0.481785 0.481785 0.481785
0.531451 0.531451 0.531451
0.580858 0.580858 0.580858
0.629592 0.629592 0.629592
0.677243 0.677243 0.677243
0.381698 0.381698 0.381698
0.430626 0.430626 0.430626
0.480129 0.480129 0.480129
0.529798 0.529798 0.529798
0.579219 0.579219 0.579219
0.627983 0.627983 0.627983
0.675677 0.675677 0.675677
0.721890 0.721890 0.721890
0.766211 0.766211 0.766211
0.478474 0.478474 0.478474
0.528144 0.528144 0.528144
0.577580 0.577580 0.577580
0.626372 0.626372 0.626372
0.674108 0.674108 0.674108
0.720377 0.720377 0.720377
0.764768 0.764768 0.764768
0.806869 0.806869 0.806869
0.846269 0.846269 0.846269
0.575940 0.575940 0.575940
0.624760 0.624760 0.624760
0.672538 0.672538 0.672538
0.718863 0.718863 0.718863
0.763323 0.763323 0.763323
0.805507 0.805507 0.805507
0.845004 0.845004 0.845004
0.881402 0.881402 0.881402
0.914290 0.914290 0.914290
0.670967 0.670967 0.670967
0.717347 0.717347 0.717347
0.761875 0.761875 0.761875
0.804142 0.804142 0.804142
0.843735 0.843735 0.843735
0.880243 0.880243 0.880243
0.913254 0.913254 0.913254
0.942358 0.942358 0.942358
0.967143 0.967143 0.967143
0.024932 0.024932 0.024932
0.048031 0.048031 0.048031
0.075599 0.075599 0.075599
0.107225 0.107225 0.107225
0.142499 0.142499 0.142499
0.181009 0.181009 0.181009
0.222342 0.222342 0.222342
0.266089 0.266089 0.266089
0.311838 0.311838 0.311838
0.074612 0.074612 0.074612
0.106110 0.106110 0.106110
0.141269 0.141269 0.141269
0.179677 0.179677 0.179677
0.220923 0.220923 0.220923
0.264597 0.264597 0.264597
0.310285 0.310285 0.310285
0.357578 0.357578 0.357578
0.406064 0.406064 0.406064
0.140042 0.140042 0.140042
0.178349 0.178349 0.178349
0.219507 0.219507 0.219507
0.263106 0.263106 0.263106
0.308734 0.308734 0.308734
0.355980 0.355980 0.355980
0.404433 0.404433 0.404433
0.453681 0.453681 0.453681
0.503312 0.503312 0.503312
0.218094 0.218094 0.218094
0.261618 0.261618 0.261618
0.307185 0.307185 0.307185
0.354384 0.354384 0.354384
0.402803 0.402803 0.402803
0.452031 0.452031 0.452031
0.501656 0.501656 0.501656
0.551268 0.551268 0.551268
0.600455 0.600455 0.600455
0.305637 0.305637 0.305637
0.352788 0.352788 0.352788
0.401173 0.401173 0.401173
0.450381 0.450381 0.450381
0.500000 0.500000 0.500000
0.549619 0.549619 0.549619
0.598827 0.598827 0.598827
0.647212 0.647212 0.647212
0.694362 0.694362 0.694362
0.399545 0.399545 0.399545
0.448732 0.448732 0.448732
0.498344 0.498344 0.498344
0.547969 0.547969 0.547969
0.597197 0.597197 0.597197
0.645616 0.645616 0.645616
0.692815 0.692815 0.692815
0.738382 0.738382 0.738382
0.781906 0.781906 0.781906
0.496688 0.496688 0.496688
0.546319 0.546319 0.546319
0.595567 0.595567 0.595567
0.644020 0.644020 0.644020
0.691266 0.691266 0.691266
0.736894 0.736894 0.736894
0.780493 0.780493 0.780493
0.821651 0.821651 0.821651
0.859958 0.859958 0.859958
0.593936 0.593936 0.593936
0.642422 0.642422 0.642422
0.689715 0.689715 0.689715
0.735403 0.735403 0.735403
0.779077 0.779077 0.779077
0.820323 0.820323 0.820323
0.858731 0.858731 0.858731
0.893890 0.893890 0.893890
0.925388 0.925388 0.925388
0.688162 0.688162 0.688162
0.733911 0.733911 0.733911
0.777658 0.777658 0.777658
0.818991 0.818991 0.818991
0.857501 0.857501 0.857501
0.892775 0.892775 0.892775
0.924401 0.924401 0.924401
0.951969 0.951969 0.951969
0.975068 0.975068 0.975068
0.032857 0.032857 0.032857
0.057642 0.057642 0.057642
0.086746 0.086746 0.086746
0.119757 0.119757 0.119757
0.156265 0.156265 0.156265
0.195858 0.195858 0.195858
0.238125 0.238125 0.238125
0.282653 0.282653 0.282653
0.329033 0.329033 0.329033
0.085710 0.085710 0.085710
0.118598 0.118598 0.118598
0.154996 0.154996 0.154996
0.194493 0.194493 0.194493
0.236677 0.236677 0.236677
0.281137 0.281137 0.281137
0.327462 0.327462 0.327462
0.375240 0.375240 0.375240
0.424060 0.424060 0.424060
0.153731 0.153731 0.153731
0.193131 0.193131 0.193131
0.235232 0.235232 0.235232
0.279623 0.279623 0.279623
0.325892 0.325892 0.325892
0.373628 0.373628 0.373628
0.422420 0.422420 0.422420
0.471856 0.471856 0.471856
0.521526 0.521526 0.521526
0.233789 0.233789 0.233789
0.278110 0.278110 0.278110
0.324323 0.324323 0.324323
0.372017 0.372017 0.372017
0.420781 0.420781 0.420781
0.470202 0.470202 0.470202
0.519871 0.519871 0.519871
0.569374 0.569374 0.569374
0.618302 0.618302 0.618302
0.322757 0.322757 0.322757
0.370408 0.370408 0.370408
0.419142 0.419142 0.419142
0.468549 0.468549 0.468549
0.518215 0.518215 0.518215
0.567731 0.567731 0.567731
0.616685 0.616685 0.616685
0.664665 0.664665 0.664665
0.711261 0.711261 0.711261
0.417505 0.417505 0.417505
0.466895 0.466895 0.466895
0.516560 0.516560 0.516560
0.566087 0.566087 0.566087
0.615067 0.615067 0.615067
0.663086 0.663086 0.663086
0.709734 0.709734 0.709734
0.754600 0.754600 0.754600
0.797272 0.797272 0.797272
0.514904 0.514904 0.514904
0.564443 0.564443 0.564443
0.613447 0.613447 0.613447
0.661505 0.661505 0.661505
0.708206 0.708206 0.708206
0.753138 0.753138 0.753138
0.795889 0.795889 0.795889
0.836050 0.836050 0.836050
0.873208 0.873208 0.873208
0.611827 0.611827 0.611827
0.659923 0.659923 0.659923
0.706675 0.706675 0.706675
0.751673 0.751673 0.751673
0.794504 0.794504 0.794504
0.834757 0.834757 0.834757
0.872022 0.872022 0.872022
0.905886 0.905886 0.905886
0.935938 0.935938 0.935938
0.705143 0.705143 0.705143
0.750205 0.750205 0.750205
0.793115 0.793115 0.793115
0.833461 0.833461 0.833461
0.870832 0.870832 0.870832
0.904816 0.904816 0.904816
0.935002 0.935002 0.935002
0.960979 0.960979 0.960979
0.982336 0.982336 0.982336
0.041417 0.041417 0.041417
0.067834 0.067834 0.067834
0.098418 0.098418 0.098418
0.132759 0.132759 0.132759
0.170446 0.170446 0.170446
0.211067 0.211067 0.211067
0.254211 0.254211 0.254211
0.299466 0.299466 0.299466
0.346421 0.346421 0.346421
0.097336 0.097336 0.097336
0.131559 0.131559 0.131559
0.169140 0.169140 0.169140
0.209670 0.209670 0.209670
0.252736 0.252736 0.252736
0.297928 0.297928 0.297928
0.344833 0.344833 0.344833
0.393041 0.393041 0.393041
0.442140 0.442140 0.442140
0.167838 0.167838 0.167838
0.208276 0.208276 0.208276
0.251264 0.251264 0.251264
0.296392 0.296392 0.296392
0.343246 0.343246 0.343246
0.391417 0.391417 0.391417
0.440493 0.440493 0.440493
0.490063 0.490063 0.490063
0.539715 0.539715 0.539715
0.249795 0.249795 0.249795
0.294857 0.294857 0.294857
0.341661 0.341661 0.341661
0.389795 0.389795 0.389795
0.438847 0.438847 0.438847
0.488407 0.488407 0.488407
0.538063 0.538063 0.538063
0.587403 0.587403 0.587403
0.636017 0.636017 0.636017
0.340077 0.340077 0.340077
0.388173 0.388173 0.388173
0.437202 0.437202 0.437202
0.486751 0.486751 0.486751
0.536410 0.536410 0.536410
0.585768 0.585768 0.585768
0.634413 0.634413 0.634413
0.681933 0.681933 0.681933
0.727917 0.727917 0.727917
0.435557 0.435557 0.435557
0.485096 0.485096 0.485096
0.534758 0.534758 0.534758
0.584132 0.584132 0.584132
0.632807 0.632807 0.632807
0.680371 0.680371 0.680371
0.726414 0.726414 0.726414
0.770523 0.770523 0.770523
0.812288 0.812288 0.812288
0.533105 0.533105 0.533105
0.582495 0.582495 0.582495
0.631200 0.631200 0.631200
0.678808 0.678808 0.678808
0.724908 0.724908 0.724908
0.769088 0.769088 0.769088
0.810937 0.810937 0.810937
0.850045 0.850045 0.850045
0.885998 0.885998 0.885998
0.629592 0.629592 0.629592
0.677243 0.677243 0.677243
0.723400 0.723400 0.723400
0.767651 0.767651 0.767651
0.809584 0.809584 0.809584
0.848790 0.848790 0.848790
0.884855 0.884855 0.884855
0.917369 0.917369 0.917369
0.945921 0.945921 0.945921
0.721890 0.721890 0.721890
0.766211 0.766211 0.766211
0.808228 0.808228 0.808228
0.847531 0.847531 0.847531
0.883708 0.883708 0.883708
0.916347 0.916347 0.916347
0.945038 0.945038 0.945038
0.969368 0.969368 0.969368
0.988927 0.988927 0.988927
0.050593 0.050593 0.050593
0.078586 0.078586 0.078586
0.110595 0.110595 0.110595
0.146211 0.146211 0.146211
0.185022 0.185022 0.185022
0.226615 0.226615 0.226615
0.270581 0.270581 0.270581
0.316507 0.316507 0.316507
0.363983 0.363983 0.363983
0.109468 0.109468 0.109468
0.144970 0.144970 0.144970
0.183681 0.183681 0.183681
0.225188 0.225188 0.225188
0.269082 0.269082 0.269082
0.314949 0.314949 0.314949
0.362380 0.362380 0.362380
0.410962 0.410962 0.410962
0.460285 0.460285 0.460285
0.182343 0.182343 0.182343
0.223764 0.223764 0.223764
0.267584 0.267584 0.267584
0.313393 0.313393 0.313393
0.360778 0.360778 0.360778
0.409329 0.409329 0.409329
0.458633 0.458633 0.458633
0.508281 0.508281 0.508281
0.557860 0.557860 0.557860
0.266089 0.266089 0.266089
0.311838 0.311838 0.311838
0.359177 0.359177 0.359177
0.407696 0.407696 0.407696
0.456982 0.456982 0.456982
0.506625 0.506625 0.506625
0.556213 0.556213 0.556213
0.605334 0.605334 0.605334
0.653579 0.653579 0.653579
0.357578 0.357578 0.357578
0.406064 0.406064 0.406064
0.455331 0.455331 0.455331
0.504969 0.504969 0.504969
0.554565 0.554565 0.554565
0.603709 0.603709 0.603709
0.651989 0.651989 0.651989
0.698994 0.698994 0.698994
0.744312 0.744312 0.744312
0.453681 0.453681 0.453681
0.503312 0.503312 0.503312
0.552917 0.552917 0.552917
0.602082 0.602082 0.602082
0.650398 0.650398 0.650398
0.697452 0.697452 0.697452
0.742833 0.742833 0.742833
0.786131 0.786131 0.786131
0.826932 0.826932 0.826932
0.551268 0.551268 0.551268
0.600455 0.600455 0.600455
0.648805 0.648805 0.648805
0.695908 0.695908 0.695908
0.741352 0.741352 0.741352
0.784725 0.784725 0.784725
0.825617 0.825617 0.825617
0.863616 0.863616 0.863616
0.898310 0.898310 0.898310
0.647212 0.647212 0.647212
0.694362 0.694362 0.694362
0.739868 0.739868 0.739868
0.783317 0.783317 0.783317
0.824298 0.824298 0.824298
0.862400 0.862400 0.862400
0.897211 0.897211 0.897211
0.928320 0.928320 0.928320
0.955316 0.955316 0.955316
0.738382 0.738382 0.738382
0.781906 0.781906 0.781906
0.822976 0.822976 0.822976
0.861181 0.861181 0.861181
0.896108 0.896108 0.896108
0.927347 0.927347 0.927347
0.954487 0.954487 0.954487
0.977116 0.977116 0.977116
0.994822 0.994822 0.994822
0.060365 0.060365 0.060365
0.089878 0.089878 0.089878
0.123258 0.123258 0.123258
0.160093 0.160093 0.160093
0.199971 0.199971 0.199971
0.242482 0.242482 0.242482
0.287215 0.287215 0.287215
0.333757 0.333757 0.333757
0.381698 0.381698 0.381698
0.122087 0.122087 0.122087
0.158813 0.158813 0.158813
0.198597 0.198597 0.198597
0.241027 0.241027 0.241027
0.285692 0.285692 0.285692
0.332181 0.332181 0.332181
0.380081 0.380081 0.380081
0.428983 0.428983 0.428983
0.478474 0.478474 0.478474
0.197226 0.197226 0.197226
0.239575 0.239575 0.239575
0.284172 0.284172 0.284172
0.330606 0.330606 0.330606
0.378466 0.378466 0.378466
0.427341 0.427341 0.427341
0.476819 0.476819 0.476819
0.526490 0.526490 0.526490
0.575940 0.575940 0.575940
0.282653 0.282653 0.282653
0.329033 0.329033 0.329033
0.376852 0.376852 0.376852
0.425700 0.425700 0.425700
0.475165 0.475165 0.475165
0.524835 0.524835 0.524835
0.574300 0.574300 0.574300
0.623148 0.623148 0.623148
0.670967 0.670967 0.670967
0.375240 0.375240 0.375240
0.424060 0.424060 0.424060
0.473510 0.473510 0.473510
0.523181 0.523181 0.523181
0.572659 0.572659 0.572659
0.621534 0.621534 0.621534
0.669394 0.669394 0.669394
0.715828 0.715828 0.715828
0.760425 0.760425 0.760425
0.471856 0.471856 0.471856
0.521526 0.521526 0.521526
0.571017 0.571017 0.571017
0.619919 0.619919 0.619919
0.667819 0.667819 0.667819
0.714308 0.714308 0.714308
0.758973 0.758973 0.758973
0.801403 0.801403 0.801403
0.841187 0.841187 0.841187
0.569374 0.569374 0.569374
0.618302 0.618302 0.618302
0.666243 0.666243 0.666243
0.712785 0.712785 0.712785
0.757518 0.757518 0.757518
0.800029 0.800029 0.800029
0.839907 0.839907 0.839907
0.876742 0.876742 0.876742
0.910122 0.910122 0.910122
0.664665 0.664665 0.664665
0.711261 0.711261 0.711261
0.756060 0.756060 0.756060
0.798652 0.798652 0.798652
0.838625 0.838625 0.838625
0.875568 0.875568 0.875568
0.909069 0.909069 0.909069
0.938718 0.938718 0.938718
0.964103 0.964103 0.964103
0.754600 0.754600 0.754600
0.797272 0.797272 0.797272
0.837339 0.837339 0.837339
0.874390 0.874390 0.874390
0.908012 0.908012 0.908012
0.937796 0.937796 0.937796
0.963330 0.963330 0.963330
0.984201 0.984201 0.984201
1.000000 1.000000 1.000000
