app/src/main/assets/luts/era_1970s.cube
TITLE "Generation Camera 1970s"
LUT_3D_SIZE 5
DOMAIN_MIN 0.0 0.0 0.0
DOMAIN_MAX 1.0 1.0 1.0
0.186716 0.182538 0.173853
0.357541 0.199326 0.195984
0.524892 0.215961 0.217975
0.688769 0.232442 0.239812
0.807533 0.244509 0.255829
0.217867 0.356624 0.212547
0.385288 0.371908 0.234415
0.549235 0.387018 0.256119
0.709708 0.401950 0.277645
0.825959 0.412859 0.293416
0.248409 0.525601 0.250749
0.412427 0.539308 0.272310
0.572970 0.552816 0.293684
0.730039 0.566124 0.314857
0.843777 0.575818 0.330352
0.278344 0.689269 0.288381
0.438957 0.701321 0.309593
0.596097 0.713152 0.330595
0.749763 0.724759 0.351372
0.860988 0.733183 0.366560
0.305392 0.835223 0.322491
0.462869 0.845683 0.343345
0.616872 0.855901 0.363965
0.767401 0.865873 0.384340
0.876310 0.873077 0.399217
0.191568 0.187392 0.281663
0.361894 0.204136 0.303429
0.528746 0.220728 0.325018
0.692125 0.237164 0.346416
0.810521 0.249198 0.362084
0.222624 0.361067 0.319648
0.389547 0.376302 0.341082
0.552995 0.391362 0.362315
0.712970 0.406243 0.383334
0.828853 0.417114 0.398707
0.253073 0.529614 0.357013
0.416591 0.543264 0.378073
0.576636 0.556716 0.398907
0.733207 0.569966 0.419504
0.846577 0.579618 0.434551
0.282913 0.692830 0.393682
0.443028 0.704820 0.414324
0.599669 0.716588 0.434718
0.752837 0.728131 0.454851
0.863693 0.736507 0.469540
0.309875 0.838349 0.426792
0.466853 0.848741 0.447012
0.620358 0.858890 0.466963
0.770388 0.868793 0.486630
0.878929 0.875945 0.500962
0.196405 0.192234 0.389292
0.366232 0.208935 0.410673
0.532586 0.225482 0.431841
0.695466 0.241873 0.452781
0.813494 0.253872 0.468087
0.227367 0.365497 0.426532
0.393791 0.380682 0.447513
0.556741 0.395691 0.468257
0.716217 0.410521 0.488749
0.831732 0.421353 0.503710
0.257722 0.533611 0.463025
0.420742 0.547205 0.483564
0.580288 0.560600 0.503840
0.736361 0.573793 0.523843
0.849362 0.583401 0.538427
0.287468 0.696374 0.498695
0.447085 0.708301 0.518748
0.603227 0.720005 0.538516
0.755896 0.731485 0.557986
0.866385 0.739813 0.572162
0.314343 0.841457 0.530772
0.470823 0.851780 0.550340
0.623829 0.861860 0.569601
0.773361 0.871693 0.588543
0.881534 0.878793 0.602315
0.201227 0.197063 0.496731
0.370556 0.213720 0.517709
0.536412 0.230223 0.538436
0.698793 0.246568 0.558899
0.816453 0.258534 0.573830
0.232096 0.369912 0.533192
0.398021 0.385048 0.553701
0.560473 0.400006 0.573935
0.719450 0.414784 0.593882
0.834597 0.425577 0.608417
0.262356 0.537592 0.568778
0.424878 0.551130 0.588776
0.583925 0.564468 0.608475
0.739499 0.577602 0.627864
0.852133 0.587167 0.641972
0.292008 0.699900 0.603413
0.451126 0.711764 0.622857
0.606770 0.723405 0.641980
0.758941 0.734820 0.660768
0.869061 0.743101 0.674417
0.318797 0.844545 0.634424
0.474778 0.854800 0.653321
0.627285 0.864811 0.671874
0.776319 0.874573 0.690071
0.884124 0.881621 0.703269
0.206035 0.201880 0.603974
0.374866 0.218493 0.624529
0.540222 0.234951 0.644797
0.702105 0.251251 0.664764
0.819397 0.263183 0.679305
0.236810 0.374314 0.639619
0.402236 0.389399 0.659637
0.564189 0.404306 0.679344
0.722668 0.419032 0.698727
0.837447 0.429787 0.712821
0.266976 0.541558 0.674262
0.428999 0.555039 0.693701
0.587548 0.568319 0.712805
0.742624 0.581395 0.731561
0.854889 0.590917 0.745178
0.296534 0.703408 0.707828
0.455154 0.715210 0.726645
0.610299 0.726787 0.745103
0.761971 0.738137 0.763190
0.871724 0.746370 0.776298
0.323236 0.847614 0.737741
0.478719 0.857800 0.755947
0.630728 0.867741 0.773773
0.779262 0.877434 0.791206
0.886699 0.884429 0.803817
