app/src/main/assets/luts/era_2010s.cube
TITLE "Generation Camera 2010s"
LUT_3D_SIZE 5
DOMAIN_MIN 0.0 0.0 0.0
DOMAIN_MAX 1.0 1.0 1.0
0.024529 0.024529 0.024529
0.281262 0.017164 0.017164
0.572829 0.009889 0.009889
0.852951 0.002707 0.002707
1.000000 0.000000 0.000000
0.010434 0.266972 0.010434
0.263380 0.257725 0.003244
0.554108 0.248520 0.000000
0.836339 0.239359 0.000000
1.000000 0.230958 0.000000
0.000000 0.542916 0.000000
0.245651 0.533167 0.000000
0.535353 0.523412 0.000000
0.819505 0.513652 0.000000
1.000000 0.504656 0.000000
0.000000 0.812792 0.000000
0.228088 0.803919 0.000000
0.516575 0.794994 0.000000
0.802461 0.786015 0.000000
1.000000 0.777697 0.000000
0.000000 1.000000 0.000000
0.210701 1.000000 0.000000
0.497786 1.000000 0.000000
0.785218 1.000000 0.000000
1.000000 1.000000 0.000000
0.021821 0.021821 0.275761
0.277847 0.014489 0.266475
0.569269 0.007248 0.257230
0.849807 0.000099 0.248027
1.000000 0.000000 0.239586
0.007790 0.263580 0.257924
0.259994 0.254348 0.248719
0.550541 0.245159 0.239557
0.833152 0.236015 0.230441
1.000000 0.227629 0.222082
0.000000 0.539346 0.240245
0.242295 0.529594 0.231126
0.531780 0.519837 0.222053
0.816277 0.510077 0.213030
1.000000 0.501080 0.204759
0.000000 0.809548 0.222735
0.224765 0.800656 0.213708
0.512999 0.791711 0.204731
0.799194 0.782714 0.195807
1.000000 0.774379 0.187630
0.000000 1.000000 0.205405
0.207413 1.000000 0.196477
0.494210 1.000000 0.187602
0.781915 1.000000 0.178783
1.000000 1.000000 0.170706
0.019124 0.019124 0.561348
0.274438 0.011825 0.551613
0.565708 0.004618 0.541870
0.846655 0.000000 0.532120
1.000000 0.000000 0.523130
0.005158 0.260193 0.542604
0.256613 0.250977 0.532854
0.546972 0.241804 0.523099
0.829957 0.232677 0.513339
1.000000 0.224307 0.504343
0.000000 0.535774 0.523833
0.238946 0.526020 0.514074
0.528207 0.516262 0.504313
0.813042 0.506501 0.494550
1.000000 0.497504 0.485554
0.000000 0.806297 0.505048
0.221448 0.797385 0.495285
0.509423 0.788421 0.485524
0.795920 0.779406 0.475765
1.000000 0.771054 0.466775
0.000000 1.000000 0.486259
0.204132 1.000000 0.476499
0.490634 1.000000 0.466744
0.778605 1.000000 0.456995
1.000000 1.000000 0.448016
0.016440 0.016440 0.837672
0.271034 0.009175 0.828961
0.562145 0.002001 0.820193
0.843494 0.000000 0.811367
1.000000 0.000000 0.803185
0.002538 0.256812 0.820855
0.253238 0.247612 0.812033
0.543403 0.238455 0.803157
0.826754 0.229345 0.794226
1.000000 0.220991 0.785950
0.000000 0.532202 0.803827
0.235602 0.522446 0.794900
0.524633 0.512686 0.785922
0.809798 0.502925 0.776893
1.000000 0.493928 0.768528
0.000000 0.803039 0.786599
0.218138 0.794107 0.777574
0.505847 0.785124 0.768500
0.792639 0.776091 0.759378
1.000000 0.767723 0.750932
0.000000 1.000000 0.769185
0.200858 1.000000 0.760067
0.487058 1.000000 0.750903
0.775289 1.000000 0.741696
1.000000 1.000000 0.733173
0.013768 0.013768 1.000000
0.267635 0.006536 1.000000
0.558580 0.000000 1.000000
0.840325 0.000000 1.000000
1.000000 0.000000 1.000000
0.000000 0.253437 1.000000
0.249869 0.244252 1.000000
0.539832 0.235113 1.000000
0.823543 0.226019 1.000000
1.000000 0.217682 1.000000
0.000000 0.528629 1.000000
0.232265 0.518871 1.000000
0.521058 0.509111 1.000000
0.806548 0.499348 1.000000
1.000000 0.490352 1.000000
0.000000 0.799773 1.000000
0.214835 0.790823 1.000000
0.502271 0.781821 1.000000
0.789352 0.772769 1.000000
1.000000 0.764385 0.996484
0.000000 1.000000 1.000000
0.197591 1.000000 1.000000
0.483483 1.000000 0.996461
0.771966 1.000000 0.989268
1.000000 1.000000 0.982557
