app/src/main/assets/luts/era_1980s.cube
TITLE "Generation Camera 1980s"
LUT_3D_SIZE 9
DOMAIN_MIN 0.0 0.0 0.0
DOMAIN_MAX 1.0 1.0 1.0
0.010000 0.010000 0.010000
0.115862 0.014037 0.013746
0.268348 0.019889 0.019175
0.446094 0.026768 0.025558
0.628256 0.033888 0.032164
0.794741 0.040461 0.038262
0.926226 0.045698 0.043122
0.981207 0.047901 0.045166
0.981207 0.047901 0.045166
0.017447 0.111663 0.016702
0.103403 0.104801 0.019123
0.249203 0.100432 0.023714
0.423368 0.097511 0.029385
0.605060 0.095325 0.035405
0.774142 0.093134 0.041046
0.911234 0.090180 0.045575
0.982067 0.085078 0.047688
0.981895 0.077565 0.047177
0.028159 0.255763 0.026343
0.095754 0.245275 0.027942
0.234506 0.237248 0.032119
0.404477 0.230534 0.037474
0.584881 0.224519 0.043278
0.755621 0.218562 0.048800
0.897373 0.211991 0.053311
0.984722 0.203870 0.055828
0.984484 0.192942 0.055074
0.040861 0.423295 0.037775
0.091447 0.410809 0.038684
0.222652 0.400513 0.042522
0.387812 0.391318 0.047638
0.566223 0.382733 0.053301
0.737862 0.374236 0.058782
0.883504 0.365273 0.063350
0.984571 0.355250 0.066275
0.987630 0.342491 0.065495
0.054277 0.596250 0.049849
0.089353 0.583347 0.050203
0.212653 0.572172 0.053778
0.372547 0.561826 0.058730
0.548424 0.551949 0.064329
0.720354 0.542150 0.069844
0.869229 0.532007 0.074546
0.976652 0.521059 0.077704
0.990821 0.508011 0.077292
0.067129 0.758045 0.061416
0.088286 0.746199 0.061351
0.203465 0.735506 0.064740
0.357808 0.725329 0.069605
0.530800 0.715436 0.075215
0.702595 0.705567 0.080841
0.854201 0.695434 0.085753
0.967403 0.684716 0.089220
0.993666 0.672534 0.089315
0.078143 0.893603 0.071329
0.087012 0.884154 0.070982
0.193981 0.875266 0.074262
0.342668 0.866571 0.079116
0.512631 0.857946 0.084814
0.684081 0.849245 0.090627
0.838113 0.840302 0.095824
0.956668 0.830932 0.099676
0.995930 0.820638 0.100417
0.086042 0.989042 0.078437
0.085556 0.983213 0.078000
0.183025 0.977432 0.081197
0.326126 0.971552 0.086116
0.493133 0.965517 0.091979
0.664269 0.959266 0.098055
0.820661 0.952733 0.103614
0.944348 0.945840 0.107927
0.997514 0.938389 0.109448
0.086709 0.997039 0.079038
0.086709 0.997039 0.079038
0.166892 0.997284 0.082035
0.305072 0.997691 0.087238
0.469909 0.998148 0.093515
0.641500 0.998591 0.100134
0.800868 0.998971 0.106366
0.930017 0.999256 0.111479
0.998256 0.999399 0.114204
0.011679 0.011629 0.122918
0.113564 0.015379 0.116199
0.264757 0.021050 0.111426
0.441812 0.027776 0.107920
0.623885 0.034767 0.105034
0.790880 0.041238 0.102095
0.923465 0.046401 0.098404
0.981432 0.048608 0.092480
0.981396 0.048493 0.084826
0.018557 0.109086 0.109458
0.100811 0.102099 0.102193
0.245302 0.097700 0.097336
0.418766 0.094778 0.093874
0.600361 0.092616 0.091153
0.769940 0.090475 0.088490
0.908104 0.087593 0.085180
0.982153 0.082646 0.079996
0.981951 0.075161 0.072493
0.028917 0.251803 0.100167
0.093073 0.241191 0.092821
0.230474 0.233118 0.088292
0.399706 0.226383 0.085273
0.579977 0.220373 0.083097
0.751175 0.214443 0.081072
0.893952 0.207918 0.078486
0.984714 0.199925 0.074427
0.984450 0.188999 0.067381
0.041322 0.418572 0.094031
0.088740 0.405964 0.086737
0.218550 0.395608 0.082628
0.382930 0.386375 0.080146
0.561168 0.377775 0.078613
0.733222 0.369282 0.077329
0.879837 0.360338 0.075572
0.982412 0.350349 0.072604
0.987536 0.337628 0.066340
0.054498 0.591367 0.090068
0.086680 0.578344 0.082957
0.208539 0.567095 0.079353
0.367608 0.556695 0.077494
0.543270 0.546783 0.076693
0.715568 0.536965 0.076240
0.865363 0.526814 0.075408
0.974242 0.515902 0.077247
0.990727 0.502907 0.076924
0.067168 0.753566 0.087213
0.085708 0.741598 0.080416
0.199395 0.730816 0.077393
0.352865 0.720568 0.076237
0.525593 0.710620 0.076250
0.697732 0.700729 0.080312
0.850220 0.690590 0.085251
0.964797 0.679871 0.088766
0.993588 0.667696 0.088957
0.078057 0.890040 0.084331
0.084590 0.880463 0.077980
0.190011 0.871469 0.075614
0.337813 0.862694 0.078657
0.507496 0.854005 0.084335
0.679219 0.845250 0.090149
0.834045 0.836260 0.095368
0.953886 0.826845 0.099262
0.995871 0.816512 0.100104
0.085891 0.986862 0.080232
0.085363 0.980902 0.077827
0.179328 0.974992 0.080883
0.321476 0.969001 0.085755
0.488111 0.962864 0.091592
0.659427 0.956518 0.097662
0.816522 0.949896 0.103238
0.941404 0.942916 0.107587
0.997476 0.935380 0.109215
0.086709 0.997039 0.079038
0.086709 0.997039 0.079038
0.163576 0.997274 0.081910
0.300705 0.997678 0.087073
0.465067 0.998135 0.093330
0.636733 0.998579 0.099949
0.796697 0.998961 0.106202
0.926939 0.999250 0.111356
0.998256 0.999399 0.114204
0.014123 0.013999 0.286663
0.112127 0.017567 0.276463
0.262012 0.023154 0.267896
0.438308 0.029816 0.260369
0.620189 0.036765 0.253361
0.787566 0.043213 0.246313
0.921130 0.048374 0.238630
0.982078 0.050653 0.229077
0.982025 0.050485 0.217897
0.020637 0.107422 0.266379
0.099274 0.100404 0.255645
0.242415 0.096063 0.246930
0.415084 0.093221 0.239372
0.596449 0.091162 0.232435
0.766370 0.089144 0.225548
0.905461 0.086403 0.218105
0.982690 0.081677 0.209086
0.982476 0.074278 0.197905
0.030824 0.248764 0.249525
0.091618 0.238105 0.238640
0.227603 0.230057 0.230131
0.395974 0.223371 0.222887
0.575950 0.217429 0.216358
0.747421 0.211585 0.209958
0.891050 0.205163 0.203069
0.985154 0.197350 0.194945
0.984878 0.186472 0.184046
0.043087 0.414686 0.235245
0.087408 0.402017 0.224324
0.215736 0.391655 0.216110
0.379188 0.382438 0.209274
0.557062 0.373872 0.203252
0.729318 0.365428 0.197444
0.876707 0.356546 0.191220
0.980636 0.346629 0.183918
0.987875 0.333984 0.173672
0.056153 0.587164 0.222768
0.085511 0.574066 0.211925
0.205822 0.562783 0.204085
0.363894 0.552366 0.197741
0.539121 0.542454 0.192314
0.711548 0.532649 0.187192
0.862037 0.522521 0.181733
0.972166 0.511605 0.175263
0.990958 0.498605 0.165939
0.068745 0.749563 0.211214
0.084741 0.737506 0.200559
0.196812 0.726663 0.193163
0.349215 0.716368 0.187385
0.521435 0.706387 0.182632
0.693601 0.696451 0.178281
0.846685 0.686268 0.173676
0.962436 0.675510 0.168134
0.993736 0.663305 0.159894
0.079588 0.886745 0.199597
0.083859 0.877061 0.189238
0.187596 0.867977 0.182348
0.334215 0.859114 0.177203
0.503275 0.850341 0.173197
0.674962 0.841511 0.169692
0.830331 0.832452 0.166023
0.951278 0.822971 0.161497
0.995963 0.812579 0.154497
0.087408 0.984778 0.186834
0.086752 0.978691 0.177055
0.176992 0.972644 0.170556
0.317884 0.966533 0.166106
0.483846 0.960284 0.162911
0.655075 0.953834 0.160324
0.812656 0.947113 0.157666
0.938579 0.940037 0.154236
0.997534 0.932410 0.148628
0.088154 0.997146 0.169506
0.088012 0.997136 0.160628
0.161391 0.997348 0.154542
0.297208 0.997736 0.150979
0.460838 0.998178 0.148826
0.632353 0.998612 0.147421
0.792733 0.998986 0.146078
0.923940 0.999269 0.144085
0.998313 0.999418 0.140309
0.016977 0.016768 0.477015
0.111148 0.020179 0.464986
0.259687 0.025706 0.454172
0.435172 0.032328 0.444118
0.616791 0.039257 0.434445
0.784479 0.045707 0.424734
0.918951 0.050890 0.414524
0.982888 0.053267 0.402877
0.982828 0.053071 0.389829
0.023181 0.106224 0.453157
0.098251 0.099203 0.440620
0.240001 0.094946 0.429599
0.411816 0.092212 0.419435
0.592877 0.090283 0.409734
0.763060 0.088415 0.400062
0.903002 0.085843 0.389944
0.983408 0.081368 0.378607
0.983191 0.074082 0.365424
0.033242 0.246162 0.431775
0.090728 0.235482 0.419024
0.225254 0.227485 0.408077
0.392700 0.220872 0.398083
0.572299 0.215025 0.388632
0.743956 0.209294 0.379273
0.888351 0.203000 0.369517
0.985778 0.195400 0.358808
0.985498 0.184598 0.345734
0.045411 0.411180 0.412244
0.086695 0.398473 0.399374
0.213495 0.388129 0.388584
0.375948 0.378951 0.378849
0.553368 0.370442 0.369743
0.725729 0.362072 0.360799
0.873796 0.353276 0.351514
0.979002 0.343457 0.341342
0.988402 0.330919 0.328752
0.058415 0.583260 0.394040
0.085016 0.570108 0.381142
0.203729 0.558810 0.370579
0.360727 0.548398 0.361180
0.535421 0.538505 0.352502
0.707868 0.528734 0.344065
0.858944 0.518651 0.335347
0.970248 0.507788 0.325790
0.991399 0.494852 0.313871
0.070977 0.745765 0.376506
0.084501 0.733637 0.363667
0.194905 0.722747 0.353392
0.346158 0.712422 0.344395
0.517764 0.702423 0.336220
0.689864 0.692482 0.328367
0.843442 0.682301 0.320303
0.960266 0.671551 0.311454
0.994102 0.659367 0.300359
0.081823 0.883558 0.358865
0.083910 0.873781 0.346169
0.185911 0.864619 0.336232
0.331302 0.855688 0.327695
0.499665 0.846860 0.320084
0.671199 0.837982 0.312886
0.826968 0.828883 0.305551
0.948888 0.819366 0.297494
0.996268 0.808950 0.287367
0.089677 0.982718 0.340217
0.088968 0.976516 0.327938
0.175562 0.970348 0.318190
0.315146 0.964130 0.310161
0.480326 0.957782 0.303168
0.651313 0.951240 0.296685
0.809202 0.944434 0.290147
0.935998 0.937277 0.282954
0.997794 0.929577 0.273934
0.090529 0.997320 0.317721
0.090341 0.997306 0.306057
0.160302 0.997501 0.296557
0.294732 0.997873 0.289189
0.457489 0.998301 0.283003
0.628664 0.998720 0.277458
0.789250 0.999083 0.271975
0.921223 0.999358 0.265943
0.998570 0.999506 0.258421
0.019889 0.019592 0.670132
0.110297 0.022872 0.657981
0.257488 0.028363 0.646567
0.432148 0.034968 0.635601
0.613485 0.041902 0.624848
0.781453 0.048377 0.614037
0.916801 0.053604 0.602853
0.983750 0.056107 0.590663
0.983689 0.055906 0.577380
0.025834 0.105179 0.646043
0.097406 0.098180 0.633399
0.237761 0.094030 0.621705
0.408704 0.091429 0.610534
0.589434 0.089654 0.599636
0.759844 0.087961 0.588726
0.900598 0.085583 0.577473
0.984195 0.081386 0.565357
0.983983 0.074241 0.551810
0.035817 0.243725 0.623340
0.090066 0.233048 0.610408
0.223124 0.225123 0.598640
0.389623 0.218606 0.587474
0.568811 0.212877 0.576646
0.740612 0.207282 0.565853
0.885728 0.201141 0.554748
0.985491 0.193744 0.542947
0.986204 0.183080 0.529354
0.047941 0.407834 0.601676
0.086260 0.395110 0.588530
0.211519 0.384802 0.576761
0.372945 0.375682 0.565680
0.549871 0.367251 0.555009
0.722287 0.358976 0.544426
0.870979 0.350289 0.533572
0.977414 0.340591 0.522042
0.989019 0.328185 0.508701
0.060931 0.579492 0.580766
0.084848 0.566303 0.567476
0.201949 0.555006 0.555768
0.357840 0.544615 0.544842
0.531953 0.534760 0.534403
0.704362 0.525040 0.524115
0.855963 0.515020 0.513600
0.968386 0.504229 0.502439
0.991929 0.491380 0.489492
0.073511 0.742064 0.560199
0.084641 0.729877 0.546830
0.193361 0.718954 0.535234
0.343424 0.708611 0.524521
0.514361 0.698608 0.514380
0.686328 0.688675 0.504458
0.840329 0.678511 0.494362
0.958160 0.667786 0.483656
0.994554 0.655640 0.471237
0.084408 0.880416 0.539435
0.084394 0.870556 0.526048
0.184638 0.861325 0.514604
0.328758 0.852337 0.504152
0.496361 0.843462 0.494363
0.667664 0.834547 0.484869
0.823754 0.825418 0.475259
0.946570 0.815877 0.465083
0.996653 0.805450 0.453319
0.092344 0.980652 0.517807
0.091608 0.974343 0.504634
0.174596 0.968058 0.493194
0.312824 0.961739 0.483039
0.477153 0.955297 0.473646
0.647811 0.948670 0.464629
0.805916 0.941784 0.455564
0.933500 0.934554 0.445982
0.998129 0.926791 0.434993
0.093355 0.997520 0.493174
0.093147 0.997506 0.480318
0.159737 0.997684 0.468953
0.292727 0.998041 0.459204
0.454536 0.998453 0.450347
0.625277 0.998857 0.441980
0.785965 0.999208 0.433662
0.918606 0.999472 0.424913
0.998899 0.999619 0.415021
0.022502 0.022127 0.842649
0.109238 0.025303 0.832122
0.255115 0.030780 0.821849
0.428982 0.037393 0.811702
0.610062 0.044355 0.801579
0.778328 0.050878 0.791344
0.914556 0.056175 0.780824
0.984557 0.058828 0.769667
0.984504 0.058647 0.757745
0.028241 0.103969 0.821738
0.096403 0.097013 0.810696
0.235390 0.092993 0.800036
0.405488 0.090545 0.789557
0.585906 0.088947 0.779143
0.756555 0.087452 0.768645
0.898121 0.085290 0.757877
0.984945 0.081399 0.746544
0.984745 0.074419 0.734228
0.038195 0.241178 0.801082
0.089293 0.230522 0.789649
0.220906 0.222689 0.778740
0.386478 0.216288 0.768073
0.565270 0.210695 0.757521
0.737220 0.205257 0.746918
0.883055 0.199291 0.736064
0.984141 0.192083 0.724718
0.986896 0.181616 0.712192
0.050321 0.404424 0.780604
0.085760 0.391698 0.768837
0.209498 0.381443 0.757742
0.369913 0.372397 0.746958
0.546354 0.364061 0.736344
0.718824 0.355898 0.725720
0.868133 0.347339 0.714869
0.975780 0.337780 0.703535
0.989634 0.325528 0.690991
0.063346 0.575692 0.760235
0.084664 0.562477 0.748185
0.200167 0.551195 0.736960
0.354962 0.540837 0.726121
0.528497 0.531033 0.715512
0.700862 0.521380 0.704941
0.852973 0.511439 0.694174
0.966494 0.500736 0.682939
0.992468 0.487993 0.670493
0.075993 0.738345 0.739795
0.084812 0.726108 0.727511
0.191860 0.715162 0.716199
0.340741 0.704811 0.705355
0.511004 0.694815 0.694811
0.682824 0.684901 0.684357
0.837226 0.674766 0.673744
0.956038 0.664078 0.662686
0.995019 0.651986 0.650450
0.086987 0.877256 0.718989
0.085973 0.867327 0.706523
0.183456 0.858025 0.695145
0.326305 0.848986 0.684338
0.493137 0.840072 0.673905
0.664190 0.831128 0.663621
0.820570 0.821978 0.653223
0.944249 0.812422 0.642407
0.997056 0.801994 0.630488
0.095054 0.978550 0.697395
0.094316 0.972138 0.684895
0.173768 0.965742 0.673361
0.310637 0.959326 0.662618
0.474096 0.952796 0.652332
0.644398 0.946088 0.642261
0.802682 0.939128 0.632127
0.931011 0.931830 0.621608
0.998482 0.924011 0.610104
0.096277 0.997722 0.673615
0.096074 0.997708 0.661128
0.159363 0.997872 0.649484
0.290905 0.998215 0.638875
0.451742 0.998612 0.628828
0.622012 0.999002 0.619089
0.782756 0.999339 0.609363
0.916013 0.999594 0.599316
0.999246 0.999739 0.588467
0.024465 0.024031 0.971625
0.107638 0.027127 0.964508
0.252267 0.032615 0.957211
0.425418 0.039260 0.949738
0.606316 0.046273 0.942084
0.774944 0.052869 0.934223
0.912099 0.058259 0.926100
0.985213 0.061088 0.917589
0.985174 0.060951 0.908596
0.030050 0.102270 0.957363
0.094903 0.095379 0.949640
0.232584 0.091507 0.941799
0.401905 0.089233 0.933818
0.582081 0.087831 0.925684
0.753028 0.086554 0.917361
0.895450 0.084631 0.908783
0.985563 0.081069 0.899836
0.985381 0.074275 0.890304
0.040022 0.238239 0.942285
0.088064 0.227621 0.934021
0.218290 0.219894 0.925717
0.382999 0.213624 0.917318
0.561459 0.208186 0.908803
0.733615 0.202923 0.900122
0.880208 0.197149 0.891200
0.982636 0.190149 0.881929
0.987483 0.179901 0.871986
0.052199 0.400718 0.926524
0.084849 0.388003 0.917764
0.207118 0.377812 0.909054
0.366582 0.368855 0.900299
0.542596 0.360627 0.891468
0.715173 0.352591 0.882503
0.865136 0.344174 0.873312
0.974014 0.334770 0.863776
0.990164 0.322690 0.853535
0.065306 0.571684 0.910173
0.084113 0.558454 0.900958
0.198068 0.547194 0.891891
0.351821 0.536880 0.882836
0.524832 0.527138 0.873752
0.697199 0.517562 0.864567
0.849856 0.507711 0.855178
0.964491 0.497109 0.845451
0.992940 0.484485 0.835004
0.078067 0.734490 0.893243
0.084662 0.722210 0.883611
0.190082 0.711245 0.874229
0.337829 0.700894 0.864922
0.507468 0.690912 0.855636
0.679184 0.681025 0.846290
0.834017 0.670929 0.836766
0.953824 0.660286 0.826917
0.995435 0.648259 0.816352
0.089208 0.874008 0.875658
0.088224 0.864022 0.865654
0.182039 0.854644 0.855973
0.323662 0.845560 0.846451
0.489767 0.836612 0.837008
0.660605 0.827644 0.827548
0.817299 0.818479 0.817944
0.941851 0.808915 0.808030
0.997420 0.798494 0.797431
0.097453 0.976383 0.857234
0.096739 0.969869 0.846926
0.172748 0.963364 0.836922
0.308296 0.956855 0.827211
0.470923 0.950241 0.817643
0.640899 0.943456 0.808109
0.799380 0.936427 0.798466
0.928459 0.929065 0.788536
0.998806 0.921194 0.777981
0.098942 0.997900 0.837264
0.098770 0.997888 0.826674
0.158848 0.998041 0.816359
0.288973 0.998372 0.806496
0.448867 0.998756 0.796856
0.618688 0.999134 0.787318
0.779498 0.999459 0.777728
0.913370 0.999706 0.767893
0.999568 0.999850 0.757543
0.024898 0.024451 1.000000
0.104685 0.027520 1.000000
0.248247 0.033076 1.000000
0.420886 0.039814 1.000000
0.601813 0.046949 1.000000
0.770994 0.053692 1.000000
0.909223 0.059256 1.000000
0.985575 0.062352 1.000000
0.985575 0.062352 1.000000
0.030441 0.099335 1.000000
0.092156 0.092560 1.000000
0.228706 0.088892 1.000000
0.397448 0.086856 1.000000
0.577579 0.085723 1.000000
0.749001 0.084742 1.000000
0.892416 0.083143 1.000000
0.985944 0.080005 1.000000
0.985800 0.073468 0.998030
0.040565 0.234319 1.000000
0.085720 0.223791 1.000000
0.214728 0.216228 1.000000
0.378763 0.210155 1.000000
0.557077 0.204942 1.000000
0.729601 0.199931 1.000000
0.877065 0.194411 0.998237
0.980890 0.187635 0.992722
0.987878 0.177624 0.986852
0.052950 0.396305 1.000000
0.082978 0.383650 1.000000
0.203943 0.373577 1.000000
0.362634 0.364768 1.000000
0.538376 0.356699 0.998433
0.711164 0.348800 0.992942
0.861868 0.340537 0.987168
0.972033 0.331301 0.981092
0.990532 0.319406 0.974642
0.066320 0.567222 1.000000
0.082786 0.554017 1.000000
0.195329 0.542816 0.998630
0.348139 0.532552 0.993149
0.520732 0.522879 0.987394
0.693205 0.513388 0.981378
0.846491 0.503635 0.975097
0.962298 0.493142 0.968524
0.993277 0.480648 0.961560
0.079381 0.730376 0.998838
0.083838 0.718054 0.993382
0.187703 0.707074 0.987625
0.334410 0.696726 0.981607
0.503526 0.686763 0.975351
0.675237 0.676909 0.968865
0.830584 0.666855 0.962135
0.951443 0.656264 0.955124
0.995742 0.644307 0.947714
0.090717 0.870600 0.987950
0.089787 0.860557 0.981890
0.180059 0.851105 0.975587
0.320543 0.841978 0.969073
0.486017 0.832999 0.962362
0.656735 0.824011 0.955454
0.813826 0.814834 0.948326
0.939307 0.805265 0.940931
0.997698 0.794855 0.933140
0.099188 0.974118 0.975982
0.098522 0.967503 0.969351
0.171204 0.960890 0.962519
0.305513 0.954290 0.955541
0.467399 0.947594 0.948411
0.637136 0.940736 0.941120
0.795892 0.933640 0.933638
0.925777 0.926216 0.925903
0.999060 0.918295 0.917791
0.100996 0.998033 0.962782
0.100878 0.998026 0.955590
0.157852 0.998170 0.948230
0.286635 0.998493 0.940806
0.445669 0.998869 0.933285
0.615122 0.999237 0.925651
0.776069 0.999555 0.917863
0.910608 0.999795 0.909851
0.999829 0.999940 0.901508
0.024898 0.024451 1.000000
0.101259 0.027388 1.000000
0.243692 0.032899 1.000000
0.415798 0.039615 1.000000
0.596769 0.046749 1.000000
0.766549 0.053514 1.000000
0.905910 0.059122 1.000000
0.985575 0.062352 1.000000
0.985575 0.062352 1.000000
0.030182 0.095850 1.000000
0.088715 0.089079 1.000000
0.224081 0.085498 1.000000
0.392240 0.083574 1.000000
0.572369 0.082578 1.000000
0.744344 0.081758 1.000000
0.888840 0.080340 1.000000
0.985892 0.077483 1.000000
0.985759 0.071111 1.000000
0.040217 0.229719 1.000000
0.082433 0.219170 1.000000
0.210185 0.211654 1.000000
0.373566 0.205654 1.000000
0.551809 0.200539 1.000000
0.724817 0.195647 1.000000
0.873302 0.190287 1.000000
0.978664 0.183742 1.000000
0.987856 0.173984 1.000000
0.052552 0.391155 1.000000
0.079898 0.378457 1.000000
0.199533 0.368395 1.000000
0.357498 0.359621 1.000000
0.533113 0.351626 1.000000
0.706352 0.343866 1.000000
0.858009 0.335762 1.000000
0.969615 0.326704 1.000000
0.990541 0.315013 1.000000
0.065911 0.562055 1.000000
0.079960 0.548786 1.000000
0.191120 0.537573 1.000000
0.343194 0.527354 1.000000
0.515612 0.517750 1.000000
0.688439 0.508349 1.000000
0.842577 0.498705 1.000000
0.959718 0.488334 1.000000
0.993322 0.475988 1.000000
0.079019 0.725683 1.000000
0.081419 0.713307 1.000000
0.183881 0.702307 1.000000
0.329762 0.691962 1.000000
0.498604 0.682022 1.000000
0.670561 0.672207 1.000000
0.826649 0.662207 1.000000
0.948727 0.651679 1.000000
0.995821 0.639810 1.000000
0.090597 0.866845 1.000000
0.089759 0.856736 1.000000
0.176690 0.847208 1.000000
0.316251 0.838040 1.000000
0.481342 0.829035 1.000000
0.652190 0.820034 1.000000
0.809899 0.810854 1.000000
0.936476 0.801290 1.000000
0.997806 0.790903 1.000000
0.099372 0.971673 1.000000
0.098805 0.964952 1.000000
0.168352 0.958231 1.000000
0.301633 0.951543 1.000000
0.463018 0.944770 1.000000
0.632759 0.937844 1.000000
0.792001 0.930688 1.000000
0.922851 0.923210 1.000000
0.999192 0.915246 1.000000
0.101607 0.998072 1.000000
0.101607 0.998072 1.000000
0.155660 0.998215 1.000000
0.283302 0.998540 1.000000
0.441703 0.998917 1.000000
0.611011 0.999287 1.000000
0.772290 0.999606 1.000000
0.907638 0.999849 1.000000
1.000000 1.000000 1.000000
