app/src/main/assets/luts/era_1950s.cube
TITLE "Generation Camera 1950s"
LUT_3D_SIZE 9
DOMAIN_MIN 0.0 0.0 0.0
DOMAIN_MAX 1.0 1.0 1.0
0.020000 0.020000 0.020000
0.145708 0.020000 0.020000
0.322272 0.020000 0.020000
0.522423 0.020000 0.020000
0.718890 0.020000 0.020000
0.884404 0.020000 0.020000
0.970000 0.020000 0.020000
0.970000 0.020000 0.020000
0.970000 0.020000 0.020000
0.020000 0.116434 0.020000
0.123382 0.105334 0.020000
0.294609 0.094164 0.020000
0.493495 0.083388 0.020000
0.692584 0.073020 0.020000
0.864419 0.063074 0.020000
0.970000 0.053564 0.020000
0.970000 0.046071 0.020000
0.970000 0.045305 0.020000
0.020000 0.249313 0.020000
0.101905 0.235847 0.020000
0.266684 0.221552 0.020000
0.463190 0.207478 0.020000
0.663989 0.193669 0.020000
0.841624 0.180138 0.020000
0.968640 0.166900 0.020000
0.970000 0.155804 0.020000
0.970000 0.154701 0.020000
0.020000 0.404380 0.020000
0.081711 0.389991 0.020000
0.239463 0.374064 0.020000
0.432980 0.358132 0.020000
0.634880 0.342320 0.020000
0.817706 0.326643 0.020000
0.954002 0.311116 0.020000
0.970000 0.297437 0.020000
0.970000 0.296119 0.020000
0.020000 0.567379 0.020000
0.062930 0.553402 0.020000
0.212983 0.537219 0.020000
0.402956 0.520929 0.020000
0.605347 0.504554 0.020000
0.792755 0.488170 0.020000
0.937723 0.471792 0.020000
0.970000 0.456692 0.020000
0.970000 0.455283 0.020000
0.020000 0.724052 0.020000
0.045653 0.711680 0.020000
0.187377 0.696648 0.020000
0.373198 0.681438 0.020000
0.575483 0.665948 0.020000
0.766863 0.650295 0.020000
0.919892 0.634505 0.020000
0.970000 0.619291 0.020000
0.970000 0.617914 0.020000
0.020000 0.860145 0.020000
0.029971 0.850427 0.020000
0.162753 0.837971 0.020000
0.343738 0.825195 0.020000
0.545376 0.812083 0.020000
0.740119 0.798600 0.020000
0.900602 0.784836 0.020000
0.970000 0.770956 0.020000
0.970000 0.769735 0.020000
0.020000 0.961401 0.020000
0.020000 0.955245 0.020000
0.139203 0.946789 0.020000
0.314740 0.937873 0.020000
0.515076 0.928512 0.020000
0.712616 0.918663 0.020000
0.879942 0.908364 0.020000
0.970000 0.897655 0.020000
0.970000 0.896466 0.020000
0.020000 0.970000 0.020000
0.020000 0.970000 0.020000
0.118609 0.970000 0.020000
0.288177 0.970000 0.020000
0.486246 0.970000 0.020000
0.685485 0.970000 0.020000
0.858486 0.970000 0.020000
0.970000 0.970000 0.020000
0.970000 0.970000 0.020000
0.020000 0.020000 0.117505
0.136913 0.020000 0.104695
0.311437 0.020000 0.092019
0.511118 0.020000 0.079859
0.708632 0.020000 0.068235
0.876654 0.020000 0.057168
0.970000 0.020000 0.046680
0.970000 0.020000 0.038305
0.970000 0.020000 0.037094
0.020000 0.113689 0.104663
0.114979 0.103053 0.092992
0.283913 0.092051 0.081085
0.482099 0.081438 0.069687
0.682029 0.071230 0.058816
0.856190 0.061439 0.048492
0.970000 0.052080 0.038735
0.970000 0.044450 0.030735
0.970000 0.043721 0.029680
0.020000 0.245873 0.092291
0.093962 0.232897 0.081429
0.256170 0.218740 0.070015
0.451737 0.204832 0.059129
0.653153 0.191186 0.048789
0.832907 0.177817 0.039015
0.963489 0.164739 0.029827
0.970000 0.153402 0.022088
0.970000 0.152346 0.021105
0.020000 0.400582 0.080410
0.074302 0.386702 0.070344
0.229170 0.370815 0.059442
0.421505 0.355036 0.049085
0.623794 0.339378 0.039295
0.808529 0.323856 0.030089
0.948197 0.308484 0.021489
0.970000 0.294490 0.020000
0.970000 0.293226 0.020000
0.020000 0.563558 0.069037
0.056089 0.550067 0.059756
0.203005 0.533876 0.049383
0.391494 0.517651 0.039575
0.594045 0.501407 0.030352
0.783146 0.485158 0.021734
0.931288 0.468917 0.020000
0.970000 0.453457 0.020000
0.970000 0.452103 0.020000
0.020000 0.720544 0.058194
0.039416 0.708595 0.049681
0.177767 0.693524 0.039856
0.361797 0.678280 0.030616
0.563995 0.662874 0.021979
0.756851 0.647323 0.020000
0.912854 0.631638 0.020000
0.970000 0.616047 0.020000
0.970000 0.614722 0.020000
0.020000 0.857286 0.047899
0.024373 0.847885 0.040138
0.153546 0.835361 0.030880
0.332504 0.822522 0.022225
0.533738 0.809381 0.020000
0.729735 0.795952 0.020000
0.892985 0.782249 0.020000
0.970000 0.768287 0.020000
0.970000 0.766826 0.020000
0.020000 0.959525 0.038173
0.020000 0.953539 0.031144
0.130435 0.944987 0.022472
0.303708 0.935978 0.020000
0.503363 0.926527 0.020000
0.701889 0.916647 0.020000
0.871774 0.906351 0.020000
0.970000 0.895656 0.020000
0.970000 0.894159 0.020000
0.020000 0.970000 0.030703
0.020000 0.970000 0.024086
0.110273 0.970000 0.020000
0.277365 0.970000 0.020000
0.474534 0.970000 0.020000
0.674455 0.970000 0.020000
0.849803 0.970000 0.020000
0.970000 0.970000 0.020000
0.970000 0.970000 0.020000
0.020000 0.020000 0.251990
0.128190 0.020000 0.236268
0.300431 0.020000 0.219954
0.499404 0.020000 0.203967
0.697785 0.020000 0.188328
0.868249 0.020000 0.173058
0.970000 0.020000 0.158179
0.970000 0.020000 0.145574
0.970000 0.020000 0.143780
0.020000 0.110964 0.235787
0.106725 0.100752 0.221217
0.273140 0.089829 0.205595
0.470390 0.079299 0.190302
0.670965 0.069175 0.175357
0.847354 0.059473 0.160781
0.970000 0.050205 0.146594
0.970000 0.042388 0.134225
0.970000 0.041668 0.132616
0.020000 0.242446 0.219875
0.086221 0.229957 0.206051
0.245673 0.215850 0.190748
0.440067 0.201995 0.175793
0.641892 0.188405 0.161206
0.823638 0.175095 0.147006
0.957794 0.162078 0.133214
0.970000 0.150411 0.120823
0.970000 0.149362 0.119265
0.020000 0.396788 0.204274
0.067107 0.383417 0.191194
0.218984 0.367551 0.176229
0.409909 0.351796 0.161631
0.612372 0.336165 0.147419
0.798862 0.320672 0.133615
0.941868 0.305333 0.120236
0.970000 0.290906 0.107865
0.970000 0.289646 0.106361
0.020000 0.559733 0.189005
0.049477 0.546731 0.176665
0.193165 0.530532 0.162056
0.380008 0.514302 0.147833
0.582496 0.498055 0.134016
0.773116 0.481806 0.120624
0.924360 0.465569 0.107679
0.970000 0.449616 0.095373
0.970000 0.448263 0.093926
0.020000 0.717025 0.174086
0.033421 0.705501 0.162481
0.168308 0.690394 0.148246
0.350456 0.675115 0.134417
0.552355 0.659678 0.121013
0.746494 0.644098 0.108054
0.905362 0.628387 0.095559
0.970000 0.612562 0.083548
0.970000 0.610958 0.081977
0.020000 0.854407 0.159537
0.020000 0.845328 0.148660
0.144504 0.832738 0.134819
0.321344 0.819835 0.121402
0.522042 0.806634 0.108429
0.719086 0.793147 0.095921
0.884965 0.779390 0.083895
0.970000 0.765376 0.072373
0.970000 0.763474 0.070535
0.020000 0.957622 0.145379
0.020000 0.951813 0.135221
0.121844 0.943165 0.121791
0.292764 0.934064 0.108805
0.491647 0.924523 0.096283
0.690983 0.914556 0.084243
0.863261 0.904177 0.072705
0.970000 0.893401 0.061691
0.970000 0.891554 0.059619
0.020000 0.970000 0.134176
0.020000 0.970000 0.124332
0.102129 0.970000 0.110934
0.266654 0.970000 0.098020
0.462831 0.970000 0.085611
0.663335 0.970000 0.073728
0.840843 0.970000 0.062392
0.968029 0.970000 0.051624
0.970000 0.970000 0.049250
0.020000 0.020000 0.408806
0.119647 0.020000 0.391885
0.289513 0.020000 0.373599
0.487688 0.020000 0.355452
0.686845 0.020000 0.337465
0.859661 0.020000 0.319660
0.970000 0.020000 0.302057
0.970000 0.020000 0.286468
0.970000 0.020000 0.284299
0.020000 0.108259 0.390857
0.098665 0.098467 0.375023
0.262469 0.087624 0.357311
0.458691 0.077177 0.339749
0.659820 0.067139 0.322357
0.838346 0.057525 0.305155
0.966758 0.048348 0.288162
0.970000 0.040352 0.272671
0.970000 0.039641 0.270699
0.020000 0.239032 0.373022
0.078686 0.227027 0.357831
0.235291 0.212971 0.340265
0.428421 0.199169 0.322868
0.630564 0.185636 0.305659
0.814211 0.172385 0.288660
0.951850 0.159431 0.271889
0.970000 0.147439 0.256130
0.970000 0.146396 0.254188
0.020000 0.392999 0.355319
0.060133 0.380135 0.340780
0.208927 0.364291 0.323378
0.398351 0.348561 0.306164
0.600896 0.332957 0.289158
0.789051 0.317495 0.272380
0.935304 0.302188 0.255850
0.970000 0.287333 0.239856
0.970000 0.286076 0.237947
0.020000 0.555906 0.337769
0.043098 0.543392 0.323889
0.183468 0.527186 0.306669
0.368574 0.510951 0.289657
0.570908 0.494703 0.272871
0.762957 0.478455 0.256333
0.917211 0.462222 0.240062
0.970000 0.446016 0.224076
0.970000 0.444426 0.221995
0.020000 0.713494 0.320392
0.027674 0.702399 0.307174
0.159005 0.687255 0.290155
0.339181 0.671943 0.273363
0.540690 0.656475 0.256817
0.736020 0.640867 0.240537
0.897663 0.625132 0.224543
0.970000 0.609284 0.208854
0.970000 0.607189 0.206351
0.020000 0.851509 0.303206
0.020000 0.842757 0.290654
0.135632 0.830101 0.273855
0.310263 0.817136 0.257301
0.510334 0.803874 0.241013
0.708334 0.790331 0.225011
0.876752 0.776520 0.209312
0.970000 0.762454 0.193939
0.970000 0.760108 0.191036
0.020000 0.955693 0.286232
0.020000 0.950067 0.274347
0.113437 0.941325 0.257786
0.281912 0.932132 0.241490
0.479932 0.922502 0.225478
0.679988 0.912449 0.209771
0.854568 0.901987 0.194387
0.970000 0.891129 0.179347
0.970000 0.888927 0.176069
0.020000 0.970000 0.272610
0.020000 0.970000 0.260941
0.094180 0.970000 0.244182
0.256048 0.970000 0.227719
0.451142 0.970000 0.211573
0.652139 0.970000 0.195764
0.831715 0.970000 0.180315
0.962544 0.970000 0.165247
0.970000 0.970000 0.161470
0.020000 0.020000 0.573300
0.111288 0.020000 0.556760
0.278690 0.020000 0.538170
0.475974 0.020000 0.519531
0.675817 0.020000 0.500863
0.850894 0.020000 0.482189
0.970000 0.020000 0.463530
0.970000 0.020000 0.446336
0.970000 0.020000 0.444000
0.020000 0.105576 0.555224
0.090803 0.096199 0.539625
0.251906 0.085436 0.521449
0.447009 0.075072 0.503245
0.648601 0.065121 0.485031
0.829173 0.055595 0.466829
0.961213 0.046511 0.448657
0.970000 0.038342 0.431420
0.970000 0.037640 0.429278
0.020000 0.235630 0.537082
0.071362 0.224108 0.521985
0.225030 0.210103 0.503782
0.416805 0.196355 0.485568
0.619176 0.182879 0.467365
0.804632 0.169688 0.449192
0.945663 0.156797 0.431068
0.970000 0.144484 0.413358
0.970000 0.143448 0.411224
0.020000 0.389216 0.518894
0.053384 0.376858 0.504319
0.199004 0.361037 0.486105
0.386837 0.345331 0.467902
0.589373 0.329756 0.449727
0.779101 0.314324 0.431602
0.928510 0.299052 0.413545
0.970000 0.283951 0.395576
0.970000 0.282517 0.393262
0.020000 0.552075 0.500681
0.036959 0.540052 0.486642
0.173918 0.523839 0.468438
0.357197 0.507600 0.450263
0.559285 0.491351 0.432135
0.752672 0.475105 0.414076
0.909846 0.458876 0.396105
0.970000 0.442678 0.378241
0.970000 0.440591 0.375411
0.020000 0.709953 0.482461
0.022179 0.699290 0.468975
0.149865 0.684110 0.450798
0.327976 0.668764 0.432669
0.529004 0.653267 0.414608
0.725435 0.637631 0.396633
0.889761 0.621872 0.378766
0.970000 0.606002 0.361025
0.970000 0.603414 0.357689
0.020000 0.848592 0.464255
0.020000 0.840172 0.451333
0.126934 0.827452 0.433203
0.299266 0.814424 0.415139
0.498619 0.801103 0.397162
0.697484 0.787504 0.379291
0.868349 0.773639 0.361546
0.970000 0.759523 0.343946
0.970000 0.756728 0.340118
0.020000 0.953737 0.446082
0.020000 0.948301 0.433737
0.105219 0.939465 0.415671
0.271158 0.930180 0.397691
0.468224 0.920462 0.379816
0.668909 0.910324 0.362067
0.845700 0.899779 0.344463
0.970000 0.888842 0.327024
0.970000 0.886279 0.322716
0.020000 0.970000 0.431354
0.020000 0.970000 0.419128
0.086433 0.970000 0.400675
0.245552 0.970000 0.382331
0.439473 0.970000 0.364115
0.640872 0.970000 0.346049
0.822425 0.970000 0.328154
0.956806 0.970000 0.310451
0.970000 0.970000 0.305503
0.020000 0.020000 0.730824
0.103120 0.020000 0.716111
0.267966 0.020000 0.698884
0.464270 0.020000 0.681419
0.664707 0.020000 0.663738
0.841954 0.020000 0.645863
0.968686 0.020000 0.627814
0.970000 0.020000 0.610528
0.970000 0.020000 0.608233
0.020000 0.102913 0.714236
0.083144 0.093947 0.700239
0.241455 0.083265 0.683225
0.435348 0.072985 0.666004
0.637313 0.063120 0.648595
0.819839 0.053685 0.631019
0.955416 0.044693 0.613293
0.970000 0.036358 0.595824
0.970000 0.035665 0.593702
0.020000 0.232242 0.697404
0.064256 0.221198 0.683730
0.214896 0.207245 0.666515
0.405224 0.193553 0.649111
0.607731 0.180134 0.631539
0.794906 0.167004 0.613818
0.939238 0.154176 0.595968
0.970000 0.141664 0.578007
0.970000 0.140518 0.575723
0.020000 0.385437 0.680348
0.046866 0.373586 0.667025
0.189221 0.357787 0.649627
0.375372 0.342107 0.632059
0.577808 0.326560 0.614342
0.769018 0.311161 0.596496
0.921492 0.295922 0.578538
0.970000 0.280858 0.560491
0.970000 0.278968 0.557656
0.020000 0.548242 0.663088
0.031064 0.536710 0.650142
0.164522 0.520490 0.632580
0.345883 0.504249 0.614867
0.547634 0.487999 0.597024
0.742267 0.471755 0.579069
0.902269 0.455532 0.561024
0.970000 0.439342 0.542907
0.970000 0.436759 0.539522
0.020000 0.706401 0.645643
0.020000 0.696173 0.633100
0.140891 0.680958 0.615391
0.316848 0.665579 0.597551
0.517302 0.650052 0.579600
0.714744 0.634390 0.561557
0.881663 0.618606 0.543442
0.970000 0.602716 0.525275
0.970000 0.599633 0.521339
0.020000 0.845657 0.628033
0.020000 0.837574 0.615915
0.118418 0.824789 0.598079
0.288358 0.811700 0.580131
0.486903 0.798320 0.562091
0.686542 0.784665 0.543978
0.859763 0.770747 0.525812
0.970000 0.756581 0.507612
0.970000 0.753336 0.503128
0.020000 0.951754 0.610279
0.020000 0.946516 0.598607
0.097195 0.937586 0.580662
0.260506 0.928211 0.562624
0.456528 0.918405 0.544513
0.657750 0.908181 0.526348
0.836661 0.897554 0.508149
0.965751 0.886538 0.489936
0.970000 0.883610 0.484909
0.020000 0.970000 0.595759
0.020000 0.970000 0.584110
0.078892 0.970000 0.565631
0.235172 0.970000 0.547071
0.427829 0.970000 0.528452
0.629539 0.970000 0.509796
0.812978 0.970000 0.491122
0.950821 0.970000 0.472453
0.970000 0.970000 0.466700
0.020000 0.020000 0.866726
0.095147 0.020000 0.855153
0.257347 0.020000 0.840955
0.452579 0.020000 0.826332
0.653520 0.020000 0.811305
0.832846 0.020000 0.795896
0.963233 0.020000 0.780125
0.970000 0.020000 0.764392
0.970000 0.020000 0.762347
0.020000 0.100271 0.853243
0.075694 0.091711 0.842080
0.231121 0.081111 0.827855
0.423713 0.070916 0.813243
0.625960 0.061138 0.798265
0.810350 0.051793 0.782940
0.949374 0.042894 0.767288
0.970000 0.034455 0.751328
0.970000 0.033717 0.749321
0.020000 0.228866 0.839338
0.057373 0.218299 0.828280
0.204892 0.204399 0.813680
0.393684 0.190762 0.798712
0.596236 0.177402 0.783397
0.785038 0.164333 0.767754
0.932580 0.151569 0.751803
0.970000 0.139124 0.735563
0.970000 0.137607 0.733033
0.020000 0.381664 0.825030
0.040583 0.370318 0.814115
0.179583 0.354542 0.799158
0.363960 0.338889 0.783853
0.566205 0.323371 0.768220
0.758807 0.308003 0.752277
0.914254 0.292800 0.736046
0.970000 0.277774 0.719545
0.970000 0.275430 0.716479
0.020000 0.544406 0.810340
0.025418 0.533367 0.799604
0.155284 0.517141 0.784309
0.334635 0.500897 0.768685
0.535960 0.484647 0.752752
0.731748 0.468407 0.736528
0.894488 0.452189 0.720035
0.970000 0.436008 0.703292
0.970000 0.432929 0.699679
0.020000 0.702838 0.795287
0.020000 0.693048 0.784765
0.132089 0.677798 0.769150
0.305800 0.662388 0.753226
0.505591 0.646832 0.737011
0.703952 0.631143 0.720525
0.873372 0.615337 0.703789
0.970000 0.599426 0.686822
0.970000 0.595848 0.682652
0.020000 0.842704 0.779891
0.020000 0.834962 0.769615
0.110087 0.822113 0.753700
0.277545 0.808963 0.737493
0.475190 0.795526 0.721015
0.675512 0.781815 0.704286
0.850998 0.767845 0.687325
0.970000 0.753629 0.670152
0.970000 0.749930 0.665418
0.020000 0.949745 0.764171
0.020000 0.944711 0.754173
0.089370 0.935688 0.737975
0.249963 0.926223 0.721505
0.444849 0.916329 0.704783
0.646518 0.906022 0.687828
0.827458 0.895313 0.670661
0.960159 0.884219 0.653301
0.970000 0.880920 0.647997
0.020000 0.970000 0.751173
0.020000 0.970000 0.741102
0.071563 0.970000 0.724263
0.224912 0.970000 0.707156
0.416214 0.970000 0.689802
0.618145 0.970000 0.672222
0.803379 0.970000 0.654437
0.944594 0.970000 0.636469
0.970000 0.970000 0.630408
0.020000 0.020000 0.966356
0.087375 0.020000 0.959102
0.246837 0.020000 0.949601
0.440907 0.020000 0.939487
0.642262 0.020000 0.928781
0.823576 0.020000 0.917504
0.957526 0.020000 0.905678
0.970000 0.020000 0.893324
0.970000 0.020000 0.891691
0.020000 0.097651 0.957595
0.068459 0.089492 0.950366
0.220911 0.078975 0.940555
0.412111 0.068864 0.930178
0.614548 0.059175 0.919257
0.800711 0.049921 0.907809
0.943090 0.041115 0.895856
0.970000 0.032773 0.883416
0.970000 0.031796 0.881485
0.020000 0.225504 0.948233
0.050716 0.215411 0.940852
0.195026 0.201564 0.930492
0.382189 0.187983 0.919586
0.584695 0.174681 0.908154
0.775034 0.161674 0.896215
0.925695 0.148975 0.883789
0.970000 0.136598 0.870896
0.970000 0.134715 0.868504
0.020000 0.377896 0.938291
0.034542 0.367054 0.930806
0.170095 0.351303 0.919915
0.352608 0.335676 0.908499
0.554571 0.320188 0.896574
0.748473 0.304853 0.884163
0.906803 0.289685 0.871283
0.970000 0.274698 0.857955
0.970000 0.271903 0.855080
0.020000 0.540568 0.927787
0.020027 0.530022 0.920244
0.146210 0.513792 0.908843
0.323461 0.497545 0.896933
0.524267 0.481296 0.884535
0.721119 0.465059 0.871669
0.886506 0.448848 0.858354
0.970000 0.432676 0.844610
0.970000 0.429103 0.841230
0.020000 0.699266 0.916743
0.020000 0.689916 0.909186
0.123464 0.674632 0.897291
0.294838 0.659191 0.884908
0.493875 0.643606 0.872055
0.693064 0.627892 0.858753
0.864894 0.612063 0.845022
0.970000 0.596132 0.830880
0.970000 0.592058 0.826975
0.020000 0.839732 0.905176
0.020000 0.832337 0.897649
0.101947 0.819425 0.885280
0.266832 0.806214 0.872441
0.463487 0.792719 0.859152
0.664400 0.778954 0.845433
0.842060 0.764932 0.831303
0.968958 0.750667 0.816782
0.970000 0.746512 0.812335
0.020000 0.947710 0.893108
0.020000 0.942886 0.885651
0.081750 0.933771 0.872826
0.239534 0.924217 0.859550
0.433193 0.914237 0.845843
0.635217 0.903845 0.831725
0.818095 0.893056 0.817215
0.954317 0.881883 0.802334
0.970000 0.878209 0.797330
0.020000 0.970000 0.882945
0.020000 0.970000 0.875320
0.064451 0.970000 0.861789
0.214779 0.970000 0.847802
0.404635 0.970000 0.833380
0.606695 0.970000 0.818543
0.793635 0.970000 0.803314
0.938129 0.970000 0.787713
0.970000 0.970000 0.781978
0.020000 0.020000 0.970000
0.079808 0.020000 0.970000
0.236442 0.020000 0.970000
0.429260 0.020000 0.970000
0.630936 0.020000 0.970000
0.814148 0.020000 0.970000
0.951571 0.020000 0.970000
0.970000 0.020000 0.970000
0.970000 0.020000 0.970000
0.020000 0.095052 0.970000
0.061442 0.087290 0.970000
0.210829 0.076855 0.970000
0.400546 0.066831 0.970000
0.603082 0.057230 0.970000
0.790927 0.048067 0.970000
0.936570 0.039356 0.970000
0.970000 0.031111 0.970000
0.970000 0.029901 0.970000
0.020000 0.222156 0.970000
0.044293 0.212534 0.970000
0.185301 0.198740 0.970000
0.370744 0.185216 0.970000
0.573114 0.171974 0.970000
0.764898 0.159029 0.970000
0.918587 0.146395 0.970000
0.970000 0.134086 0.969223
0.970000 0.131842 0.967486
0.020000 0.374133 0.970000
0.028747 0.363795 0.970000
0.160762 0.348068 0.970000
0.341320 0.332469 0.970000
0.542910 0.317012 0.970000
0.738021 0.301710 0.970000
0.899143 0.286578 0.969466
0.970000 0.271630 0.960937
0.970000 0.268387 0.958807
0.020000 0.536728 0.970000
0.020000 0.526676 0.970000
0.137305 0.510441 0.970000
0.312364 0.494193 0.970000
0.512561 0.477945 0.970000
0.710386 0.461712 0.969708
0.878328 0.445508 0.961197
0.970000 0.429346 0.952078
0.970000 0.425279 0.949525
0.020000 0.695683 0.970000
0.020000 0.686777 0.970000
0.115022 0.671459 0.970000
0.283968 0.655987 0.970000
0.482160 0.640375 0.969949
0.682086 0.624636 0.961457
0.856235 0.608784 0.952356
0.970000 0.592835 0.942666
0.970000 0.588263 0.939660
0.020000 0.836742 0.970000
0.020000 0.829699 0.970000
0.094002 0.816724 0.970000
0.256224 0.803453 0.970000
0.451797 0.789901 0.961716
0.653211 0.776082 0.952633
0.832954 0.762009 0.942960
0.963518 0.747696 0.932717
0.970000 0.743081 0.929231
0.020000 0.945649 0.970000
0.020000 0.941043 0.970000
0.074339 0.931836 0.970000
0.229223 0.922192 0.961975
0.421564 0.912126 0.952909
0.623853 0.901651 0.943253
0.808578 0.890782 0.933027
0.948229 0.879532 0.922251
0.970000 0.875478 0.918257
0.020000 0.970000 0.970000
0.020000 0.970000 0.970000
0.057561 0.970000 0.963424
0.204777 0.970000 0.954224
0.393097 0.970000 0.944401
0.595196 0.970000 0.933975
0.783749 0.970000 0.922969
0.931432 0.970000 0.911403
0.970000 0.970000 0.906760
