app/src/main/assets/luts/era_1990s.cube
TITLE "Generation Camera 1990s"
LUT_3D_SIZE 5
DOMAIN_MIN 0.0 0.0 0.0
DOMAIN_MAX 1.0 1.0 1.0
0.055037 0.055037 0.055037
0.261296 0.062820 0.066463
0.479749 0.070639 0.077966
0.699226 0.078493 0.089543
0.908558 0.086382 0.101192
0.074236 0.265339 0.070201
0.282170 0.273826 0.081729
0.501213 0.282330 0.093329
0.720194 0.290851 0.105001
0.927944 0.299389 0.116743
0.093645 0.488082 0.085499
0.303149 0.496812 0.097123
0.522676 0.505543 0.108818
0.741055 0.514274 0.120581
0.947119 0.523003 0.132410
0.113255 0.711450 0.100924
0.324223 0.719967 0.112642
0.544128 0.728466 0.124427
0.761801 0.736947 0.136277
0.963533 0.745409 0.148191
0.133055 0.923629 0.116472
0.345381 0.931474 0.128279
0.565559 0.939283 0.140150
0.782419 0.947057 0.152084
0.963533 0.954794 0.164079
0.058029 0.063566 0.251922
0.264557 0.071389 0.264330
0.483109 0.079246 0.276778
0.702516 0.087138 0.289264
0.911607 0.095063 0.301787
0.077262 0.274638 0.268380
0.285448 0.283144 0.280840
0.504574 0.291667 0.293339
0.723468 0.300207 0.305873
0.930961 0.308762 0.318440
0.096703 0.497647 0.284907
0.306443 0.506378 0.297417
0.526036 0.515109 0.309962
0.744312 0.523838 0.322539
0.950101 0.532565 0.335147
0.116343 0.720780 0.301499
0.327531 0.729278 0.314055
0.547485 0.737757 0.326642
0.765038 0.746217 0.339259
0.963533 0.754658 0.351904
0.136171 0.932222 0.318151
0.348701 0.940028 0.330748
0.568912 0.947798 0.343374
0.785636 0.955531 0.356027
0.963533 0.963227 0.368705
0.061026 0.072138 0.460404
0.267821 0.079999 0.473201
0.486470 0.087894 0.486002
0.705803 0.095823 0.498806
0.914651 0.103785 0.511610
0.080292 0.283958 0.477369
0.288729 0.292483 0.490172
0.507935 0.301024 0.502976
0.726739 0.309581 0.515779
0.933972 0.318153 0.528580
0.099766 0.507213 0.494342
0.309739 0.515943 0.507146
0.529396 0.524672 0.519949
0.747565 0.533400 0.532748
0.953078 0.542124 0.545542
0.119436 0.730089 0.511316
0.330840 0.738567 0.524118
0.550842 0.747025 0.536916
0.768272 0.755464 0.549707
0.963533 0.763883 0.562490
0.139293 0.940773 0.528286
0.352023 0.948539 0.541082
0.572265 0.956269 0.553872
0.788849 0.963533 0.566651
0.963533 0.963533 0.579420
0.064029 0.080753 0.670717
0.271088 0.088651 0.683311
0.489831 0.096583 0.695873
0.709089 0.104548 0.708402
0.917690 0.112545 0.720895
0.083328 0.293299 0.687406
0.292013 0.301842 0.699957
0.511296 0.310400 0.712475
0.730008 0.318974 0.724956
0.936978 0.327562 0.737399
0.102833 0.516778 0.704038
0.313038 0.525507 0.716544
0.532755 0.534234 0.729013
0.750816 0.542958 0.741442
0.956050 0.551679 0.753831
0.122533 0.739377 0.720609
0.334152 0.747833 0.733065
0.554199 0.756270 0.745482
0.771503 0.764686 0.757856
0.963533 0.773082 0.770186
0.142418 0.949280 0.737114
0.355346 0.957006 0.749517
0.575616 0.963533 0.761876
0.792059 0.963533 0.774191
0.963533 0.963533 0.786459
0.067037 0.089408 0.873096
0.274358 0.097343 0.884895
0.493192 0.105311 0.896627
0.712371 0.113311 0.908289
0.920725 0.121342 0.919879
0.086369 0.302659 0.888723
0.295299 0.311219 0.900432
0.514657 0.319794 0.912072
0.733274 0.328384 0.923639
0.939979 0.336987 0.935131
0.105905 0.526342 0.904231
0.316338 0.535068 0.915847
0.536114 0.543792 0.927390
0.754064 0.552513 0.938857
0.959016 0.561229 0.950248
0.125635 0.748641 0.919614
0.337466 0.757076 0.931133
0.557554 0.765490 0.942576
0.774731 0.773883 0.953940
0.963533 0.782255 0.963533
0.145548 0.957743 0.934868
0.358672 0.963533 0.946286
0.578967 0.963533 0.957624
0.795265 0.963533 0.963533
0.963533 0.963533 0.963533
