app/src/main/assets/luts/era_1920s.cube
TITLE "Generation Camera 1920s"
LUT_3D_SIZE 17
DOMAIN_MIN 0.0 0.0 0.0
DOMAIN_MAX 1.0 1.0 1.0
0.071470 0.067110 0.058420
0.080954 0.076474 0.067554
0.090890 0.086285 0.077124
0.101264 0.096528 0.087116
0.112062 0.107189 0.097515
0.123268 0.118253 0.108308
0.134869 0.129707 0.119480
0.146848 0.141535 0.131018
0.159193 0.153724 0.142908
0.171888 0.166258 0.155135
0.184919 0.179125 0.167685
0.198271 0.192308 0.180544
0.211929 0.205793 0.193699
0.225880 0.219567 0.207135
0.240107 0.233615 0.220838
0.254598 0.247922 0.234794
0.269336 0.262474 0.248989
0.092930 0.088299 0.079089
0.103391 0.098627 0.089163
0.114271 0.109370 0.099642
0.125557 0.120513 0.110512
0.137235 0.132043 0.121759
0.149289 0.143945 0.133369
0.161705 0.156204 0.145327
0.174468 0.168806 0.157619
0.187564 0.181736 0.170233
0.200979 0.194981 0.183152
0.214697 0.208526 0.196364
0.228704 0.222355 0.209855
0.242985 0.236456 0.223609
0.257526 0.250814 0.237614
0.272313 0.265413 0.251855
0.287330 0.280240 0.266319
0.302563 0.295281 0.280990
0.116496 0.111567 0.101786
0.127862 0.122789 0.112732
0.139616 0.134394 0.124053
0.151743 0.146368 0.135733
0.164230 0.158697 0.147759
0.177061 0.171366 0.160117
0.190222 0.184360 0.172792
0.203698 0.197666 0.185772
0.217475 0.211269 0.199041
0.231538 0.225154 0.212585
0.245873 0.239308 0.226391
0.260464 0.253715 0.240444
0.275298 0.268361 0.254731
0.290360 0.283232 0.269237
0.305634 0.298313 0.283948
0.321107 0.313591 0.298850
0.336764 0.329050 0.313930
0.142012 0.136760 0.126360
0.154212 0.148806 0.138111
0.166769 0.161204 0.150204
0.179667 0.173939 0.162627
0.192893 0.186997 0.175364
0.206430 0.200364 0.188403
0.220266 0.214024 0.201728
0.234384 0.227964 0.215326
0.248771 0.242169 0.229182
0.263412 0.256625 0.243283
0.278293 0.271317 0.257615
0.293398 0.286232 0.272163
0.308713 0.301353 0.286914
0.324224 0.316668 0.301853
0.339916 0.332162 0.316966
0.355775 0.347820 0.332239
0.371785 0.363628 0.347659
0.169322 0.163725 0.152663
0.182287 0.176525 0.165150
0.195576 0.189646 0.177948
0.209174 0.203073 0.191045
0.223067 0.216790 0.204426
0.237240 0.230784 0.218077
0.251680 0.245041 0.231983
0.266370 0.259545 0.246132
0.281296 0.274283 0.260508
0.296445 0.289240 0.275097
0.311800 0.304401 0.289887
0.327349 0.319753 0.304862
0.343075 0.335281 0.320008
0.358965 0.350970 0.335312
0.375004 0.366806 0.350759
0.391177 0.382774 0.366336
0.407470 0.398861 0.382028
0.198271 0.192308 0.180544
0.211929 0.205793 0.193699
0.225880 0.219567 0.207135
0.240107 0.233615 0.220838
0.254598 0.247922 0.234794
0.269336 0.262474 0.248989
0.284309 0.277257 0.263409
0.299500 0.292256 0.278040
0.314895 0.307457 0.292867
0.330480 0.322845 0.307878
0.346241 0.338406 0.323057
0.362161 0.354126 0.338391
0.378228 0.369989 0.353865
0.394427 0.385983 0.369466
0.410742 0.402092 0.385179
0.427159 0.418301 0.400991
0.443663 0.434597 0.416887
0.228704 0.222355 0.209855
0.242985 0.236456 0.223609
0.257526 0.250814 0.237614
0.272313 0.265413 0.251855
0.287330 0.280240 0.266319
0.302563 0.295281 0.280990
0.317997 0.310520 0.295855
0.333619 0.325944 0.310901
0.349412 0.341538 0.326112
0.365364 0.357287 0.341475
0.381458 0.373178 0.356975
0.397681 0.389196 0.372600
0.414017 0.405326 0.388334
0.430453 0.421554 0.404164
0.446974 0.437865 0.420075
0.463564 0.454246 0.436053
0.480210 0.470682 0.452086
0.260464 0.253715 0.240444
0.275298 0.268361 0.254731
0.290360 0.283232 0.269237
0.305634 0.298313 0.283948
0.321107 0.313591 0.298850
0.336764 0.329050 0.313930
0.352591 0.344676 0.329173
0.368572 0.360455 0.344564
0.384693 0.376372 0.360091
0.400939 0.392413 0.375738
0.417297 0.408564 0.391493
0.433751 0.424810 0.407340
0.450287 0.441137 0.423266
0.466889 0.457529 0.439256
0.483545 0.473974 0.455297
0.500238 0.490456 0.471375
0.516955 0.506962 0.487475
0.293398 0.286232 0.272163
0.308713 0.301353 0.286914
0.324224 0.316668 0.301853
0.339916 0.332162 0.316966
0.355775 0.347820 0.332239
0.371785 0.363628 0.347659
0.387932 0.379571 0.363211
0.404202 0.395635 0.378881
0.420581 0.411806 0.394655
0.437052 0.428069 0.410519
0.453602 0.444410 0.426459
0.470217 0.460815 0.442461
0.486881 0.477268 0.458510
0.503580 0.493756 0.474593
0.520300 0.510264 0.490696
0.537025 0.526778 0.506805
0.553742 0.543284 0.522905
0.327349 0.319753 0.304862
0.343075 0.335281 0.320008
0.358965 0.350970 0.335312
0.375004 0.366806 0.350759
0.391177 0.382774 0.366336
0.407470 0.398861 0.382028
0.423868 0.415052 0.397821
0.440356 0.431332 0.413701
0.456921 0.447687 0.429655
0.473546 0.464102 0.445667
0.490218 0.480563 0.461725
0.506923 0.497057 0.477813
0.523645 0.513567 0.493918
0.540370 0.530080 0.510026
0.557083 0.546582 0.526123
0.573770 0.563058 0.542194
0.590416 0.579494 0.558227
0.362161 0.354126 0.338391
0.378228 0.369989 0.353865
0.394427 0.385983 0.369466
0.410742 0.402092 0.385179
0.427159 0.418301 0.400991
0.443663 0.434597 0.416887
0.460241 0.450965 0.432853
0.476877 0.467391 0.448876
0.493557 0.483860 0.464940
0.510266 0.500358 0.481033
0.526990 0.516870 0.497140
0.543714 0.533382 0.513247
0.560423 0.549880 0.529340
0.577103 0.566349 0.545404
0.593739 0.582775 0.561427
0.610317 0.599143 0.577393
0.626821 0.615439 0.593289
0.397681 0.389196 0.372600
0.414017 0.405326 0.388334
0.430453 0.421554 0.404164
0.446974 0.437865 0.420075
0.463564 0.454246 0.436053
0.480210 0.470682 0.452086
0.496897 0.487158 0.468157
0.513610 0.503660 0.484254
0.530335 0.520173 0.500362
0.547057 0.536683 0.516467
0.563762 0.553177 0.532555
0.580434 0.569638 0.548613
0.597059 0.586053 0.564625
0.613624 0.602408 0.580579
0.630112 0.618688 0.596459
0.646510 0.634879 0.612252
0.662803 0.650966 0.627944
0.433751 0.424810 0.407340
0.450287 0.441137 0.423266
0.466889 0.457529 0.439256
0.483545 0.473974 0.455297
0.500238 0.490456 0.471375
0.516955 0.506962 0.487475
0.533680 0.523476 0.503584
0.550400 0.539984 0.519687
0.567099 0.556472 0.535770
0.583763 0.572925 0.551819
0.600378 0.589330 0.567821
0.616928 0.605671 0.583761
0.633399 0.621934 0.599625
0.649778 0.638105 0.615399
0.666048 0.654169 0.631069
0.682195 0.670112 0.646621
0.698205 0.685920 0.662041
0.470217 0.460815 0.442461
0.486881 0.477268 0.458510
0.503580 0.493756 0.474593
0.520300 0.510264 0.490696
0.537025 0.526778 0.506805
0.553742 0.543284 0.522905
0.570435 0.559766 0.538983
0.587091 0.576211 0.555024
0.603693 0.592603 0.571014
0.620229 0.608930 0.586940
0.636683 0.625176 0.602787
0.653041 0.641327 0.618542
0.669287 0.657368 0.634189
0.685408 0.673285 0.649716
0.701389 0.689064 0.665107
0.717216 0.704690 0.680350
0.732873 0.720149 0.695430
0.506923 0.497057 0.477813
0.523645 0.513567 0.493918
0.540370 0.530080 0.510026
0.557083 0.546582 0.526123
0.573770 0.563058 0.542194
0.590416 0.579494 0.558227
0.607006 0.595875 0.574205
0.623527 0.612186 0.590116
0.639963 0.628414 0.605946
0.656299 0.644544 0.621680
0.672522 0.660562 0.637305
0.688616 0.676453 0.652805
0.704568 0.692202 0.668168
0.720361 0.707796 0.683379
0.735983 0.723220 0.698425
0.751417 0.738459 0.713290
0.766650 0.753500 0.727961
0.543714 0.533382 0.513247
0.560423 0.549880 0.529340
0.577103 0.566349 0.545404
0.593739 0.582775 0.561427
0.610317 0.599143 0.577393
0.626821 0.615439 0.593289
0.643238 0.631648 0.609101
0.659553 0.647757 0.624814
0.675752 0.663751 0.640415
0.691819 0.679614 0.655889
0.707739 0.695334 0.671223
0.723500 0.710895 0.686402
0.739085 0.726283 0.701413
0.754480 0.741484 0.716240
0.769671 0.756483 0.730871
0.784643 0.771265 0.745291
0.799382 0.785818 0.759486
0.580434 0.569638 0.548613
0.597059 0.586053 0.564625
0.613624 0.602408 0.580579
0.630112 0.618688 0.596459
0.646510 0.634879 0.612252
0.662803 0.650966 0.627944
0.678976 0.666934 0.643521
0.695015 0.682770 0.658968
0.710905 0.698459 0.674272
0.726631 0.713987 0.689418
0.742180 0.729339 0.704393
0.757535 0.744500 0.719183
0.772684 0.759457 0.733772
0.787610 0.774195 0.748148
0.802300 0.788699 0.762297
0.816740 0.802956 0.776203
0.830913 0.816950 0.789854
0.079020 0.074565 0.065692
0.088867 0.084287 0.075176
0.099155 0.094445 0.085084
0.109869 0.105024 0.095403
0.120995 0.116009 0.106118
0.132518 0.127386 0.117216
0.144423 0.139140 0.128682
0.156696 0.151258 0.140503
0.169322 0.163725 0.152663
0.182287 0.176525 0.165150
0.195576 0.189646 0.177948
0.209174 0.203073 0.191045
0.223067 0.216790 0.204426
0.237240 0.230784 0.218077
0.251680 0.245041 0.231983
0.266370 0.259545 0.246132
0.281296 0.274283 0.260508
0.101264 0.096528 0.087116
0.112062 0.107189 0.097515
0.123268 0.118253 0.108308
0.134869 0.129707 0.119480
0.146848 0.141535 0.131018
0.159193 0.153724 0.142908
0.171888 0.166258 0.155135
0.184919 0.179125 0.167685
0.198271 0.192308 0.180544
0.211929 0.205793 0.193699
0.225880 0.219567 0.207135
0.240107 0.233615 0.220838
0.254598 0.247922 0.234794
0.269336 0.262474 0.248989
0.284309 0.277257 0.263409
0.299500 0.292256 0.278040
0.314895 0.307457 0.292867
0.125557 0.120513 0.110512
0.137235 0.132043 0.121759
0.149289 0.143945 0.133369
0.161705 0.156204 0.145327
0.174468 0.168806 0.157619
0.187564 0.181736 0.170233
0.200979 0.194981 0.183152
0.214697 0.208526 0.196364
0.228704 0.222355 0.209855
0.242985 0.236456 0.223609
0.257526 0.250814 0.237614
0.272313 0.265413 0.251855
0.287330 0.280240 0.266319
0.302563 0.295281 0.280990
0.317997 0.310520 0.295855
0.333619 0.325944 0.310901
0.349412 0.341538 0.326112
0.151743 0.146368 0.135733
0.164230 0.158697 0.147759
0.177061 0.171366 0.160117
0.190222 0.184360 0.172792
0.203698 0.197666 0.185772
0.217475 0.211269 0.199041
0.231538 0.225154 0.212585
0.245873 0.239308 0.226391
0.260464 0.253715 0.240444
0.275298 0.268361 0.254731
0.290360 0.283232 0.269237
0.305634 0.298313 0.283948
0.321107 0.313591 0.298850
0.336764 0.329050 0.313930
0.352591 0.344676 0.329173
0.368572 0.360455 0.344564
0.384693 0.376372 0.360091
0.179667 0.173939 0.162627
0.192893 0.186997 0.175364
0.206430 0.200364 0.188403
0.220266 0.214024 0.201728
0.234384 0.227964 0.215326
0.248771 0.242169 0.229182
0.263412 0.256625 0.243283
0.278293 0.271317 0.257615
0.293398 0.286232 0.272163
0.308713 0.301353 0.286914
0.324224 0.316668 0.301853
0.339916 0.332162 0.316966
0.355775 0.347820 0.332239
0.371785 0.363628 0.347659
0.387932 0.379571 0.363211
0.404202 0.395635 0.378881
0.420581 0.411806 0.394655
0.209174 0.203073 0.191045
0.223067 0.216790 0.204426
0.237240 0.230784 0.218077
0.251680 0.245041 0.231983
0.266370 0.259545 0.246132
0.281296 0.274283 0.260508
0.296445 0.289240 0.275097
0.311800 0.304401 0.289887
0.327349 0.319753 0.304862
0.343075 0.335281 0.320008
0.358965 0.350970 0.335312
0.375004 0.366806 0.350759
0.391177 0.382774 0.366336
0.407470 0.398861 0.382028
0.423868 0.415052 0.397821
0.440356 0.431332 0.413701
0.456921 0.447687 0.429655
0.240107 0.233615 0.220838
0.254598 0.247922 0.234794
0.269336 0.262474 0.248989
0.284309 0.277257 0.263409
0.299500 0.292256 0.278040
0.314895 0.307457 0.292867
0.330480 0.322845 0.307878
0.346241 0.338406 0.323057
0.362161 0.354126 0.338391
0.378228 0.369989 0.353865
0.394427 0.385983 0.369466
0.410742 0.402092 0.385179
0.427159 0.418301 0.400991
0.443663 0.434597 0.416887
0.460241 0.450965 0.432853
0.476877 0.467391 0.448876
0.493557 0.483860 0.464940
0.272313 0.265413 0.251855
0.287330 0.280240 0.266319
0.302563 0.295281 0.280990
0.317997 0.310520 0.295855
0.333619 0.325944 0.310901
0.349412 0.341538 0.326112
0.365364 0.357287 0.341475
0.381458 0.373178 0.356975
0.397681 0.389196 0.372600
0.414017 0.405326 0.388334
0.430453 0.421554 0.404164
0.446974 0.437865 0.420075
0.463564 0.454246 0.436053
0.480210 0.470682 0.452086
0.496897 0.487158 0.468157
0.513610 0.503660 0.484254
0.530335 0.520173 0.500362
0.305634 0.298313 0.283948
0.321107 0.313591 0.298850
0.336764 0.329050 0.313930
0.352591 0.344676 0.329173
0.368572 0.360455 0.344564
0.384693 0.376372 0.360091
0.400939 0.392413 0.375738
0.417297 0.408564 0.391493
0.433751 0.424810 0.407340
0.450287 0.441137 0.423266
0.466889 0.457529 0.439256
0.483545 0.473974 0.455297
0.500238 0.490456 0.471375
0.516955 0.506962 0.487475
0.533680 0.523476 0.503584
0.550400 0.539984 0.519687
0.567099 0.556472 0.535770
0.339916 0.332162 0.316966
0.355775 0.347820 0.332239
0.371785 0.363628 0.347659
0.387932 0.379571 0.363211
0.404202 0.395635 0.378881
0.420581 0.411806 0.394655
0.437052 0.428069 0.410519
0.453602 0.444410 0.426459
0.470217 0.460815 0.442461
0.486881 0.477268 0.458510
0.503580 0.493756 0.474593
0.520300 0.510264 0.490696
0.537025 0.526778 0.506805
0.553742 0.543284 0.522905
0.570435 0.559766 0.538983
0.587091 0.576211 0.555024
0.603693 0.592603 0.571014
0.375004 0.366806 0.350759
0.391177 0.382774 0.366336
0.407470 0.398861 0.382028
0.423868 0.415052 0.397821
0.440356 0.431332 0.413701
0.456921 0.447687 0.429655
0.473546 0.464102 0.445667
0.490218 0.480563 0.461725
0.506923 0.497057 0.477813
0.523645 0.513567 0.493918
0.540370 0.530080 0.510026
0.557083 0.546582 0.526123
0.573770 0.563058 0.542194
0.590416 0.579494 0.558227
0.607006 0.595875 0.574205
0.623527 0.612186 0.590116
0.639963 0.628414 0.605946
0.410742 0.402092 0.385179
0.427159 0.418301 0.400991
0.443663 0.434597 0.416887
0.460241 0.450965 0.432853
0.476877 0.467391 0.448876
0.493557 0.483860 0.464940
0.510266 0.500358 0.481033
0.526990 0.516870 0.497140
0.543714 0.533382 0.513247
0.560423 0.549880 0.529340
0.577103 0.566349 0.545404
0.593739 0.582775 0.561427
0.610317 0.599143 0.577393
0.626821 0.615439 0.593289
0.643238 0.631648 0.609101
0.659553 0.647757 0.624814
0.675752 0.663751 0.640415
0.446974 0.437865 0.420075
0.463564 0.454246 0.436053
0.480210 0.470682 0.452086
0.496897 0.487158 0.468157
0.513610 0.503660 0.484254
0.530335 0.520173 0.500362
0.547057 0.536683 0.516467
0.563762 0.553177 0.532555
0.580434 0.569638 0.548613
0.597059 0.586053 0.564625
0.613624 0.602408 0.580579
0.630112 0.618688 0.596459
0.646510 0.634879 0.612252
0.662803 0.650966 0.627944
0.678976 0.666934 0.643521
0.695015 0.682770 0.658968
0.710905 0.698459 0.674272
0.483545 0.473974 0.455297
0.500238 0.490456 0.471375
0.516955 0.506962 0.487475
0.533680 0.523476 0.503584
0.550400 0.539984 0.519687
0.567099 0.556472 0.535770
0.583763 0.572925 0.551819
0.600378 0.589330 0.567821
0.616928 0.605671 0.583761
0.633399 0.621934 0.599625
0.649778 0.638105 0.615399
0.666048 0.654169 0.631069
0.682195 0.670112 0.646621
0.698205 0.685920 0.662041
0.714064 0.701578 0.677314
0.729756 0.717072 0.692427
0.745267 0.732387 0.707366
0.520300 0.510264 0.490696
0.537025 0.526778 0.506805
0.553742 0.543284 0.522905
0.570435 0.559766 0.538983
0.587091 0.576211 0.555024
0.603693 0.592603 0.571014
0.620229 0.608930 0.586940
0.636683 0.625176 0.602787
0.653041 0.641327 0.618542
0.669287 0.657368 0.634189
0.685408 0.673285 0.649716
0.701389 0.689064 0.665107
0.717216 0.704690 0.680350
0.732873 0.720149 0.695430
0.748346 0.735427 0.710332
0.763620 0.750508 0.725043
0.778682 0.765379 0.739549
0.557083 0.546582 0.526123
0.573770 0.563058 0.542194
0.590416 0.579494 0.558227
0.607006 0.595875 0.574205
0.623527 0.612186 0.590116
0.639963 0.628414 0.605946
0.656299 0.644544 0.621680
0.672522 0.660562 0.637305
0.688616 0.676453 0.652805
0.704568 0.692202 0.668168
0.720361 0.707796 0.683379
0.735983 0.723220 0.698425
0.751417 0.738459 0.713290
0.766650 0.753500 0.727961
0.781667 0.768327 0.742425
0.796454 0.782926 0.756666
0.810995 0.797284 0.770671
0.593739 0.582775 0.561427
0.610317 0.599143 0.577393
0.626821 0.615439 0.593289
0.643238 0.631648 0.609101
0.659553 0.647757 0.624814
0.675752 0.663751 0.640415
0.691819 0.679614 0.655889
0.707739 0.695334 0.671223
0.723500 0.710895 0.686402
0.739085 0.726283 0.701413
0.754480 0.741484 0.716240
0.769671 0.756483 0.730871
0.784643 0.771265 0.745291
0.799382 0.785818 0.759486
0.813873 0.800125 0.773442
0.828100 0.814173 0.787145
0.842051 0.827947 0.800581
0.086862 0.082308 0.073245
0.097063 0.092380 0.083069
0.107693 0.102875 0.093307
0.118738 0.113780 0.103944
0.130182 0.125080 0.114967
0.142012 0.136760 0.126360
0.154212 0.148806 0.138111
0.166769 0.161204 0.150204
0.179667 0.173939 0.162627
0.192893 0.186997 0.175364
0.206430 0.200364 0.188403
0.220266 0.214024 0.201728
0.234384 0.227964 0.215326
0.248771 0.242169 0.229182
0.263412 0.256625 0.243283
0.278293 0.271317 0.257615
0.293398 0.286232 0.272163
0.109869 0.105024 0.095403
0.120995 0.116009 0.106118
0.132518 0.127386 0.117216
0.144423 0.139140 0.128682
0.156696 0.151258 0.140503
0.169322 0.163725 0.152663
0.182287 0.176525 0.165150
0.195576 0.189646 0.177948
0.209174 0.203073 0.191045
0.223067 0.216790 0.204426
0.237240 0.230784 0.218077
0.251680 0.245041 0.231983
0.266370 0.259545 0.246132
0.281296 0.274283 0.260508
0.296445 0.289240 0.275097
0.311800 0.304401 0.289887
0.327349 0.319753 0.304862
0.134869 0.129707 0.119480
0.146848 0.141535 0.131018
0.159193 0.153724 0.142908
0.171888 0.166258 0.155135
0.184919 0.179125 0.167685
0.198271 0.192308 0.180544
0.211929 0.205793 0.193699
0.225880 0.219567 0.207135
0.240107 0.233615 0.220838
0.254598 0.247922 0.234794
0.269336 0.262474 0.248989
0.284309 0.277257 0.263409
0.299500 0.292256 0.278040
0.314895 0.307457 0.292867
0.330480 0.322845 0.307878
0.346241 0.338406 0.323057
0.362161 0.354126 0.338391
0.161705 0.156204 0.145327
0.174468 0.168806 0.157619
0.187564 0.181736 0.170233
0.200979 0.194981 0.183152
0.214697 0.208526 0.196364
0.228704 0.222355 0.209855
0.242985 0.236456 0.223609
0.257526 0.250814 0.237614
0.272313 0.265413 0.251855
0.287330 0.280240 0.266319
0.302563 0.295281 0.280990
0.317997 0.310520 0.295855
0.333619 0.325944 0.310901
0.349412 0.341538 0.326112
0.365364 0.357287 0.341475
0.381458 0.373178 0.356975
0.397681 0.389196 0.372600
0.190222 0.184360 0.172792
0.203698 0.197666 0.185772
0.217475 0.211269 0.199041
0.231538 0.225154 0.212585
0.245873 0.239308 0.226391
0.260464 0.253715 0.240444
0.275298 0.268361 0.254731
0.290360 0.283232 0.269237
0.305634 0.298313 0.283948
0.321107 0.313591 0.298850
0.336764 0.329050 0.313930
0.352591 0.344676 0.329173
0.368572 0.360455 0.344564
0.384693 0.376372 0.360091
0.400939 0.392413 0.375738
0.417297 0.408564 0.391493
0.433751 0.424810 0.407340
0.220266 0.214024 0.201728
0.234384 0.227964 0.215326
0.248771 0.242169 0.229182
0.263412 0.256625 0.243283
0.278293 0.271317 0.257615
0.293398 0.286232 0.272163
0.308713 0.301353 0.286914
0.324224 0.316668 0.301853
0.339916 0.332162 0.316966
0.355775 0.347820 0.332239
0.371785 0.363628 0.347659
0.387932 0.379571 0.363211
0.404202 0.395635 0.378881
0.420581 0.411806 0.394655
0.437052 0.428069 0.410519
0.453602 0.444410 0.426459
0.470217 0.460815 0.442461
0.251680 0.245041 0.231983
0.266370 0.259545 0.246132
0.281296 0.274283 0.260508
0.296445 0.289240 0.275097
0.311800 0.304401 0.289887
0.327349 0.319753 0.304862
0.343075 0.335281 0.320008
0.358965 0.350970 0.335312
0.375004 0.366806 0.350759
0.391177 0.382774 0.366336
0.407470 0.398861 0.382028
0.423868 0.415052 0.397821
0.440356 0.431332 0.413701
0.456921 0.447687 0.429655
0.473546 0.464102 0.445667
0.490218 0.480563 0.461725
0.506923 0.497057 0.477813
0.284309 0.277257 0.263409
0.299500 0.292256 0.278040
0.314895 0.307457 0.292867
0.330480 0.322845 0.307878
0.346241 0.338406 0.323057
0.362161 0.354126 0.338391
0.378228 0.369989 0.353865
0.394427 0.385983 0.369466
0.410742 0.402092 0.385179
0.427159 0.418301 0.400991
0.443663 0.434597 0.416887
0.460241 0.450965 0.432853
0.476877 0.467391 0.448876
0.493557 0.483860 0.464940
0.510266 0.500358 0.481033
0.526990 0.516870 0.497140
0.543714 0.533382 0.513247
0.317997 0.310520 0.295855
0.333619 0.325944 0.310901
0.349412 0.341538 0.326112
0.365364 0.357287 0.341475
0.381458 0.373178 0.356975
0.397681 0.389196 0.372600
0.414017 0.405326 0.388334
0.430453 0.421554 0.404164
0.446974 0.437865 0.420075
0.463564 0.454246 0.436053
0.480210 0.470682 0.452086
0.496897 0.487158 0.468157
0.513610 0.503660 0.484254
0.530335 0.520173 0.500362
0.547057 0.536683 0.516467
0.563762 0.553177 0.532555
0.580434 0.569638 0.548613
0.352591 0.344676 0.329173
0.368572 0.360455 0.344564
0.384693 0.376372 0.360091
0.400939 0.392413 0.375738
0.417297 0.408564 0.391493
0.433751 0.424810 0.407340
0.450287 0.441137 0.423266
0.466889 0.457529 0.439256
0.483545 0.473974 0.455297
0.500238 0.490456 0.471375
0.516955 0.506962 0.487475
0.533680 0.523476 0.503584
0.550400 0.539984 0.519687
0.567099 0.556472 0.535770
0.583763 0.572925 0.551819
0.600378 0.589330 0.567821
0.616928 0.605671 0.583761
0.387932 0.379571 0.363211
0.404202 0.395635 0.378881
0.420581 0.411806 0.394655
0.437052 0.428069 0.410519
0.453602 0.444410 0.426459
0.470217 0.460815 0.442461
0.486881 0.477268 0.458510
0.503580 0.493756 0.474593
0.520300 0.510264 0.490696
0.537025 0.526778 0.506805
0.553742 0.543284 0.522905
0.570435 0.559766 0.538983
0.587091 0.576211 0.555024
0.603693 0.592603 0.571014
0.620229 0.608930 0.586940
0.636683 0.625176 0.602787
0.653041 0.641327 0.618542
0.423868 0.415052 0.397821
0.440356 0.431332 0.413701
0.456921 0.447687 0.429655
0.473546 0.464102 0.445667
0.490218 0.480563 0.461725
0.506923 0.497057 0.477813
0.523645 0.513567 0.493918
0.540370 0.530080 0.510026
0.557083 0.546582 0.526123
0.573770 0.563058 0.542194
0.590416 0.579494 0.558227
0.607006 0.595875 0.574205
0.623527 0.612186 0.590116
0.639963 0.628414 0.605946
0.656299 0.644544 0.621680
0.672522 0.660562 0.637305
0.688616 0.676453 0.652805
0.460241 0.450965 0.432853
0.476877 0.467391 0.448876
0.493557 0.483860 0.464940
0.510266 0.500358 0.481033
0.526990 0.516870 0.497140
0.543714 0.533382 0.513247
0.560423 0.549880 0.529340
0.577103 0.566349 0.545404
0.593739 0.582775 0.561427
0.610317 0.599143 0.577393
0.626821 0.615439 0.593289
0.643238 0.631648 0.609101
0.659553 0.647757 0.624814
0.675752 0.663751 0.640415
0.691819 0.679614 0.655889
0.707739 0.695334 0.671223
0.723500 0.710895 0.686402
0.496897 0.487158 0.468157
0.513610 0.503660 0.484254
0.530335 0.520173 0.500362
0.547057 0.536683 0.516467
0.563762 0.553177 0.532555
0.580434 0.569638 0.548613
0.597059 0.586053 0.564625
0.613624 0.602408 0.580579
0.630112 0.618688 0.596459
0.646510 0.634879 0.612252
0.662803 0.650966 0.627944
0.678976 0.666934 0.643521
0.695015 0.682770 0.658968
0.710905 0.698459 0.674272
0.726631 0.713987 0.689418
0.742180 0.729339 0.704393
0.757535 0.744500 0.719183
0.533680 0.523476 0.503584
0.550400 0.539984 0.519687
0.567099 0.556472 0.535770
0.583763 0.572925 0.551819
0.600378 0.589330 0.567821
0.616928 0.605671 0.583761
0.633399 0.621934 0.599625
0.649778 0.638105 0.615399
0.666048 0.654169 0.631069
0.682195 0.670112 0.646621
0.698205 0.685920 0.662041
0.714064 0.701578 0.677314
0.729756 0.717072 0.692427
0.745267 0.732387 0.707366
0.760582 0.747508 0.722117
0.775687 0.762423 0.736665
0.790568 0.777115 0.750997
0.570435 0.559766 0.538983
0.587091 0.576211 0.555024
0.603693 0.592603 0.571014
0.620229 0.608930 0.586940
0.636683 0.625176 0.602787
0.653041 0.641327 0.618542
0.669287 0.657368 0.634189
0.685408 0.673285 0.649716
0.701389 0.689064 0.665107
0.717216 0.704690 0.680350
0.732873 0.720149 0.695430
0.748346 0.735427 0.710332
0.763620 0.750508 0.725043
0.778682 0.765379 0.739549
0.793516 0.780025 0.753836
0.808107 0.794432 0.767889
0.822442 0.808586 0.781695
0.607006 0.595875 0.574205
0.623527 0.612186 0.590116
0.639963 0.628414 0.605946
0.656299 0.644544 0.621680
0.672522 0.660562 0.637305
0.688616 0.676453 0.652805
0.704568 0.692202 0.668168
0.720361 0.707796 0.683379
0.735983 0.723220 0.698425
0.751417 0.738459 0.713290
0.766650 0.753500 0.727961
0.781667 0.768327 0.742425
0.796454 0.782926 0.756666
0.810995 0.797284 0.770671
0.825276 0.811385 0.784425
0.839283 0.825214 0.797916
0.853001 0.838759 0.811128
0.094988 0.090331 0.081071
0.105533 0.100743 0.091227
0.116496 0.111567 0.101786
0.127862 0.122789 0.112732
0.139616 0.134394 0.124053
0.151743 0.146368 0.135733
0.164230 0.158697 0.147759
0.177061 0.171366 0.160117
0.190222 0.184360 0.172792
0.203698 0.197666 0.185772
0.217475 0.211269 0.199041
0.231538 0.225154 0.212585
0.245873 0.239308 0.226391
0.260464 0.253715 0.240444
0.275298 0.268361 0.254731
0.290360 0.283232 0.269237
0.305634 0.298313 0.283948
0.118738 0.113780 0.103944
