app/src/main/assets/luts/era_1910s.cube
TITLE "Generation Camera 1910s"
LUT_3D_SIZE 17
DOMAIN_MIN 0.0 0.0 0.0
DOMAIN_MAX 1.0 1.0 1.0
0.198777 0.194342 0.185375
0.229466 0.203036 0.193116
0.259988 0.211700 0.200842
0.290344 0.220332 0.208552
0.320533 0.228933 0.216246
0.350556 0.237503 0.223923
0.380413 0.246042 0.231583
0.410104 0.254549 0.239226
0.439628 0.263024 0.246852
0.468985 0.271468 0.254460
0.498177 0.279880 0.262050
0.527201 0.288260 0.269622
0.556060 0.296608 0.277176
0.584752 0.304923 0.284711
0.613278 0.313207 0.292227
0.641637 0.321458 0.299724
0.644304 0.322234 0.300430
0.214530 0.229439 0.200851
0.245035 0.238031 0.208562
0.275373 0.246593 0.216257
0.305545 0.255122 0.223935
0.335550 0.263621 0.231597
0.365389 0.272087 0.239241
0.395062 0.280522 0.246868
0.424568 0.288925 0.254478
0.453908 0.297297 0.262070
0.483082 0.305636 0.269643
0.512089 0.313943 0.277199
0.540930 0.322217 0.284735
0.569605 0.330460 0.292253
0.598113 0.338669 0.299751
0.626454 0.346846 0.307231
0.654630 0.354990 0.314690
0.657279 0.355757 0.315393
0.230161 0.264269 0.216268
0.260481 0.272758 0.223948
0.290636 0.281216 0.231611
0.320623 0.289643 0.239257
0.350445 0.298037 0.246885
0.380100 0.306400 0.254496
0.409589 0.314730 0.262089
0.438911 0.323029 0.269665
0.468067 0.331295 0.277221
0.497056 0.339529 0.284759
0.525880 0.347730 0.292279
0.554537 0.355898 0.299779
0.583027 0.364034 0.307260
0.611351 0.372137 0.314721
0.639509 0.380207 0.322162
0.667500 0.388244 0.329583
0.670132 0.389000 0.330282
0.245669 0.298829 0.231625
0.275806 0.307215 0.239272
0.305776 0.315569 0.246902
0.335580 0.323891 0.254515
0.365217 0.332181 0.262109
0.394688 0.340439 0.269686
0.423993 0.348664 0.277244
0.453131 0.356857 0.284784
0.482103 0.365017 0.292305
0.510909 0.373145 0.299806
0.539548 0.381239 0.307289
0.568021 0.389301 0.314751
0.596327 0.397329 0.322194
0.624467 0.405325 0.329617
0.652441 0.413287 0.337019
0.680248 0.421215 0.344401
0.682863 0.421961 0.345096
0.261055 0.333118 0.246919
0.291008 0.341400 0.254533
0.320794 0.349649 0.262129
0.350414 0.357866 0.269707
0.379867 0.366051 0.277267
0.409154 0.374203 0.284808
0.438275 0.382322 0.292331
0.467229 0.390408 0.299834
0.496017 0.398462 0.307318
0.524638 0.406482 0.314782
0.553093 0.414469 0.322227
0.581382 0.422423 0.329651
0.609505 0.430343 0.337055
0.637461 0.438230 0.344438
0.665250 0.446083 0.351801
0.692873 0.453903 0.359142
0.695471 0.454639 0.359833
0.276319 0.367134 0.262149
0.306087 0.375311 0.269729
0.335689 0.383454 0.277290
0.365125 0.391566 0.284833
0.394395 0.399644 0.292357
0.423498 0.407689 0.299862
0.452434 0.415702 0.307347
0.481204 0.423681 0.314813
0.509808 0.431627 0.322260
0.538246 0.439539 0.329686
0.566517 0.447418 0.337091
0.594621 0.455263 0.344476
0.622560 0.463075 0.351841
0.650332 0.470852 0.359183
0.677937 0.478596 0.366505
0.705377 0.486305 0.373805
0.707957 0.487031 0.374492
0.291460 0.400875 0.277313
0.321045 0.408946 0.284858
0.350463 0.416983 0.292383
0.379714 0.424987 0.299890
0.408800 0.432959 0.307377
0.437719 0.440897 0.314845
0.466471 0.448801 0.322292
0.495057 0.456672 0.329720
0.523477 0.464510 0.337128
0.551731 0.472313 0.344514
0.579818 0.480083 0.351880
0.607738 0.487819 0.359225
0.635493 0.495521 0.366548
0.663081 0.503188 0.373850
0.690502 0.510822 0.381130
0.717757 0.518420 0.388388
0.720320 0.519135 0.389071
0.306479 0.434340 0.292410
0.335880 0.442303 0.299918
0.365114 0.450233 0.307407
0.394181 0.458130 0.314876
0.423083 0.465993 0.322325
0.451818 0.473823 0.329755
0.480386 0.481619 0.337164
0.508788 0.489381 0.344553
0.537024 0.497110 0.351920
0.565093 0.504804 0.359267
0.592996 0.512464 0.366592
0.620733 0.520089 0.373896
0.648303 0.527680 0.381177
0.675707 0.535237 0.388437
0.702945 0.542759 0.395674
0.730016 0.550246 0.402888
0.732561 0.550951 0.403568
0.321376 0.467525 0.307436
0.350592 0.475381 0.314907
0.379642 0.483203 0.322358
0.408526 0.490991 0.329790
0.437243 0.498746 0.337200
0.465794 0.506467 0.344591
0.494178 0.514153 0.351960
0.522397 0.521806 0.359309
0.550448 0.529424 0.366636
0.578334 0.537008 0.373941
0.606053 0.544557 0.381225
0.633605 0.552071 0.388486
0.660991 0.559551 0.395725
0.688211 0.566996 0.402941
0.715265 0.574406 0.410135
0.742152 0.581781 0.417305
0.744680 0.582475 0.417980
0.336150 0.500430 0.322392
0.365183 0.508177 0.329824
0.394049 0.515890 0.337237
0.422748 0.523570 0.344629
0.451281 0.531215 0.352000
0.479648 0.538826 0.359351
0.507849 0.546402 0.366680
0.535883 0.553944 0.373987
0.563750 0.561451 0.381272
0.591452 0.568924 0.388536
0.618987 0.576361 0.395777
0.646355 0.583764 0.402995
0.673557 0.591131 0.410190
0.700593 0.598464 0.417363
0.727463 0.605761 0.424511
0.754166 0.613022 0.431636
0.756676 0.613705 0.432307
0.350802 0.533052 0.337274
0.379650 0.540690 0.344668
0.408332 0.548294 0.352041
0.436848 0.555863 0.359393
0.465197 0.563398 0.366723
0.493380 0.570898 0.374033
0.521396 0.578363 0.381320
0.549246 0.585794 0.388585
0.576930 0.593189 0.395828
0.604447 0.600550 0.403048
0.631798 0.607875 0.410246
0.658983 0.615165 0.417420
0.686001 0.622419 0.424571
0.712853 0.629638 0.431698
0.739538 0.636822 0.438801
0.766057 0.643969 0.445880
0.768550 0.644641 0.446547
0.365332 0.565390 0.352081
0.393996 0.572918 0.359435
0.422494 0.580411 0.366767
0.450825 0.587869 0.374078
0.478991 0.595293 0.381368
0.506989 0.602681 0.388635
0.534822 0.610035 0.395880
0.562488 0.617353 0.403102
0.589987 0.624636 0.410301
0.617321 0.631884 0.417478
0.644487 0.639096 0.424631
0.671488 0.646272 0.431760
0.698322 0.653413 0.438865
0.724990 0.660518 0.445946
0.751491 0.667586 0.453003
0.777826 0.674619 0.460035
0.780302 0.675280 0.460697
0.379739 0.597442 0.366811
0.408219 0.604858 0.374124
0.436533 0.612240 0.381416
0.464681 0.619587 0.388685
0.492662 0.626898 0.395931
0.520476 0.634175 0.403156
0.548125 0.641415 0.410357
0.575607 0.648621 0.417535
0.602922 0.655790 0.424690
0.630071 0.662924 0.431822
0.657054 0.670022 0.438929
0.683871 0.677084 0.446012
0.710521 0.684110 0.453071
0.737005 0.691100 0.460106
0.763322 0.698053 0.467115
0.789473 0.704970 0.474099
0.791931 0.705621 0.474757
0.394024 0.629205 0.381463
0.422320 0.636510 0.388734
0.450450 0.643780 0.395983
0.478413 0.651014 0.403209
0.506210 0.658212 0.410413
0.533841 0.665376 0.417593
0.561305 0.672503 0.424750
0.588603 0.679594 0.431884
0.615735 0.686650 0.438993
0.642700 0.693669 0.446079
0.669499 0.700652 0.453140
0.696131 0.707599 0.460176
0.722597 0.714510 0.467188
0.748897 0.721383 0.474174
0.775030 0.728221 0.481135
0.800997 0.735021 0.488070
0.803438 0.735660 0.488723
0.408186 0.660678 0.396035
0.436299 0.667871 0.403263
0.464244 0.675027 0.410469
0.492024 0.682148 0.417651
0.519637 0.689233 0.424810
0.547083 0.696282 0.431946
0.574364 0.703295 0.439057
0.601478 0.710272 0.446145
0.628425 0.717213 0.453208
0.655206 0.724117 0.460247
0.681821 0.730984 0.467260
0.708269 0.737815 0.474249
0.734551 0.744609 0.481212
0.760667 0.751366 0.488150
0.786616 0.758086 0.495061
0.812399 0.764769 0.501947
0.814823 0.765398 0.502595
0.422227 0.691860 0.410525
0.450155 0.698939 0.417709
0.477917 0.705981 0.424870
0.505512 0.712988 0.432008
0.532941 0.719959 0.439122
0.560204 0.726893 0.446211
0.587300 0.733791 0.453277
0.614230 0.740652 0.460317
0.640993 0.747477 0.467333
0.667590 0.754265 0.474324
0.694021 0.761016 0.481290
0.720285 0.767730 0.488229
0.746383 0.774406 0.495143
0.772315 0.781046 0.502031
0.798080 0.787648 0.508892
0.823679 0.794213 0.515727
0.826085 0.794830 0.516370
0.436145 0.722747 0.424930
0.463889 0.729712 0.432070
0.491466 0.736640 0.439186
0.518878 0.743532 0.446278
0.546123 0.750387 0.453345
0.573201 0.757206 0.460388
0.600113 0.763987 0.467406
0.626859 0.770732 0.474400
0.653439 0.777440 0.481367
0.679852 0.784111 0.488309
0.706098 0.790745 0.495226
0.732179 0.797341 0.502116
0.758093 0.803900 0.508979
0.783840 0.810421 0.515816
0.809421 0.816905 0.522626
0.834836 0.823351 0.529409
0.837225 0.823957 0.530047
0.201375 0.197484 0.205234
0.232031 0.206167 0.212950
0.262521 0.214820 0.220650
0.292844 0.223441 0.228333
0.323000 0.232032 0.235999
0.352991 0.240591 0.243648
0.382815 0.249118 0.251281
0.412473 0.257614 0.258896
0.441964 0.266079 0.266493
0.471289 0.274511 0.274072
0.500447 0.282912 0.281633
0.529439 0.291281 0.289175
0.558265 0.299617 0.296699
0.586924 0.307922 0.304203
0.615417 0.316193 0.311689
0.643744 0.324433 0.319154
0.646408 0.325209 0.319858
0.217107 0.232546 0.220663
0.247579 0.241128 0.228347
0.277885 0.249678 0.236015
0.308024 0.258197 0.243666
0.337997 0.266684 0.251299
0.367803 0.275139 0.258916
0.397443 0.283563 0.266514
0.426917 0.291955 0.274095
0.456224 0.300315 0.281657
0.485365 0.308643 0.289201
0.514339 0.316939 0.296727
0.543147 0.325202 0.304233
0.571789 0.333433 0.311720
0.600264 0.341631 0.319187
0.628573 0.349797 0.326635
0.656716 0.357929 0.334062
0.659362 0.358695 0.334762
0.232717 0.267341 0.236031
0.263005 0.275819 0.243683
0.293127 0.284266 0.251318
0.323082 0.292682 0.258936
0.352870 0.301065 0.266536
0.382493 0.309416 0.274118
0.411949 0.317736 0.281682
0.441238 0.326023 0.289228
0.470361 0.334278 0.296754
0.499318 0.342500 0.304262
0.528109 0.350690 0.311751
0.556733 0.358847 0.319220
0.585190 0.366971 0.326669
0.613482 0.375062 0.334098
0.641607 0.383121 0.341507
0.669565 0.391146 0.348896
0.672194 0.391901 0.349592
0.248205 0.301866 0.251337
0.278309 0.310241 0.258956
0.308246 0.318584 0.266558
0.338017 0.326895 0.274142
0.367622 0.335173 0.281707
0.397060 0.343420 0.289254
0.426332 0.351634 0.296782
0.455438 0.359815 0.304292
0.484377 0.367964 0.311782
0.513149 0.376080 0.319253
0.541756 0.384163 0.326704
0.570196 0.392213 0.334135
0.598470 0.400230 0.341545
0.626577 0.408213 0.348936
0.654518 0.416164 0.356305
0.682292 0.424080 0.363653
0.684904 0.424825 0.364345
0.263570 0.336120 0.266580
0.293490 0.344390 0.274165
0.323243 0.352628 0.281732
0.352830 0.360834 0.289281
0.382251 0.369007 0.296811
0.411505 0.377147 0.304322
0.440593 0.385255 0.311813
0.469515 0.393330 0.319286
0.498270 0.401372 0.326738
0.526858 0.409381 0.334171
0.555281 0.417356 0.341584
0.583537 0.425298 0.348976
0.611626 0.433207 0.356347
0.639550 0.441082 0.363697
0.667306 0.448923 0.371026
0.694897 0.456731 0.378333
0.697491 0.457466 0.379021
0.278813 0.370100 0.281757
0.308549 0.378265 0.289307
0.338118 0.386397 0.296839
0.367521 0.394497 0.304351
0.396758 0.402564 0.311845
0.425828 0.410597 0.319319
0.454732 0.418598 0.326773
0.483469 0.426566 0.334208
0.512040 0.434500 0.341622
0.540445 0.442401 0.349016
0.568683 0.450268 0.356389
0.596755 0.458101 0.363740
0.624661 0.465901 0.371071
0.652400 0.473667 0.378380
0.679973 0.481398 0.385668
0.707379 0.489096 0.392933
0.709956 0.489820 0.393617
0.293934 0.403805 0.296867
0.323485 0.411864 0.304381
0.352871 0.419889 0.311876
0.382089 0.427882 0.319352
0.411142 0.435842 0.326808
0.440028 0.443768 0.334244
0.468748 0.451661 0.341660
0.497301 0.459520 0.349056
0.525688 0.467346 0.356430
0.553909 0.475138 0.363784
0.581963 0.482896 0.371117
0.609851 0.490620 0.378428
0.637573 0.498310 0.385717
0.665128 0.505965 0.392984
0.692517 0.513586 0.400229
0.719739 0.521173 0.407452
0.722299 0.521887 0.408132
0.308932 0.437233 0.311908
0.338299 0.445184 0.319385
0.367501 0.453103 0.326843
0.396536 0.460988 0.334281
0.425404 0.468840 0.341699
0.454106 0.476658 0.349096
0.482642 0.484442 0.356473
0.511011 0.492192 0.363828
0.539214 0.499909 0.371163
0.567251 0.507591 0.378475
0.595121 0.515239 0.385767
0.622825 0.522852 0.393036
0.650363 0.530431 0.400283
0.677734 0.537976 0.407507
0.704938 0.545486 0.414708
0.731977 0.552961 0.421887
0.734519 0.553664 0.422563
0.323808 0.470381 0.326878
0.352991 0.478225 0.334318
0.382008 0.486036 0.341737
0.410859 0.493812 0.349136
0.439544 0.501555 0.356515
0.468062 0.509264 0.363872
0.496414 0.516939 0.371208
0.524599 0.524579 0.378523
0.552618 0.532185 0.385816
0.580470 0.539757 0.393087
0.608157 0.547294 0.400336
0.635677 0.554797 0.407562
0.663030 0.562264 0.414766
0.690217 0.569697 0.421946
0.717238 0.577094 0.429104
0.744092 0.584457 0.436237
0.746617 0.585150 0.436909
0.338561 0.503249 0.341776
0.367561 0.510985 0.349177
0.396394 0.518686 0.356557
0.425061 0.526353 0.363916
0.453561 0.533987 0.371254
0.481895 0.541585 0.378571
0.510063 0.549150 0.385866
0.538064 0.556680 0.393139
0.565899 0.564175 0.400390
0.593568 0.571635 0.407618
0.621070 0.579061 0.414823
0.648406 0.586451 0.422006
0.675575 0.593806 0.429165
0.702578 0.601126 0.436301
0.729415 0.608411 0.443413
0.756085 0.615660 0.450501
0.758593 0.616342 0.451168
0.353192 0.535834 0.356599
0.382008 0.543460 0.363960
0.410657 0.551052 0.371300
0.439140 0.558609 0.378619
0.467456 0.566132 0.385916
0.495606 0.573620 0.393191
0.523590 0.581073 0.400443
0.551407 0.588491 0.407674
0.579058 0.595875 0.414881
0.606542 0.603223 0.422066
0.633861 0.610536 0.429227
0.661012 0.617813 0.436365
0.687998 0.625056 0.443479
0.714817 0.632262 0.450569
0.741469 0.639433 0.457635
0.767956 0.646568 0.464676
0.770446 0.647239 0.465339
0.367701 0.568135 0.371346
0.396332 0.575650 0.378667
0.424798 0.583131 0.385965
0.453096 0.590578 0.393242
0.481229 0.597989 0.400497
0.509195 0.605365 0.407729
0.536994 0.612707 0.414939
0.564628 0.620013 0.422125
0.592094 0.627283 0.429289
0.619395 0.634519 0.436429
0.646529 0.641718 0.443545
0.673497 0.648882 0.450637
0.700298 0.656010 0.457705
0.726933 0.663102 0.464748
0.753402 0.670158 0.471767
0.779704 0.677178 0.478760
0.782177 0.677839 0.479419
0.382087 0.600149 0.386015
0.410535 0.607553 0.393294
0.438816 0.614923 0.400551
0.466931 0.622257 0.407785
0.494879 0.629556 0.414997
0.522661 0.636820 0.422185
0.550277 0.644049 0.429351
0.577726 0.651242 0.436493
0.605009 0.658399 0.443611
0.632125 0.665520 0.450705
0.659075 0.672606 0.457775
0.685859 0.679655 0.464821
0.712476 0.686668 0.471842
0.738927 0.693645 0.478838
0.765212 0.700586 0.485808
0.791330 0.707490 0.492753
0.793785 0.708140 0.493407
0.396351 0.631874 0.400605
0.424615 0.639167 0.407841
0.452712 0.646424 0.415055
0.480643 0.653646 0.422245
0.508407 0.660832 0.429413
0.536005 0.667983 0.436557
0.563436 0.675097 0.443677
0.590702 0.682176 0.450774
0.617800 0.689219 0.457846
0.644733 0.696226 0.464894
0.671499 0.703197 0.471917
0.698098 0.710131 0.478915
0.724532 0.717028 0.485887
0.750799 0.723889 0.492835
0.776899 0.730714 0.499756
0.802833 0.737501 0.506651
0.805271 0.738139 0.507300
0.410493 0.663309 0.415113
0.438573 0.670489 0.422305
0.466486 0.677633 0.429475
0.494232 0.684741 0.436621
0.521813 0.691814 0.443744
0.549226 0.698850 0.450842
0.576474 0.705851 0.457917
0.603555 0.712815 0.464967
0.630470 0.719743 0.471992
0.657218 0.726634 0.478992
0.683800 0.733489 0.485967
0.710216 0.740307 0.492916
0.736465 0.747088 0.499840
0.762548 0.753832 0.506738
0.788464 0.760539 0.513609
0.814215 0.767209 0.520454
0.816635 0.767837 0.521098
0.424513 0.694452 0.429537
0.452408 0.701518 0.436685
0.480137 0.708548 0.443810
0.507700 0.715542 0.450911
0.535096 0.722500 0.457987
0.562326 0.729422 0.465039
0.589389 0.736307 0.472067
0.616286 0.743156 0.479069
0.643017 0.749967 0.486047
0.669581 0.756742 0.492998
0.695979 0.763481 0.499924
0.722211 0.770182 0.506824
0.748276 0.776845 0.513698
0.774175 0.783472 0.520545
0.799907 0.790061 0.527366
0.825473 0.796613 0.534159
0.827877 0.797229 0.534799
0.438410 0.725301 0.443876
0.466121 0.732252 0.450979
0.493666 0.739168 0.458058
0.521044 0.746047 0.465112
0.548257 0.752889 0.472142
0.575302 0.759695 0.479147
0.602182 0.766464 0.486126
0.628895 0.773196 0.493080
0.655442 0.779891 0.500009
0.681822 0.786549 0.506911
0.708036 0.793170 0.513787
0.734083 0.799753 0.520637
0.759965 0.806299 0.527460
0.785679 0.812807 0.534256
0.811228 0.819277 0.541024
0.836610 0.825710 0.547765
0.838996 0.826315 0.548399
0.203970 0.200622 0.225079
0.234593 0.209295 0.232768
0.265050 0.217936 0.240441
0.295340 0.226547 0.248097
0.325464 0.235126 0.255736
0.355422 0.243674 0.263358
0.385213 0.252191 0.270962
0.414838 0.260676 0.278548
0.444296 0.269129 0.286117
0.473589 0.277550 0.293666
0.502714 0.285940 0.301198
0.531674 0.294297 0.308710
0.560467 0.302623 0.316203
0.589093 0.310916 0.323677
0.617553 0.319176 0.331132
0.645847 0.327404 0.338566
0.648508 0.328179 0.339266
0.219681 0.235650 0.240459
0.250120 0.244220 0.248116
0.280393 0.252759 0.255757
0.310499 0.261267 0.263380
0.340439 0.269743 0.270985
0.370213 0.278188 0.278573
0.399820 0.286600 0.286143
0.429261 0.294981 0.293695
0.458536 0.303330 0.301228
0.487644 0.311647 0.308742
0.516585 0.319931 0.316237
0.545361 0.328183 0.323712
0.573970 0.336402 0.331168
0.602412 0.344589 0.338604
0.630688 0.352743 0.346020
0.658798 0.360864 0.353415
0.661441 0.361629 0.354112
0.235270 0.270409 0.255777
0.265525 0.278877 0.263402
0.295614 0.287313 0.271009
0.325536 0.295717 0.278599
0.355292 0.304089 0.286170
0.384882 0.312429 0.293723
0.414305 0.320737 0.301257
0.443562 0.329013 0.308773
0.472652 0.337256 0.316270
0.501576 0.345467 0.323747
0.530334 0.353646 0.331205
0.558925 0.361791 0.338642
0.587350 0.369904 0.346060
0.615609 0.377984 0.353457
0.643701 0.386031 0.360834
0.671627 0.394044 0.368189
0.674253 0.394798 0.368882
0.250737 0.304899 0.271033
0.280808 0.313263 0.278624
0.310713 0.321594 0.286197
0.340451 0.329894 0.293751
0.370023 0.338161 0.301287
0.399429 0.346396 0.308805
0.428668 0.354599 0.316303
0.457740 0.362769 0.323782
0.486647 0.370906 0.331241
0.515387 0.379011 0.338681
0.543960 0.387082 0.346100
0.572368 0.395121 0.353499
0.600609 0.403126 0.360877
0.628683 0.411098 0.368235
0.656591 0.419036 0.375571
0.684333 0.426941 0.382886
0.686942 0.427686 0.383575
0.266082 0.339117 0.286224
0.295969 0.347376 0.293780
0.325689 0.355603 0.301317
0.355243 0.363797 0.308836
0.384631 0.371959 0.316336
0.413853 0.380088 0.323817
0.442908 0.388184 0.331278
0.471797 0.396248 0.338719
0.500519 0.404278 0.346140
0.529075 0.412275 0.353541
0.557465 0.420239 0.360921
0.585688 0.428169 0.368281
0.613745 0.436066 0.375619
0.641635 0.443930 0.382935
0.669359 0.451759 0.390231
0.696917 0.459555 0.397504
0.699508 0.460288 0.398189
0.281304 0.373061 0.301348
0.311007 0.381215 0.308868
0.340543 0.389336 0.316370
0.369913 0.397424 0.323852
0.399117 0.405479 0.331315
0.428155 0.413502 0.338758
0.457026 0.421491 0.346181
0.485730 0.429447 0.353583
0.514269 0.437369 0.360965
0.542641 0.445258 0.368326
0.570846 0.453113 0.375666
0.598885 0.460935 0.382985
0.626758 0.468723 0.390282
0.654465 0.476477 0.397557
0.682005 0.484197 0.404810
0.709378 0.491882 0.412041
0.711952 0.492605 0.412721
0.296403 0.406730 0.316403
0.325922 0.414777 0.323887
0.355275 0.422792 0.331352
0.384461 0.430773 0.338796
0.413481 0.438721 0.346221
0.442334 0.446636 0.353625
0.471021 0.454517 0.361009
0.499542 0.462364 0.368372
0.527896 0.470178 0.375714
0.556084 0.477958 0.383034
0.584106 0.485704 0.390333
0.611961 0.493416 0.397610
0.639649 0.501094 0.404865
0.667172 0.508738 0.412098
0.694528 0.516347 0.419308
0.721718 0.523921 0.426495
0.724274 0.524634 0.427171
0.311381 0.440122 0.331388
0.340716 0.448062 0.338835
0.369884 0.455969 0.346261
0.398886 0.463842 0.353667
0.427722 0.471682 0.361053
0.456391 0.479488 0.368418
0.484894 0.487261 0.375762
0.513231 0.494999 0.383084
0.541401 0.502703 0.390385
0.569405 0.510374 0.397664
0.597243 0.518010 0.404921
0.624914 0.525611 0.412155
0.652418 0.533178 0.419367
0.679757 0.540711 0.426556
0.706929 0.548208 0.433722
0.733934 0.555671 0.440864
0.736473 0.556373 0.441537
0.326236 0.473234 0.346302
0.355387 0.481066 0.353710
0.384371 0.488865 0.361097
0.413189 0.496629 0.368464
0.441841 0.504360 0.375809
0.470326 0.512057 0.383134
0.498645 0.519720 0.390437
0.526798 0.527349 0.397717
0.554784 0.534943 0.404976
0.582604 0.542502 0.412213
0.610257 0.550027 0.419427
0.637744 0.557518 0.426618
0.665065 0.564973 0.433786
0.692219 0.572393 0.440930
0.719207 0.579779 0.448051
0.746029 0.587129 0.455148
0.748551 0.587820 0.455816
0.340968 0.506065 0.361141
0.369935 0.513788 0.368510
0.398736 0.521478 0.375857
0.427370 0.529133 0.383184
0.455837 0.536754 0.390488
0.484139 0.544341 0.397771
0.512274 0.551893 0.405032
0.540242 0.559411 0.412270
0.568044 0.566894 0.419486
0.595680 0.574342 0.426679
0.623149 0.581756 0.433849
0.650453 0.589134 0.440996
0.677589 0.596477 0.448119
0.704559 0.603784 0.455218
0.731363 0.611056 0.462293
0.758001 0.618293 0.469343
0.760505 0.618974 0.470007
0.355579 0.538612 0.375905
0.384361 0.546226 0.383233
0.412978 0.553806 0.390540
0.441428 0.561351 0.397825
0.469711 0.568862 0.405088
0.497829 0.576338 0.412328
0.525780 0.583779 0.419546
0.553564 0.591185 0.426741
0.581182 0.598556 0.433913
0.608634 0.605892 0.441062
0.635919 0.613192 0.448187
0.663038 0.620458 0.455288
0.689991 0.627687 0.462365
0.716777 0.634881 0.469418
0.743397 0.642040 0.476446
0.769851 0.649162 0.483449
0.772338 0.649832 0.484108
0.370067 0.570875 0.390592
0.398665 0.578379 0.397879
0.427098 0.585848 0.405143
0.455364 0.593282 0.412386
0.483463 0.600681 0.419606
0.511397 0.608045 0.426803
0.539163 0.615374 0.433977
0.566764 0.622668 0.441128
0.594198 0.629926 0.448255
0.621466 0.637149 0.455358
0.648567 0.644336 0.462438
0.675502 0.651488 0.469492
0.702271 0.658603 0.476523
0.728873 0.665683 0.483528
0.755309 0.672726 0.490508
0.781578 0.679733 0.497463
0.784048 0.680393 0.498118
0.384432 0.602851 0.405199
0.412847 0.610244 0.412444
0.441095 0.617601 0.419666
0.469177 0.624923 0.426865
0.497093 0.632210 0.434041
0.524842 0.639462 0.441194
0.552425 0.646678 0.448323
0.579841 0.653858 0.455429
0.607091 0.661003 0.462510
0.634175 0.668112 0.469567
0.661092 0.675185 0.476600
0.687843 0.682222 0.483607
0.714428 0.689222 0.490590
0.740846 0.696187 0.497547
0.767098 0.703114 0.504478
0.793183 0.710006 0.511383
0.795635 0.710654 0.512033
0.398676 0.634539 0.419726
0.426906 0.641819 0.426927
0.454970 0.649064 0.434105
0.482868 0.656273 0.441260
0.510600 0.663447 0.448391
0.538165 0.670585 0.455499
0.565564 0.677688 0.462583
0.592796 0.684754 0.469642
0.619862 0.691784 0.476677
0.646762 0.698778 0.483687
0.673495 0.705736 0.490671
0.700062 0.712658 0.497631
0.726463 0.719543 0.504564
0.752697 0.726391 0.511472
0.778765 0.733202 0.518354
0.804666 0.739977 0.525209
0.807101 0.740614 0.525854
0.412796 0.665935 0.434169
0.440843 0.673103 0.441326
0.468723 0.680234 0.448460
0.496437 0.687330 0.455570
0.523985 0.694390 0.462655
0.551366 0.701414 0.469717
0.578581 0.708402 0.476754
0.605629 0.715353 0.483766
0.632511 0.722269 0.490753
0.659227 0.729147 0.497715
0.685776 0.735989 0.504651
0.712159 0.742794 0.511561
0.738375 0.749563 0.518445
0.764425 0.756294 0.525302
0.790309 0.762988 0.532133
0.816026 0.769645 0.538937
0.818444 0.770271 0.539578
0.426795 0.697040 0.448528
0.454658 0.704093 0.455640
0.482354 0.711111 0.462728
0.509884 0.718092 0.469792
0.537247 0.725038 0.476831
0.564444 0.731947 0.483845
0.591475 0.738819 0.490835
0.618339 0.745655 0.497799
0.645037 0.752454 0.504737
0.671569 0.759216 0.511649
0.697934 0.765941 0.518536
0.724133 0.772629 0.525396
0.750165 0.779280 0.532229
0.776031 0.785894 0.539036
0.801731 0.792470 0.545815
0.827264 0.799008 0.552567
0.829665 0.799623 0.553203
0.440671 0.727849 0.462801
0.468350 0.734788 0.469867
0.495862 0.741691 0.476908
0.523208 0.748558 0.483925
0.550387 0.755387 0.490916
0.577400 0.762180 0.497883
0.604247 0.768936 0.504823
0.630927 0.775656 0.511738
0.657441 0.782338 0.518627
0.683789 0.788983 0.525490
0.709970 0.795590 0.532325
0.735985 0.802161 0.539134
0.761833 0.808693 0.545916
0.787515 0.815188 0.552671
0.813031 0.821645 0.559397
0.838380 0.828065 0.566096
0.840763 0.828668 0.566727
0.206561 0.203756 0.244908
0.237151 0.212418 0.252571
0.267575 0.221049 0.260216
0.297833 0.229649 0.267845
0.327924 0.238217 0.275457
0.357849 0.246754 0.283050
0.387608 0.255259 0.290626
0.417200 0.263733 0.298184
0.446625 0.272175 0.305723
0.475885 0.280586 0.313244
0.504978 0.288964 0.320745
0.533904 0.297310 0.328227
0.562665 0.305624 0.335690
0.591258 0.313906 0.343133
0.619686 0.322155 0.350556
0.647947 0.330372 0.357959
0.650605 0.331145 0.358656
0.222252 0.238749 0.260239
