app/src/main/assets/luts/era_2026.cube
TITLE "Generation Camera 2026"
LUT_3D_SIZE 9
DOMAIN_MIN 0.0 0.0 0.0
DOMAIN_MAX 1.0 1.0 1.0
0.000000 0.000000 0.000000
0.122654 0.000000 0.000000
0.249674 0.000000 0.000000
0.379566 0.000000 0.000000
0.510830 0.000000 0.000000
0.641972 0.000000 0.000000
0.771493 0.000000 0.000000
0.897897 0.000000 0.000000
1.000000 0.000000 0.000000
0.000000 0.121595 0.000000
0.120497 0.120497 0.000000
0.247455 0.119399 0.000000
0.377309 0.118301 0.000000
0.508563 0.117204 0.000000
0.639719 0.116107 0.000000
0.769281 0.115010 0.000000
0.895752 0.113913 0.000000
1.000000 0.112817 0.000000
0.000000 0.247497 0.000000
0.118341 0.246366 0.000000
0.245236 0.245236 0.000000
0.375054 0.244107 0.000000
0.506296 0.242977 0.000000
0.637466 0.241848 0.000000
0.767068 0.240719 0.000000
0.893605 0.239590 0.000000
1.000000 0.238462 0.000000
0.000000 0.376245 0.000000
0.116187 0.375096 0.000000
0.243019 0.373947 0.000000
0.372798 0.372798 0.000000
0.504029 0.371650 0.000000
0.635213 0.370501 0.000000
0.764855 0.369353 0.000000
0.891457 0.368204 0.000000
1.000000 0.367056 0.000000
0.000000 0.506381 0.000000
0.114034 0.505226 0.000000
0.240802 0.504071 0.000000
0.370543 0.502916 0.000000
0.501761 0.501761 0.000000
0.632959 0.500606 0.000000
0.762640 0.499452 0.000000
0.889308 0.498297 0.000000
1.000000 0.497142 0.000000
0.000000 0.636445 0.000000
0.111883 0.635298 0.000000
0.238586 0.634150 0.000000
0.368289 0.633002 0.000000
0.499494 0.631853 0.000000
0.630705 0.630705 0.000000
0.760425 0.629557 0.000000
0.887157 0.628408 0.000000
1.000000 0.627259 0.000000
0.000000 0.764979 0.000000
0.109733 0.763851 0.000000
0.236371 0.762723 0.000000
0.366035 0.761595 0.000000
0.497227 0.760466 0.000000
0.628450 0.759338 0.000000
0.758209 0.758209 0.000000
0.885005 0.757079 0.000000
1.000000 0.755950 0.000000
0.000000 0.890524 0.000000
0.107584 0.889429 0.000000
0.234157 0.888333 0.000000
0.363781 0.887238 0.000000
0.494959 0.886142 0.000000
0.626195 0.885045 0.000000
0.755991 0.883948 0.000000
0.882851 0.882851 0.000000
1.000000 0.881754 0.000000
0.000000 1.000000 0.000000
0.105437 1.000000 0.000000
0.231944 1.000000 0.000000
0.361528 1.000000 0.000000
0.492692 1.000000 0.000000
0.623940 1.000000 0.000000
0.753773 1.000000 0.000000
0.880697 1.000000 0.000000
1.000000 1.000000 0.000000
0.000000 0.000000 0.123334
0.122235 0.000000 0.122235
0.249243 0.000000 0.121136
0.379127 0.000000 0.120038
0.510390 0.000000 0.118940
0.641534 0.000000 0.117842
0.771063 0.000000 0.116745
0.897481 0.000000 0.115648
1.000000 0.000000 0.114551
0.000000 0.121176 0.121176
0.120078 0.120078 0.120078
0.247024 0.118980 0.118980
0.376871 0.117883 0.117883
0.508123 0.116785 0.116785
0.639282 0.115688 0.115688
0.768852 0.114592 0.114592
0.895335 0.113496 0.113496
1.000000 0.112400 0.112400
0.000000 0.247066 0.119021
0.117923 0.245936 0.117923
0.244806 0.244806 0.116826
0.374616 0.243676 0.115729
0.505856 0.242547 0.114632
0.637029 0.241418 0.113536
0.766639 0.240289 0.112440
0.893188 0.239160 0.111344
1.000000 0.238031 0.110249
0.000000 0.375807 0.116866
0.115769 0.374658 0.115769
0.242588 0.373509 0.114672
0.372360 0.372360 0.113576
0.503588 0.371212 0.112480
0.634775 0.370063 0.111385
0.764425 0.368915 0.110289
0.891040 0.367766 0.109195
1.000000 0.366618 0.108100
0.000000 0.505941 0.114713
0.113616 0.504786 0.113616
0.240372 0.503631 0.112521
0.370105 0.502476 0.111425
0.501321 0.501321 0.110330
0.632522 0.500166 0.109235
0.762210 0.499011 0.108140
0.888890 0.497856 0.107046
1.000000 0.496701 0.105952
0.000000 0.636008 0.112561
0.111465 0.634860 0.111465
0.238156 0.633712 0.110370
0.367851 0.632564 0.109275
0.499054 0.631416 0.108181
0.630267 0.630267 0.107086
0.759995 0.629119 0.105993
0.886739 0.627970 0.104899
1.000000 0.626821 0.103806
0.000000 0.764549 0.110410
0.109315 0.763421 0.109315
0.235941 0.762293 0.108221
0.365597 0.761165 0.107127
0.496786 0.760036 0.106033
0.628012 0.758907 0.104939
0.757778 0.757778 0.103846
0.884587 0.756649 0.102753
1.000000 0.755519 0.101661
0.000000 0.890106 0.108261
0.107167 0.889011 0.107167
0.233727 0.887916 0.106073
0.363343 0.886820 0.104979
0.494519 0.885724 0.103886
0.625757 0.884627 0.102793
0.755561 0.883530 0.101701
0.882433 0.882433 0.100609
1.000000 0.881336 0.099517
0.000000 1.000000 0.106113
0.105020 1.000000 0.105020
0.231514 1.000000 0.103926
0.361090 1.000000 0.102834
0.492252 1.000000 0.101741
0.623502 1.000000 0.100649
0.753343 1.000000 0.099557
0.880278 1.000000 0.098466
1.000000 1.000000 0.097375
0.000000 0.000000 0.251074
0.121816 0.000000 0.249943
0.248812 0.000000 0.248812
0.378689 0.000000 0.247682
0.509950 0.000000 0.246552
0.641097 0.000000 0.245422
0.770634 0.000000 0.244292
0.897064 0.000000 0.243162
1.000000 0.000000 0.242033
0.000000 0.120758 0.248854
0.119659 0.119659 0.247723
0.246593 0.118562 0.246593
0.376433 0.117464 0.245463
0.507682 0.116367 0.244333
0.638844 0.115270 0.243204
0.768422 0.114174 0.242075
0.894918 0.113078 0.240946
1.000000 0.111982 0.239817
0.000000 0.246635 0.246635
0.117505 0.245505 0.245505
0.244375 0.244375 0.244375
0.374178 0.243245 0.243245
0.505415 0.242116 0.242116
0.636591 0.240987 0.240987
0.766209 0.239858 0.239858
0.892771 0.238730 0.238730
1.000000 0.237601 0.237601
0.000000 0.375369 0.244417
0.115351 0.374220 0.243287
0.242158 0.373071 0.242158
0.371922 0.371922 0.241029
0.503148 0.370774 0.239900
0.634338 0.369625 0.238771
0.763995 0.368477 0.237643
0.890622 0.367329 0.236514
1.000000 0.366181 0.235387
0.000000 0.505500 0.242199
0.113199 0.504345 0.241070
0.239941 0.503190 0.239941
0.369668 0.502036 0.238813
0.500881 0.500881 0.237684
0.632084 0.499726 0.236556
0.761780 0.498571 0.235428
0.888472 0.497416 0.234300
1.000000 0.496261 0.233173
0.000000 0.635570 0.239983
0.111048 0.634422 0.238854
0.237726 0.633274 0.237726
0.367413 0.632126 0.236597
0.498613 0.630978 0.235470
0.629829 0.629829 0.234342
0.759564 0.628681 0.233214
0.886321 0.627532 0.232087
1.000000 0.626383 0.230960
0.000000 0.764119 0.237767
0.108898 0.762991 0.236639
0.235511 0.761863 0.235511
0.365159 0.760734 0.234383
0.496346 0.759606 0.233256
0.627574 0.758477 0.232129
0.757348 0.757348 0.231002
0.884169 0.756218 0.229875
1.000000 0.755088 0.228748
0.000000 0.889689 0.235553
0.106750 0.888593 0.234425
0.233297 0.887498 0.233297
0.362906 0.886402 0.232170
0.494079 0.885306 0.231043
0.625319 0.884209 0.229916
0.755130 0.883112 0.228790
0.882015 0.882015 0.227663
1.000000 0.880917 0.226537
0.000000 1.000000 0.233339
0.104603 1.000000 0.232211
0.231084 1.000000 0.231084
0.360653 1.000000 0.229958
0.491812 1.000000 0.228831
0.623063 1.000000 0.227705
0.752912 1.000000 0.226579
0.879859 1.000000 0.225453
1.000000 1.000000 0.224327
0.000000 0.000000 0.381699
0.121397 0.000000 0.380550
0.248381 0.000000 0.379400
0.378251 0.000000 0.378251
0.509509 0.000000 0.377102
0.640659 0.000000 0.375953
0.770204 0.000000 0.374804
0.896647 0.000000 0.373655
1.000000 0.000000 0.372506
0.000000 0.120339 0.379443
0.119241 0.119241 0.378293
0.246162 0.118143 0.377144
0.375995 0.117046 0.375995
0.507242 0.115949 0.374846
0.638407 0.114852 0.373697
0.767992 0.113756 0.372548
0.894501 0.112660 0.371400
1.000000 0.111564 0.370251
0.000000 0.246204 0.377186
0.117086 0.245074 0.376037
0.243944 0.243944 0.374888
0.373739 0.242815 0.373739
0.504975 0.241686 0.372591
0.636154 0.240557 0.371442
0.765779 0.239428 0.370294
0.892354 0.238299 0.369145
1.000000 0.237171 0.367997
0.000000 0.374931 0.374931
0.114933 0.373782 0.373782
0.241727 0.372633 0.372633
0.371484 0.371484 0.371484
0.502708 0.370336 0.370336
0.633900 0.369187 0.369187
0.763565 0.368039 0.368039
0.890205 0.366891 0.366891
1.000000 0.365743 0.365743
0.000000 0.505060 0.372675
0.112781 0.503905 0.371527
0.239511 0.502750 0.370378
0.369230 0.501595 0.369230
0.500440 0.500440 0.368081
0.631646 0.499285 0.366933
0.761350 0.498131 0.365785
0.888055 0.496976 0.364637
1.000000 0.495821 0.363489
0.000000 0.635132 0.370420
0.110630 0.633984 0.369272
0.237296 0.632836 0.368124
0.366975 0.631688 0.366975
0.498173 0.630540 0.365827
0.629391 0.629391 0.364679
0.759134 0.628243 0.363532
0.885903 0.627094 0.362384
1.000000 0.625945 0.361236
0.000000 0.763689 0.368166
0.108481 0.762561 0.367018
0.235081 0.761433 0.365870
0.364722 0.760304 0.364722
0.495906 0.759175 0.363574
0.627136 0.758046 0.362426
0.756917 0.756917 0.361279
0.883750 0.755787 0.360131
1.000000 0.754658 0.358984
0.000000 0.889271 0.365912
0.106333 0.888176 0.364764
0.232867 0.887080 0.363616
0.362468 0.885984 0.362468
0.493638 0.884887 0.361321
0.624881 0.883791 0.360173
0.754699 0.882694 0.359026
0.881596 0.881596 0.357879
1.000000 0.880498 0.356732
0.000000 1.000000 0.363658
0.104186 1.000000 0.362511
0.230655 1.000000 0.361363
0.360215 1.000000 0.360215
0.491371 1.000000 0.359068
0.622625 1.000000 0.357921
0.752481 1.000000 0.356774
0.879441 1.000000 0.355627
1.000000 1.000000 0.354480
0.000000 0.000000 0.513688
0.120978 0.000000 0.512534
0.247950 0.000000 0.511379
0.377813 0.000000 0.510224
0.509069 0.000000 0.509069
0.640222 0.000000 0.507914
0.769775 0.000000 0.506759
0.896231 0.000000 0.505604
1.000000 0.000000 0.504450
0.000000 0.119920 0.511421
0.118822 0.118822 0.510266
0.245732 0.117725 0.509112
0.375557 0.116628 0.507957
0.506802 0.115531 0.506802
0.637969 0.114434 0.505647
0.767562 0.113338 0.504492
0.894084 0.112242 0.503337
1.000000 0.111147 0.502182
0.000000 0.245773 0.509154
0.116668 0.244643 0.507999
0.243514 0.243514 0.506844
0.373302 0.242384 0.505689
0.504535 0.241255 0.504535
0.635716 0.240126 0.503380
0.765349 0.238998 0.502225
0.891937 0.237869 0.501070
1.000000 0.236741 0.499915
0.000000 0.374493 0.506887
0.114515 0.373344 0.505732
0.241297 0.372195 0.504577
0.371046 0.371046 0.503422
0.502267 0.369898 0.502267
0.633462 0.368750 0.501112
0.763135 0.367601 0.499958
0.889787 0.366453 0.498803
1.000000 0.365305 0.497648
0.000000 0.504620 0.504620
0.112363 0.503465 0.503465
0.239081 0.502310 0.502310
0.368792 0.501155 0.501155
0.500000 0.500000 0.500000
0.631208 0.498845 0.498845
0.760919 0.497690 0.497690
0.887637 0.496535 0.496535
1.000000 0.495380 0.495380
0.000000 0.634695 0.502352
0.110213 0.633547 0.501197
0.236865 0.632399 0.500042
0.366538 0.631250 0.498888
0.497733 0.630102 0.497733
0.628954 0.628954 0.496578
0.758703 0.627805 0.495423
0.885485 0.626656 0.494268
1.000000 0.625507 0.493113
0.000000 0.763259 0.500085
0.108063 0.762131 0.498930
0.234651 0.761002 0.497775
0.364284 0.759874 0.496620
0.495465 0.758745 0.495465
0.626698 0.757616 0.494311
0.756486 0.756486 0.493156
0.883332 0.755357 0.492001
1.000000 0.754227 0.490846
0.000000 0.888853 0.497818
0.105916 0.887758 0.496663
0.232438 0.886662 0.495508
0.362031 0.885566 0.494353
0.493198 0.884469 0.493198
0.624443 0.883372 0.492043
0.754268 0.882275 0.490888
0.881178 0.881178 0.489734
1.000000 0.880080 0.488579
0.000000 1.000000 0.495550
0.103769 1.000000 0.494396
0.230225 1.000000 0.493241
0.359778 1.000000 0.492086
0.490931 1.000000 0.490931
0.622187 1.000000 0.489776
0.752050 1.000000 0.488621
0.879022 1.000000 0.487466
1.000000 1.000000 0.486312
0.000000 0.000000 0.645520
0.120559 0.000000 0.644373
0.247519 0.000000 0.643226
0.377375 0.000000 0.642079
0.508629 0.000000 0.640932
0.639785 0.000000 0.639785
0.769345 0.000000 0.638637
0.895814 0.000000 0.637489
1.000000 0.000000 0.636342
0.000000 0.119502 0.643268
0.118404 0.118404 0.642121
0.245301 0.117306 0.640974
0.375119 0.116209 0.639827
0.506362 0.115113 0.638679
0.637532 0.114016 0.637532
0.767133 0.112920 0.636384
0.893667 0.111824 0.635236
1.000000 0.110729 0.634088
0.000000 0.245342 0.641016
0.116250 0.244213 0.639869
0.243083 0.243083 0.638721
0.372864 0.241954 0.637574
0.504094 0.240825 0.636426
0.635278 0.239696 0.635278
0.764919 0.238567 0.634130
0.891519 0.237439 0.632982
1.000000 0.236311 0.631834
0.000000 0.374055 0.638764
0.114097 0.372906 0.637616
0.240866 0.371757 0.636468
0.370609 0.370609 0.635321
0.501827 0.369460 0.634173
0.633025 0.368312 0.633025
0.762704 0.367164 0.631876
0.889370 0.366016 0.630728
1.000000 0.364868 0.629580
0.000000 0.504179 0.636511
0.111945 0.503024 0.635363
0.238650 0.501869 0.634215
0.368354 0.500715 0.633067
0.499560 0.499560 0.631919
0.630770 0.498405 0.630770
0.760489 0.497250 0.629622
0.887219 0.496095 0.628473
1.000000 0.494940 0.627325
0.000000 0.634257 0.634257
0.109795 0.633109 0.633109
0.236435 0.631961 0.631961
0.366100 0.630813 0.630813
0.497292 0.629664 0.629664
0.628516 0.628516 0.628516
0.758273 0.627367 0.627367
0.885067 0.626218 0.626218
1.000000 0.625069 0.625069
0.000000 0.762829 0.632003
0.107646 0.761701 0.630855
0.234221 0.760572 0.629706
0.363846 0.759443 0.628558
0.495025 0.758314 0.627409
0.626261 0.757185 0.626261
0.756056 0.756056 0.625112
0.882914 0.754926 0.623963
1.000000 0.753796 0.622814
0.000000 0.888436 0.629749
0.105499 0.887340 0.628600
0.232008 0.886244 0.627452
0.361593 0.885148 0.626303
0.492758 0.884051 0.625154
0.624005 0.882954 0.624005
0.753838 0.881857 0.622856
0.880759 0.880759 0.621707
1.000000 0.879661 0.620557
0.000000 1.000000 0.627494
0.103353 1.000000 0.626345
0.229796 1.000000 0.625196
0.359341 1.000000 0.624047
0.490491 1.000000 0.622898
0.621749 1.000000 0.621749
0.751619 1.000000 0.620600
0.878603 1.000000 0.619450
1.000000 1.000000 0.618301
0.000000 0.000000 0.775673
0.120141 0.000000 0.774547
0.247088 0.000000 0.773421
0.376937 0.000000 0.772295
0.508188 0.000000 0.771169
0.639347 0.000000 0.770042
0.768916 0.000000 0.768916
0.895397 0.000000 0.767789
1.000000 0.000000 0.766661
0.000000 0.119083 0.773463
0.117985 0.117985 0.772337
0.244870 0.116888 0.771210
0.374681 0.115791 0.770084
0.505921 0.114694 0.768957
0.637094 0.113598 0.767830
0.766703 0.112502 0.766703
0.893250 0.111407 0.765575
1.000000 0.110311 0.764447
0.000000 0.244912 0.771252
0.115831 0.243782 0.770125
0.242652 0.242652 0.768998
0.372426 0.241523 0.767871
0.503654 0.240394 0.766744
0.634841 0.239266 0.765617
0.764489 0.238137 0.764489
0.891102 0.237009 0.763361
1.000000 0.235881 0.762233
0.000000 0.373617 0.769040
0.113679 0.372468 0.767913
0.240436 0.371319 0.766786
0.370171 0.370171 0.765658
0.501387 0.369022 0.764530
0.632587 0.367874 0.763403
0.762274 0.366726 0.762274
0.888952 0.365578 0.761146
1.000000 0.364430 0.760017
0.000000 0.503739 0.766827
0.111528 0.502584 0.765700
0.238220 0.501429 0.764572
0.367916 0.500274 0.763444
0.499119 0.499119 0.762316
0.630332 0.497964 0.761187
0.760059 0.496810 0.760059
0.886801 0.495655 0.758930
1.000000 0.494500 0.757801
0.000000 0.633819 0.764613
0.109378 0.632671 0.763486
0.236005 0.631523 0.762357
0.365662 0.630375 0.761229
0.496852 0.629226 0.760100
0.628078 0.628078 0.758971
0.757842 0.626929 0.757842
0.884649 0.625780 0.756713
1.000000 0.624631 0.755583
0.000000 0.762399 0.762399
0.107229 0.761270 0.761270
0.233791 0.760142 0.760142
0.363409 0.759013 0.759013
0.494585 0.757884 0.757884
0.625822 0.756755 0.756755
0.755625 0.755625 0.755625
0.882495 0.754495 0.754495
1.000000 0.753365 0.753365
0.000000 0.888018 0.760183
0.105082 0.886922 0.759054
0.231578 0.885826 0.757925
0.361156 0.884730 0.756796
0.492318 0.883633 0.755667
0.623567 0.882536 0.754537
0.753407 0.881438 0.753407
0.880341 0.880341 0.752277
1.000000 0.879242 0.751146
0.000000 1.000000 0.757967
0.102936 1.000000 0.756838
0.229366 1.000000 0.755708
0.358903 1.000000 0.754578
0.490050 1.000000 0.753448
0.621311 1.000000 0.752318
0.751188 1.000000 0.751188
0.878184 1.000000 0.750057
1.000000 1.000000 0.748926
0.000000 0.000000 0.902625
0.119722 0.000000 0.901534
0.246657 0.000000 0.900443
0.376498 0.000000 0.899351
0.507748 0.000000 0.898259
0.638910 0.000000 0.897166
0.768486 0.000000 0.896074
0.894980 0.000000 0.894980
1.000000 0.000000 0.893887
0.000000 0.118664 0.900483
0.117567 0.117567 0.899391
0.244439 0.116470 0.898299
0.374243 0.115373 0.897207
0.505481 0.114276 0.896114
0.636657 0.113180 0.895021
0.766273 0.112084 0.893927
0.892833 0.110989 0.892833
1.000000 0.109894 0.891739
0.000000 0.244481 0.898339
0.115413 0.243351 0.897247
0.242222 0.242222 0.896154
0.371988 0.241093 0.895061
0.503214 0.239964 0.893967
0.634403 0.238835 0.892873
0.764059 0.237707 0.891779
0.890685 0.236579 0.890685
1.000000 0.235451 0.889590
0.000000 0.373179 0.896194
0.113261 0.372030 0.895101
0.240005 0.370881 0.894007
0.369733 0.369733 0.892914
0.500946 0.368584 0.891819
0.632149 0.367436 0.890725
0.761844 0.366288 0.889630
0.888535 0.365140 0.888535
1.000000 0.363992 0.887439
0.000000 0.503299 0.894048
0.111110 0.502144 0.892954
0.237790 0.500989 0.891860
0.367478 0.499834 0.890765
0.498679 0.498679 0.889670
0.629895 0.497524 0.888575
0.759628 0.496369 0.887479
0.886384 0.495214 0.886384
1.000000 0.494059 0.885287
0.000000 0.633382 0.891900
0.108960 0.632234 0.890805
0.235575 0.631085 0.889711
0.365225 0.629937 0.888615
0.496412 0.628788 0.887520
0.627640 0.627640 0.886424
0.757412 0.626491 0.885328
0.884231 0.625342 0.884231
1.000000 0.624193 0.883134
0.000000 0.761969 0.889751
0.106812 0.760840 0.888656
0.233361 0.759711 0.887560
0.362971 0.758582 0.886464
0.494144 0.757453 0.885368
0.625384 0.756324 0.884271
0.755194 0.755194 0.883174
0.882077 0.754064 0.882077
1.000000 0.752934 0.880979
0.000000 0.887600 0.887600
0.104665 0.886504 0.886504
0.231148 0.885408 0.885408
0.360718 0.884312 0.884312
0.491877 0.883215 0.883215
0.623129 0.882117 0.882117
0.752976 0.881020 0.881020
0.879922 0.879922 0.879922
1.000000 0.878824 0.878824
0.000000 1.000000 0.885449
0.102519 1.000000 0.884352
0.228937 1.000000 0.883255
0.358466 1.000000 0.882158
0.489610 1.000000 0.881060
0.620873 1.000000 0.879962
0.750757 1.000000 0.878864
0.877765 1.000000 0.877765
1.000000 1.000000 0.876666
0.000000 0.000000 1.000000
0.119303 0.000000 1.000000
0.246227 0.000000 1.000000
0.376060 0.000000 1.000000
0.507308 0.000000 1.000000
0.638472 0.000000 1.000000
0.768056 0.000000 1.000000
0.894563 0.000000 1.000000
1.000000 0.000000 1.000000
0.000000 0.118246 1.000000
0.117149 0.117149 1.000000
0.244009 0.116052 1.000000
0.373805 0.114955 1.000000
0.505041 0.113858 1.000000
0.636219 0.112762 1.000000
0.765843 0.111667 1.000000
0.892416 0.110571 1.000000
1.000000 0.109476 1.000000
0.000000 0.244050 1.000000
0.114995 0.242921 1.000000
0.241791 0.241791 1.000000
0.371550 0.240662 1.000000
0.502773 0.239534 1.000000
0.633965 0.238405 1.000000
0.763629 0.237277 1.000000
0.890267 0.236149 1.000000
1.000000 0.235021 1.000000
0.000000 0.372741 1.000000
0.112843 0.371592 1.000000
0.239575 0.370443 1.000000
0.369295 0.369295 1.000000
0.500506 0.368147 1.000000
0.631711 0.366998 1.000000
0.761414 0.365850 1.000000
0.888117 0.364702 1.000000
1.000000 0.363555 1.000000
0.000000 0.502858 1.000000
0.110692 0.501703 1.000000
0.237360 0.500548 1.000000
0.367041 0.499394 1.000000
0.498239 0.498239 1.000000
0.629457 0.497084 1.000000
0.759198 0.495929 1.000000
0.885966 0.494774 1.000000
1.000000 0.493619 1.000000
0.000000 0.632944 1.000000
0.108543 0.631796 1.000000
0.235145 0.630647 1.000000
0.364787 0.629499 1.000000
0.495971 0.628350 1.000000
0.627202 0.627202 1.000000
0.756981 0.626053 1.000000
0.883813 0.624904 1.000000
1.000000 0.623755 1.000000
0.000000 0.761538 1.000000
0.106395 0.760410 1.000000
0.232932 0.759281 1.000000
0.362534 0.758152 1.000000
0.493704 0.757023 1.000000
0.624946 0.755893 1.000000
0.754764 0.754764 1.000000
0.881659 0.753634 1.000000
1.000000 0.752503 1.000000
0.000000 0.887183 1.000000
0.104248 0.886087 1.000000
0.230719 0.884990 1.000000
0.360281 0.883893 1.000000
0.491437 0.882796 1.000000
0.622691 0.881699 1.000000
0.752545 0.880601 1.000000
0.879503 0.879503 1.000000
1.000000 0.878405 1.000000
0.000000 1.000000 1.000000
0.102103 1.000000 1.000000
0.228507 1.000000 1.000000
0.358028 1.000000 1.000000
0.489170 1.000000 1.000000
0.620434 1.000000 1.000000
0.750326 1.000000 1.000000
0.877346 1.000000 1.000000
1.000000 1.000000 1.000000
