app/src/main/assets/luts/era_1920s.cube
TITLE "Generation Camera 1920s"
LUT_3D_SIZE 5
DOMAIN_MIN 0.0 0.0 0.0
DOMAIN_MAX 1.0 1.0 1.0
0.071470 0.067110 0.058420
0.112062 0.107189 0.097515
0.159193 0.153724 0.142908
0.211929 0.205793 0.193699
0.269336 0.262474 0.248989
0.169322 0.163725 0.152663
0.223067 0.216790 0.204426
0.281296 0.274283 0.260508
0.343075 0.335281 0.320008
0.407470 0.398861 0.382028
0.293398 0.286232 0.272163
0.355775 0.347820 0.332239
0.420581 0.411806 0.394655
0.486881 0.477268 0.458510
0.553742 0.543284 0.522905
0.433751 0.424810 0.407340
0.500238 0.490456 0.471375
0.567099 0.556472 0.535770
0.633399 0.621934 0.599625
0.698205 0.685920 0.662041
0.580434 0.569638 0.548613
0.646510 0.634879 0.612252
0.710905 0.698459 0.674272
0.772684 0.759457 0.733772
0.830913 0.816950 0.789854
0.103391 0.098627 0.089163
0.149289 0.143945 0.133369
0.200979 0.194981 0.183152
0.257526 0.250814 0.237614
0.317997 0.310520 0.295855
0.211929 0.205793 0.193699
0.269336 0.262474 0.248989
0.330480 0.322845 0.307878
0.394427 0.385983 0.369466
0.460241 0.450965 0.432853
0.343075 0.335281 0.320008
0.407470 0.398861 0.382028
0.473546 0.464102 0.445667
0.540370 0.530080 0.510026
0.607006 0.595875 0.574205
0.486881 0.477268 0.458510
0.553742 0.543284 0.522905
0.620229 0.608930 0.586940
0.685408 0.673285 0.649716
0.748346 0.735427 0.710332
0.633399 0.621934 0.599625
0.698205 0.685920 0.662041
0.760582 0.747508 0.722117
0.819596 0.805776 0.778954
0.874313 0.859801 0.831653
0.139616 0.134394 0.124053
0.190222 0.184360 0.172792
0.245873 0.239308 0.226391
0.305634 0.298313 0.283948
0.368572 0.360455 0.344564
0.257526 0.250814 0.237614
0.317997 0.310520 0.295855
0.381458 0.373178 0.356975
0.446974 0.437865 0.420075
0.513610 0.503660 0.484254
0.394427 0.385983 0.369466
0.460241 0.450965 0.432853
0.526990 0.516870 0.497140
0.593739 0.582775 0.561427
0.659553 0.647757 0.624814
0.540370 0.530080 0.510026
0.607006 0.595875 0.574205
0.672522 0.660562 0.637305
0.735983 0.723220 0.698425
0.796454 0.782926 0.756666
0.685408 0.673285 0.649716
0.748346 0.735427 0.710332
0.808107 0.794432 0.767889
0.863758 0.849380 0.821488
0.914364 0.899346 0.870227
0.179667 0.173939 0.162627
0.234384 0.227964 0.215326
0.293398 0.286232 0.272163
0.355775 0.347820 0.332239
0.420581 0.411806 0.394655
0.305634 0.298313 0.283948
0.368572 0.360455 0.344564
0.433751 0.424810 0.407340
0.500238 0.490456 0.471375
0.567099 0.556472 0.535770
0.446974 0.437865 0.420075
0.513610 0.503660 0.484254
0.580434 0.569638 0.548613
0.646510 0.634879 0.612252
0.710905 0.698459 0.674272
0.593739 0.582775 0.561427
0.659553 0.647757 0.624814
0.723500 0.710895 0.686402
0.784644 0.771266 0.745291
0.842051 0.827947 0.800581
0.735983 0.723220 0.698425
0.796454 0.782926 0.756666
0.853001 0.838759 0.811128
0.904691 0.889795 0.860911
0.950589 0.935113 0.905117
0.223067 0.216790 0.204426
0.281296 0.274283 0.260508
0.343075 0.335281 0.320008
0.407470 0.398861 0.382028
0.473546 0.464102 0.445667
0.355775 0.347820 0.332239
0.420581 0.411806 0.394655
0.486881 0.477268 0.458510
0.553742 0.543284 0.522905
0.620229 0.608930 0.586940
0.500238 0.490456 0.471375
0.567099 0.556472 0.535770
0.633399 0.621934 0.599625
0.698205 0.685920 0.662041
0.760582 0.747508 0.722117
0.646510 0.634879 0.612252
0.710905 0.698459 0.674272
0.772684 0.759457 0.733772
0.830913 0.816950 0.789854
0.884658 0.870015 0.841617
0.784643 0.771265 0.745291
0.842051 0.827947 0.800581
0.894787 0.880016 0.851372
0.941918 0.926551 0.896765
0.982510 0.966630 0.935860
