app/src/main/assets/luts/era_2000s.cube
TITLE "Generation Camera 2000s"
LUT_3D_SIZE 9
DOMAIN_MIN 0.0 0.0 0.0
DOMAIN_MAX 1.0 1.0 1.0
0.000001 0.000001 0.000001
0.091606 0.000001 0.000001
0.238999 0.000001 0.000001
0.420018 0.000001 0.000001
0.611958 0.000001 0.000001
0.791422 0.000001 0.000001
0.934652 0.000001 0.000001
1.000000 0.000001 0.000001
1.000000 0.000001 0.000001
0.000001 0.086400 0.000001
0.071260 0.076443 0.000001
0.210661 0.066896 0.000001
0.387491 0.057772 0.000001
0.579204 0.049084 0.000001
0.762497 0.040844 0.000001
0.913651 0.033067 0.000001
1.000000 0.025766 0.000001
1.000000 0.018958 0.000001
0.000001 0.224803 0.000001
0.052657 0.211069 0.000001
0.183430 0.197600 0.000001
0.355406 0.184408 0.000001
0.546203 0.171507 0.000001
0.732623 0.158910 0.000001
0.890996 0.146629 0.000001
0.997487 0.134678 0.000001
1.000000 0.123068 0.000001
0.000001 0.395764 0.000001
0.035909 0.379955 0.000001
0.157419 0.364259 0.000001
0.323878 0.348688 0.000001
0.513074 0.333256 0.000001
0.701921 0.317977 0.000001
0.866809 0.302864 0.000001
0.983911 0.287931 0.000001
1.000000 0.273191 0.000001
0.000001 0.579446 0.000001
0.021132 0.563333 0.000001
0.132738 0.547174 0.000001
0.293024 0.530984 0.000001
0.479936 0.514777 0.000001
0.670513 0.498566 0.000001
0.841211 0.482365 0.000001
0.968221 0.466188 0.000001
1.000000 0.450049 0.000001
0.000001 0.755384 0.000001
0.008479 0.740781 0.000001
0.109496 0.725971 0.000001
0.262959 0.710970 0.000001
0.446907 0.695792 0.000001
0.638518 0.680450 0.000001
0.814323 0.664959 0.000001
0.950537 0.649332 0.000001
1.000000 0.633585 0.000001
0.000001 0.902772 0.000001
0.000001 0.891512 0.000001
0.087801 0.879885 0.000001
0.233796 0.867905 0.000001
0.414106 0.855586 0.000001
0.606057 0.842942 0.000001
0.786265 0.829989 0.000001
0.930981 0.816738 0.000001
1.000000 0.803206 0.000001
0.000001 1.000000 0.000001
0.000001 0.994608 0.000001
0.067762 0.987998 0.000001
0.205650 0.980875 0.000001
0.381651 0.973253 0.000001
0.573250 0.965145 0.000001
0.757160 0.956565 0.000001
0.909672 0.947528 0.000001
1.000000 0.938048 0.000001
0.000001 1.000000 0.000001
0.000001 1.000000 0.000001
0.049487 1.000000 0.000001
0.178631 1.000000 0.000001
0.349658 1.000000 0.000001
0.540217 1.000000 0.000001
0.727127 1.000000 0.000001
0.886731 1.000000 0.000001
0.995193 1.000000 0.000001
0.000001 0.000001 0.115135
0.087199 0.000001 0.104136
0.232969 0.000001 0.093514
0.413165 0.000001 0.083281
0.605114 0.000001 0.073450
0.785439 0.000001 0.064032
0.930390 0.000001 0.055041
1.000000 0.000001 0.046490
1.000000 0.000001 0.038392
0.000001 0.082080 0.093045
0.067210 0.072297 0.082830
0.204854 0.062930 0.073017
0.380721 0.053991 0.063618
0.572299 0.045494 0.054647
0.756305 0.037451 0.046116
0.909032 0.029876 0.038038
1.000000 0.022785 0.030428
1.000000 0.016194 0.023299
0.000001 0.218880 0.072585
0.048987 0.205258 0.063205
0.177870 0.191907 0.054253
0.348743 0.178838 0.045742
0.539261 0.166066 0.037685
0.726248 0.153603 0.030096
0.886046 0.141462 0.022990
0.994821 0.129655 0.016384
1.000000 0.118196 0.010302
0.000001 0.388970 0.053861
0.032642 0.373208 0.045370
0.152128 0.357564 0.037334
0.317347 0.342051 0.029766
0.506120 0.326683 0.022682
0.695388 0.311473 0.016099
0.861553 0.296436 0.010041
0.980791 0.281584 0.004546
1.000000 0.266932 0.000001
0.000001 0.572541 0.036983
0.018296 0.556406 0.029437
0.127740 0.540233 0.022375
0.286649 0.524034 0.015815
0.472995 0.507823 0.009781
0.663846 0.491614 0.004313
0.835674 0.475422 0.000001
0.964673 0.459260 0.000001
1.000000 0.443142 0.000001
0.000001 0.749146 0.022069
0.006117 0.734453 0.015532
0.104814 0.719559 0.009522
0.256764 0.704481 0.004081
0.440005 0.689230 0.000001
0.631744 0.673823 0.000001
0.808531 0.658272 0.000001
0.946587 0.642592 0.000001
1.000000 0.626797 0.000001
0.000001 0.897988 0.009264
0.000001 0.886569 0.003851
0.083457 0.874788 0.000001
0.227805 0.862661 0.000001
0.407267 0.850202 0.000001
0.599200 0.837423 0.000001
0.780243 0.824341 0.000001
0.926653 0.810968 0.000001
1.000000 0.797319 0.000001
0.000001 0.998146 0.000001
0.000001 0.991836 0.000001
0.063779 0.985005 0.000001
0.199885 0.977666 0.000001
0.374898 0.969834 0.000001
0.566336 0.961522 0.000001
0.750933 0.952744 0.000001
0.904991 0.943516 0.000001
1.000000 0.933850 0.000001
0.000001 1.000000 0.000001
0.000001 1.000000 0.000001
0.045888 1.000000 0.000001
0.173118 1.000000 0.000001
0.343017 1.000000 0.000001
0.533271 1.000000 0.000001
0.720722 1.000000 0.000001
0.881724 1.000000 0.000001
0.992443 1.000000 0.000001
0.000001 0.000001 0.302707
0.082866 0.000001 0.287776
0.226984 0.000001 0.273038
0.406327 0.000001 0.258507
0.598256 0.000001 0.244196
0.779411 0.000001 0.230119
0.926051 0.000001 0.216287
1.000000 0.000001 0.202715
1.000000 0.000001 0.189416
0.000001 0.077834 0.272380
0.063238 0.068228 0.257858
0.199096 0.059043 0.243558
0.373971 0.050292 0.229491
0.565384 0.041988 0.215671
0.750074 0.034144 0.202111
0.904342 0.026774 0.188824
1.000000 0.019895 0.175824
1.000000 0.013526 0.163123
0.000001 0.213005 0.242919
0.045399 0.199497 0.228863
0.172364 0.186266 0.215055
0.342106 0.173323 0.201507
0.532315 0.160681 0.188233
0.719838 0.148355 0.175246
0.881030 0.136356 0.162558
0.992057 0.124697 0.150184
1.000000 0.113391 0.138135
0.000001 0.382196 0.214439
0.029463 0.366482 0.200903
0.146897 0.350893 0.187642
0.310847 0.335440 0.174668
0.499167 0.320139 0.161994
0.688825 0.305002 0.149634
0.856236 0.290042 0.137600
0.977579 0.275274 0.125905
1.000000 0.260711 0.114561
0.000001 0.565626 0.187052
0.015554 0.549473 0.174091
0.122806 0.533287 0.161431
0.280309 0.517081 0.149085
0.466061 0.500870 0.137066
0.657156 0.484666 0.125387
0.830082 0.468485 0.114059
0.961039 0.452340 0.103097
1.000000 0.436245 0.092512
0.000001 0.742869 0.160869
0.003869 0.728088 0.148537
0.100200 0.713114 0.136533
0.250609 0.697959 0.124869
0.433113 0.682640 0.113558
0.624950 0.667169 0.102612
0.802688 0.651561 0.092044
0.942555 0.635830 0.081867
1.000000 0.619990 0.072093
0.000001 0.893135 0.136001
0.000001 0.881559 0.124352
0.079187 0.869628 0.113057
0.221859 0.857357 0.102128
0.400443 0.844759 0.091578
0.592330 0.831848 0.081418
0.774176 0.818639 0.071663
0.922248 0.805146 0.062324
1.000000 0.791384 0.053414
0.000001 0.995505 0.112557
0.000001 0.988969 0.101645
0.059875 0.981919 0.091112
0.194172 0.974366 0.080971
0.368167 0.966326 0.071234
0.559413 0.957813 0.061914
0.744667 0.948840 0.053023
0.900240 0.939422 0.044576
1.000000 0.929573 0.036584
0.000001 1.000000 0.090647
0.000001 1.000000 0.080523
0.042372 1.000000 0.070805
0.167660 1.000000 0.061504
0.336403 1.000000 0.052634
0.526321 1.000000 0.044206
0.714282 1.000000 0.036235
0.876651 1.000000 0.028735
0.989596 1.000000 0.021721
0.000001 0.000001 0.525809
0.078606 0.000001 0.509599
0.221045 0.000001 0.493390
0.399506 0.000001 0.477195
0.591383 0.000001 0.461029
0.773338 0.000001 0.444906
0.921637 0.000001 0.428838
1.000000 0.000001 0.412841
1.000000 0.000001 0.396927
0.000001 0.073663 0.492661
0.059344 0.064236 0.476467
0.193390 0.055235 0.460302
0.367243 0.046674 0.444181
0.558460 0.038566 0.428116
0.743802 0.030924 0.412122
0.899581 0.023763 0.396213
1.000000 0.017100 0.380401
1.000000 0.010957 0.364701
0.000001 0.207178 0.459576
0.041895 0.193787 0.443457
0.166914 0.180678 0.427395
0.335495 0.167863 0.411404
0.525365 0.155355 0.395499
0.713393 0.143167 0.379692
0.875948 0.131313 0.363997
0.989197 0.119804 0.348428
1.000000 0.108653 0.332999
0.000001 0.375442 0.426673
0.026373 0.359780 0.410686
0.141727 0.344247 0.394785
0.304378 0.328858 0.378983
0.492216 0.313625 0.363293
0.682233 0.298563 0.347730
0.850859 0.283684 0.332308
0.974277 0.269002 0.317039
1.000000 0.254530 0.301937
0.000001 0.558702 0.394071
0.012909 0.542534 0.378274
0.117938 0.526337 0.362590
0.274007 0.510127 0.347033
0.459133 0.493918 0.331617
0.650441 0.477722 0.316355
0.824435 0.461555 0.301261
0.957319 0.445430 0.286348
1.000000 0.429360 0.271630
0.000001 0.736554 0.361887
0.001750 0.721688 0.346336
0.095657 0.706635 0.330927
0.244496 0.691408 0.315672
0.426234 0.676022 0.300586
0.618139 0.660490 0.285681
0.796797 0.644828 0.270972
0.938443 0.629048 0.256471
1.000000 0.613166 0.242192
0.000001 0.888214 0.330237
0.000001 0.876484 0.314989
0.074992 0.864406 0.299911
0.215960 0.851992 0.285015
0.393637 0.839258 0.270315
0.585446 0.826218 0.255824
0.768066 0.812886 0.241555
0.917769 0.799275 0.227522
1.000000 0.785401 0.213738
0.000001 0.992765 0.299236
0.000001 0.986007 0.284349
0.056050 0.978740 0.269658
0.188510 0.970977 0.255177
0.361459 0.962732 0.240918
0.552483 0.954020 0.226896
0.738363 0.944854 0.213124
0.895419 0.935250 0.199614
0.999816 0.925220 0.186380
0.000001 1.000000 0.269001
0.000001 1.000000 0.254530
0.038941 1.000000 0.240282
0.162259 1.000000 0.226271
0.329816 1.000000 0.212510
0.519369 1.000000 0.199012
0.707809 1.000000 0.185791
0.871514 1.000000 0.172858
0.986655 1.000000 0.160228
0.000001 0.000001 0.746234
0.074421 0.000001 0.731499
0.215152 0.000001 0.716568
0.392702 0.000001 0.701454
0.584498 0.000001 0.686171
0.767222 0.000001 0.670734
0.917147 0.000001 0.655156
1.000000 0.000001 0.639452
1.000000 0.000001 0.623636
0.000001 0.069568 0.715892
0.055530 0.060322 0.700769
0.187735 0.051509 0.685479
0.360537 0.043140 0.670036
0.551529 0.035230 0.654452
0.737492 0.027792 0.638742
0.894751 0.020843 0.622921
0.999467 0.014399 0.607003
1.000000 0.008489 0.591001
0.000001 0.201401 0.684787
0.038476 0.188129 0.669337
0.161520 0.175144 0.653747
0.328912 0.162459 0.638033
0.518412 0.150087 0.622207
0.706916 0.138041 0.606284
0.870803 0.126333 0.590279
0.986243 0.114976 0.574204
1.000000 0.103983 0.558075
0.000001 0.368709 0.653043
0.023373 0.353101 0.637323
0.136618 0.337628 0.621492
0.297942 0.322304 0.605565
0.485268 0.307143 0.589556
0.675613 0.292157 0.573479
0.845423 0.277361 0.557348
0.970885 0.262768 0.541176
1.000000 0.248391 0.524978
0.000001 0.551771 0.620777
0.010364 0.535589 0.604847
0.113136 0.519385 0.588834
0.267742 0.503174 0.572754
0.452213 0.486968 0.556621
0.643704 0.470784 0.540447
0.818735 0.454633 0.524249
0.953514 0.438530 0.508038
1.000000 0.422488 0.491829
0.000001 0.730201 0.588112
0.000001 0.715253 0.572029
0.091186 0.700124 0.555893
0.238426 0.684827 0.539719
0.419368 0.669377 0.523519
0.611310 0.653788 0.507308
0.790857 0.638073 0.491100
0.934251 0.622248 0.474909
1.000000 0.606325 0.458748
0.000001 0.883226 0.555166
0.000001 0.871345 0.538990
0.070873 0.859121 0.522789
0.210109 0.846569 0.506578
0.386849 0.833702 0.490371
0.578551 0.820535 0.474180
0.761912 0.807081 0.458021
0.913216 0.793356 0.441907
1.000000 0.779373 0.425851
0.000001 0.989930 0.522060
0.000001 0.982952 0.505849
0.052306 0.975470 0.489642
0.182901 0.967498 0.473452
0.354773 0.959051 0.457295
0.545546 0.950143 0.441183
0.732021 0.940788 0.425130
0.890530 0.930999 0.409151
0.997239 0.920791 0.393258
0.000001 1.000000 0.488912
0.000001 1.000000 0.472724
0.035596 1.000000 0.456569
0.156915 1.000000 0.440459
0.323258 1.000000 0.424409
0.512416 1.000000 0.408434
0.701304 1.000000 0.392545
0.866314 1.000000 0.376758
0.983619 1.000000 0.361086
0.000001 0.000001 0.924779
0.070312 0.000001 0.914321
0.209307 0.000001 0.903467
0.385917 0.000001 0.892230
0.577601 0.000001 0.880626
0.761062 0.000001 0.868667
0.912584 0.000001 0.856369
1.000000 0.000001 0.843746
1.000000 0.000001 0.830811
0.000001 0.065550 0.902969
0.051797 0.056488 0.891716
0.182134 0.047864 0.880095
0.353856 0.039690 0.868121
0.544591 0.031981 0.855808
0.731145 0.024750 0.843170
0.889852 0.018016 0.830222
0.996876 0.011797 0.816977
1.000000 0.006127 0.803450
0.000001 0.195674 0.879563
0.035142 0.182524 0.867574
0.156185 0.169666 0.855246
0.322358 0.157114 0.842594
0.511459 0.144880 0.829632
0.700406 0.132977 0.816374
0.865594 0.121418 0.802834
0.983194 0.110216 0.789027
1.000000 0.099382 0.774967
0.000001 0.361998 0.854684
0.020465 0.346446 0.842017
0.131571 0.331036 0.829042
0.291540 0.315780 0.815771
0.478323 0.300693 0.802219
0.668966 0.285787 0.788400
0.839930 0.271076 0.774328
0.967404 0.256574 0.760018
1.000000 0.242293 0.745483
0.000001 0.544834 0.828450
0.007920 0.528641 0.815167
0.108402 0.512432 0.801602
0.261516 0.496221 0.787772
0.445303 0.480023 0.773689
0.636946 0.463851 0.759368
0.812982 0.447719 0.744824
0.949627 0.431641 0.730070
1.000000 0.415630 0.715120
0.000001 0.723813 0.800985
0.000001 0.708785 0.787143
0.086786 0.693582 0.773049
0.232400 0.678218 0.758718
0.412516 0.662706 0.744164
0.604465 0.647062 0.729401
0.784870 0.631298 0.714443
0.929982 0.615429 0.699304
1.000000 0.599469 0.683998
0.000001 0.878173 0.772409
0.000001 0.866143 0.758068
0.066830 0.853777 0.743504
0.204306 0.841087 0.728732
0.380081 0.828090 0.713765
0.571644 0.814798 0.698618
0.755717 0.801226 0.683306
0.908591 0.787389 0.667841
1.000000 0.773299 0.652239
0.000001 0.986999 0.742843
0.000001 0.979803 0.728062
0.048644 0.972110 0.713087
0.177346 0.963933 0.697933
0.348113 0.955286 0.682613
0.538604 0.946184 0.667142
0.725642 0.936641 0.651534
0.885574 0.926671 0.635802
0.994563 0.916288 0.619962
0.000001 1.000000 0.712409
0.000001 1.000000 0.697247
0.032337 1.000000 0.681920
0.151630 1.000000 0.666442
0.316730 1.000000 0.650828
0.505462 1.000000 0.635092
0.694768 1.000000 0.619247
0.861052 1.000000 0.603308
0.980491 1.000000 0.587288
0.000001 0.000001 1.000000
0.066280 0.000001 1.000000
0.203512 0.000001 1.000000
0.379151 0.000001 1.000000
0.570694 0.000001 1.000000
0.754861 0.000001 0.999243
0.907949 0.000001 0.993030
1.000000 0.000001 0.986293
1.000000 0.000001 0.979045
0.000001 0.061610 1.000000
0.048146 0.052735 1.000000
0.176586 0.044302 1.000000
0.347199 0.036326 0.998974
0.537648 0.028820 0.992738
0.724762 0.021800 0.985977
0.884887 0.015284 0.978707
0.994187 0.009295 0.970942
1.000000 0.003879 0.962695
0.000001 0.189998 1.000000
0.031895 0.176972 0.998705
0.150908 0.164244 0.992444
0.315834 0.151826 0.985661
0.504505 0.139733 0.978368
0.693866 0.127976 0.970581
0.860324 0.116568 0.962313
0.980053 0.105523 0.953578
1.000000 0.094852 0.944391
0.000001 0.355311 0.992150
0.017651 0.339818 0.985343
0.126588 0.324473 0.978028
0.285173 0.309287 0.970219
0.471384 0.294276 0.961930
0.662294 0.279452 0.953174
0.834380 0.264829 0.943967
0.963836 0.250421 0.934322
1.000000 0.236239 0.924252
0.000001 0.537891 0.977687
0.005585 0.521689 0.969856
0.103736 0.505478 0.961546
0.255330 0.489271 0.952770
0.438403 0.473082 0.943542
0.630167 0.456926 0.933877
0.807178 0.440815 0.923790
0.945657 0.424764 0.913293
1.000000 0.408786 0.902401
0.000001 0.717389 0.961161
0.000001 0.702285 0.952364
0.082459 0.687011 0.943116
0.226419 0.671582 0.933432
0.405680 0.656011 0.923326
0.597605 0.640314 0.912811
0.778838 0.624503 0.901901
0.925636 0.608594 0.890612
1.000000 0.592599 0.878957
0.000001 0.873055 0.942690
0.000001 0.860879 0.932986
0.062865 0.848373 0.922861
0.198554 0.835549 0.912328
0.373333 0.822424 0.901401
0.564729 0.809010 0.890095
0.749481 0.795323 0.878424
0.903894 0.781375 0.866401
1.000000 0.767182 0.854041
0.000001 0.983975 0.922396
0.000001 0.976563 0.911845
0.045064 0.968661 0.900901
0.171845 0.960280 0.889578
0.341478 0.951437 0.877890
0.531657 0.942144 0.865852
0.719229 0.932416 0.853477
0.880551 0.922267 0.840781
0.991790 0.911711 0.827776
0.000001 1.000000 0.900399
0.000001 1.000000 0.889059
0.029166 1.000000 0.877356
0.146405 1.000000 0.865302
0.310232 1.000000 0.852913
0.498509 1.000000 0.840202
0.688202 1.000000 0.827184
0.855729 1.000000 0.813872
0.977270 1.000000 0.800282
0.000001 0.000001 1.000000
0.062326 0.000001 1.000000
0.197766 0.000001 1.000000
0.372406 0.000001 1.000000
0.563776 0.000001 1.000000
0.748620 0.000001 1.000000
0.903242 0.000001 1.000000
1.000000 0.000001 1.000000
1.000000 0.000001 1.000000
0.000001 0.057750 1.000000
0.044578 0.049063 1.000000
0.171093 0.040824 1.000000
0.340568 0.033048 1.000000
0.530701 0.025748 1.000000
0.718344 0.018942 1.000000
0.879855 0.012648 1.000000
0.991401 0.006898 1.000000
1.000000 0.001758 1.000000
0.000001 0.184375 1.000000
0.028737 0.171475 1.000000
0.145691 0.158879 1.000000
0.309341 0.146599 1.000000
0.497552 0.134648 1.000000
0.687296 0.123039 1.000000
0.854992 0.111786 1.000000
0.976820 0.100899 1.000000
1.000000 0.090393 1.000000
0.000001 0.348649 1.000000
0.014931 0.333217 1.000000
0.121670 0.317939 1.000000
0.278842 0.302826 1.000000
0.464451 0.287894 1.000000
0.655598 0.273155 1.000000
0.828775 0.258622 1.000000
0.960182 0.244309 1.000000
1.000000 0.230229 1.000000
0.000001 0.530944 1.000000
0.003365 0.514736 1.000000
0.099139 0.498525 1.000000
0.249185 0.482324 1.000000
0.431514 0.466148 1.000000
0.623370 0.450009 1.000000
0.801324 0.433922 1.000000
0.941607 0.417901 1.000000
1.000000 0.401959 1.000000
0.000001 0.710932 1.000000
0.000001 0.695753 1.000000
0.078206 0.680411 1.000000
0.220484 0.664920 1.000000
0.398860 0.649293 1.000000
0.590732 0.633545 1.000000
0.772761 0.617691 1.000000
0.921214 0.601743 1.000000
1.000000 0.585716 1.000000
0.000001 0.867874 1.000000
0.000001 0.855554 1.000000
0.058979 0.842910 1.000000
0.192852 0.829956 1.000000
0.366607 0.816705 1.000000
0.557804 0.803172 1.000000
0.743206 0.789371 1.000000
0.899126 0.775317 0.998125
1.000000 0.761023 0.991814
0.000001 0.980857 1.000000
0.000001 0.973233 1.000000
0.041568 0.965124 1.000000
0.166400 0.956543 1.000000
0.334870 0.947505 1.000000
0.524706 0.938024 0.997853
0.712781 0.928114 0.991517
0.875464 0.917788 0.984661
0.988921 0.907062 0.977298
0.000001 1.000000 1.000000
0.000001 1.000000 1.000000
0.026085 1.000000 1.000000
0.141240 1.000000 0.997579
0.303767 1.000000 0.991220
0.491558 1.000000 0.984340
0.681607 1.000000 0.976954
0.850347 1.000000 0.969077
0.973960 1.000000 0.960720
0.000001 0.000001 1.000000
0.060738 0.000001 1.000000
0.195440 0.000001 1.000000
0.369665 0.000001 1.000000
0.560956 0.000001 1.000000
0.746066 0.000001 1.000000
0.901304 0.000001 1.000000
1.000000 0.000001 1.000000
1.000000 0.000001 1.000000
0.000001 0.056200 1.000000
0.043148 0.047590 1.000000
0.168871 0.039431 1.000000
0.337874 0.031738 1.000000
0.527869 0.024523 1.000000
0.715719 0.017805 1.000000
0.877787 0.011603 1.000000
0.990239 0.005952 1.000000
1.000000 0.000940 1.000000
0.000001 0.182100 1.000000
0.027476 0.169252 1.000000
0.143583 0.156710 1.000000
0.306705 0.144486 1.000000
0.494720 0.132594 1.000000
0.684611 0.121047 1.000000
0.852803 0.109856 1.000000
0.975477 0.099036 1.000000
1.000000 0.088597 1.000000
0.000001 0.345942 1.000000
0.013851 0.330536 1.000000
0.119685 0.315285 1.000000
0.276273 0.300204 1.000000
0.461628 0.285304 1.000000
0.652863 0.270600 1.000000
0.826476 0.256105 1.000000
0.958669 0.241832 1.000000
1.000000 0.227794 1.000000
0.000001 0.528112 1.000000
0.002497 0.511903 1.000000
0.097286 0.495693 1.000000
0.246694 0.479495 1.000000
0.428711 0.463324 1.000000
0.620595 0.447194 1.000000
0.798925 0.431117 1.000000
0.939933 0.415109 1.000000
1.000000 0.399182 1.000000
0.000001 0.708292 1.000000
0.000001 0.693084 1.000000
0.076495 0.677714 1.000000
0.218080 0.662198 1.000000
0.396087 0.646549 1.000000
0.587928 0.630782 1.000000
0.770272 0.614910 1.000000
0.919392 0.598948 1.000000
1.000000 0.582909 1.000000
0.000001 0.865745 1.000000
0.000001 0.853368 1.000000
0.057419 0.840668 1.000000
0.190544 0.827661 1.000000
0.363873 0.814360 1.000000
0.554981 0.800779 1.000000
0.740639 0.786933 1.000000
0.897164 0.772836 1.000000
1.000000 0.758501 1.000000
0.000001 0.979560 1.000000
0.000001 0.971851 1.000000
0.040167 0.963658 1.000000
0.164198 0.954996 1.000000
0.332186 0.945880 1.000000
0.521874 0.936323 1.000000
0.710145 0.926339 1.000000
0.873372 0.915942 1.000000
0.987725 0.905148 1.000000
0.000001 1.000000 1.000000
0.000001 1.000000 1.000000
0.024855 1.000000 1.000000
0.139153 1.000000 1.000000
0.301142 1.000000 1.000000
0.488727 1.000000 1.000000
0.678912 1.000000 1.000000
0.848137 1.000000 1.000000
0.972585 1.000000 1.000000
