app/src/main/assets/luts/era_1960s.cube
TITLE "Generation Camera 1960s"
LUT_3D_SIZE 9
DOMAIN_MIN 0.0 0.0 0.0
DOMAIN_MAX 1.0 1.0 1.0
0.000001 0.000000 0.000000
0.112010 0.005522 0.004890
0.273211 0.013578 0.012022
0.460066 0.023083 0.020439
0.651011 0.032995 0.029214
0.825467 0.042235 0.037396
0.964077 0.049710 0.044014
1.000000 0.051668 0.045747
1.000000 0.051668 0.045747
0.009461 0.094109 0.008042
0.108113 0.092413 0.011863
0.264279 0.093678 0.018306
0.447949 0.096582 0.026123
0.637685 0.100143 0.034389
0.812949 0.103337 0.042155
0.954376 0.105112 0.048452
1.000000 0.102074 0.050185
1.000000 0.101307 0.050117
0.023071 0.227725 0.019610
0.108993 0.223422 0.022769
0.259655 0.222135 0.028893
0.439329 0.222399 0.036463
0.626793 0.223321 0.044560
0.801689 0.223971 0.052236
0.944811 0.223388 0.058522
1.000000 0.218725 0.060573
1.000000 0.217681 0.060479
0.039335 0.384532 0.033435
0.113063 0.378457 0.036012
0.257810 0.375276 0.041874
0.432919 0.373496 0.049256
0.617438 0.372334 0.057241
0.791250 0.370980 0.064882
0.935373 0.368601 0.071215
1.000000 0.362951 0.073666
1.000000 0.361748 0.073555
0.056867 0.549858 0.048337
0.119110 0.542876 0.050417
0.257767 0.538496 0.056075
0.428014 0.535307 0.063328
0.609190 0.532655 0.071259
0.781452 0.529869 0.078925
0.926084 0.526262 0.085361
1.000000 0.520200 0.088294
1.000000 0.518950 0.088177
0.074241 0.709666 0.063105
0.125824 0.702643 0.064774
0.258439 0.697790 0.070289
0.423795 0.693876 0.077473
0.601515 0.690377 0.085411
0.772032 0.686770 0.093161
0.916900 0.682530 0.099761
1.000000 0.676585 0.103260
1.000000 0.675393 0.103144
0.090001 0.850957 0.076501
0.131807 0.844729 0.077847
0.258628 0.840161 0.083281
0.419327 0.836256 0.090457
0.593767 0.832616 0.098463
0.762626 0.828858 0.106360
0.907706 0.824615 0.113185
1.000000 0.819283 0.117332
1.000000 0.818245 0.117228
0.102676 0.961926 0.087275
0.135594 0.957278 0.088385
0.257048 0.953794 0.093800
0.413575 0.950704 0.101031
0.585195 0.947715 0.109168
0.752778 0.944562 0.117272
0.898313 0.941017 0.124384
1.000000 0.936812 0.129264
1.000000 0.936014 0.129182
0.105660 0.987699 0.089811
0.132211 0.988037 0.091094
0.250382 0.989508 0.096856
0.404787 0.991350 0.104512
0.575383 0.993272 0.113151
0.743043 0.995038 0.121837
0.889802 0.996477 0.129610
0.998925 0.997478 0.135500
1.000000 0.997488 0.135558
0.001587 0.001524 0.070566
0.111400 0.006835 0.070031
0.271783 0.014751 0.071902
0.458122 0.024133 0.075166
0.648875 0.033938 0.078903
0.823469 0.043089 0.082173
0.962542 0.050493 0.084023
1.000000 0.052436 0.081198
1.000000 0.052422 0.080548
0.010650 0.093522 0.068977
0.107239 0.091676 0.067571
0.262633 0.092856 0.068952
0.445838 0.095692 0.071824
0.635428 0.099203 0.075270
0.810868 0.102364 0.078353
0.952782 0.104120 0.080119
1.000000 0.101118 0.077535
1.000000 0.100344 0.076852
0.024002 0.226375 0.071364
0.107980 0.221933 0.069502
0.257893 0.220565 0.070767
0.437128 0.220764 0.073604
0.624470 0.221638 0.077104
0.799558 0.222254 0.080329
0.943170 0.221652 0.082327
1.000000 0.217021 0.080316
1.000000 0.215970 0.079644
0.040038 0.382669 0.076369
0.111938 0.376469 0.074149
0.255957 0.373213 0.075371
0.430647 0.371373 0.078249
0.615063 0.370167 0.081877
0.789077 0.368782 0.085322
0.933693 0.366383 0.087631
1.000000 0.360761 0.086298
1.000000 0.359551 0.085651
0.057373 0.547741 0.082844
0.117901 0.540650 0.080367
0.255846 0.536201 0.081626
0.425691 0.532959 0.084625
0.606776 0.530267 0.088463
0.779248 0.527452 0.092213
0.924368 0.523827 0.094924
1.000000 0.517787 0.094394
1.000000 0.516531 0.093787
0.074582 0.707554 0.089626
0.124557 0.700437 0.086996
0.256470 0.695523 0.088374
0.421436 0.691560 0.091580
0.599074 0.688026 0.095721
0.769802 0.684393 0.099876
0.915152 0.680135 0.103111
1.000000 0.674205 0.103610
1.000000 0.673008 0.103100
0.090211 0.849096 0.095529
0.130509 0.842787 0.092851
0.256634 0.838163 0.094436
0.416949 0.834213 0.097948
0.591309 0.830540 0.102508
0.760377 0.826758 0.107242
0.905933 0.822511 0.112887
1.000000 0.817205 0.117124
1.000000 0.816164 0.117020
0.102787 0.960542 0.099352
0.134292 0.955822 0.096740
0.255049 0.952284 0.098639
0.411192 0.949151 0.102609
0.582743 0.946134 0.108892
0.750540 0.942969 0.117000
0.896525 0.939413 0.124128
1.000000 0.935212 0.129099
1.000000 0.934410 0.129017
0.105815 0.987734 0.096587
0.131026 0.988038 0.094447
0.248483 0.989486 0.097112
0.402524 0.991324 0.104399
0.573029 0.993246 0.113030
0.740853 0.995016 0.121722
0.888014 0.996460 0.129514
0.997758 0.997468 0.135436
1.000000 0.997488 0.135558
0.003839 0.003686 0.170710
0.111478 0.008869 0.168571
0.270985 0.016724 0.168847
0.456696 0.026059 0.170465
0.647105 0.035830 0.172500
0.821667 0.044962 0.174025
0.961048 0.052361 0.174112
1.000000 0.054352 0.169613
1.000000 0.054333 0.168715
0.012655 0.093689 0.166218
0.107193 0.091769 0.163143
0.261733 0.092937 0.162857
0.444334 0.095776 0.164011
0.633601 0.099303 0.165688
0.809022 0.102494 0.166960
0.951244 0.104292 0.166900
1.000000 0.101386 0.162580
1.000000 0.100613 0.161642
0.025890 0.225828 0.165659
0.107927 0.221312 0.162060
0.256990 0.219924 0.161571
0.435622 0.220118 0.162598
0.622639 0.220999 0.164235
0.797701 0.221634 0.165559
0.941606 0.221064 0.165642
1.000000 0.216515 0.161814
1.000000 0.215463 0.160877
0.041828 0.381602 0.167547
0.111899 0.375332 0.163524
0.255069 0.372049 0.162902
0.429157 0.370195 0.163873
0.613242 0.368987 0.165536
0.787221 0.367611 0.166977
0.932110 0.365232 0.167271
1.000000 0.359677 0.164025
1.000000 0.358465 0.163100
0.059085 0.546360 0.170722
0.117894 0.539203 0.166379
0.254990 0.534721 0.165702
0.424229 0.531456 0.166691
0.604978 0.528753 0.168456
0.777400 0.525936 0.170089
0.922773 0.522318 0.170664
1.000000 0.516328 0.168092
1.000000 0.515069 0.167190
0.076236 0.706071 0.174031
0.124598 0.698892 0.169472
0.255660 0.693939 0.168821
0.420015 0.689946 0.169910
0.597305 0.686391 0.171857
0.767969 0.682745 0.173758
0.913549 0.678480 0.174691
1.000000 0.672579 0.172884
1.000000 0.671377 0.172016
0.091826 0.847731 0.176327
0.130614 0.841362 0.171653
0.255881 0.836694 0.171106
0.415576 0.832705 0.172375
0.589575 0.828999 0.174585
0.758560 0.825191 0.176834
0.904319 0.820910 0.178201
1.000000 0.815591 0.177252
1.000000 0.814543 0.176429
0.104384 0.959522 0.176457
0.134476 0.954743 0.171762
0.254361 0.951151 0.171393
0.409871 0.947967 0.172922
0.581031 0.944899 0.175472
0.748713 0.941681 0.178146
0.894889 0.938080 0.180021
1.000000 0.933854 0.180021
1.000000 0.933045 0.179252
0.107512 0.988113 0.170724
0.131384 0.988387 0.166371
0.247940 0.989799 0.166520
0.401277 0.991589 0.168651
0.571350 0.993467 0.171887
0.739041 0.995199 0.175329
0.886370 0.996613 0.178055
0.996587 0.997600 0.179124
1.000000 0.997628 0.178643
0.006545 0.006283 0.291046
0.111992 0.011350 0.287807
0.270557 0.019156 0.286984
0.455556 0.028454 0.287441
0.645527 0.038203 0.288254
0.819965 0.047326 0.288510
0.959572 0.054731 0.287314
1.000000 0.056783 0.281654
1.000000 0.056760 0.280584
0.015136 0.094302 0.284553
0.107606 0.092320 0.280317
0.261226 0.093488 0.278862
0.443136 0.096341 0.278787
0.631981 0.099896 0.279176
0.807287 0.103129 0.279120
0.949732 0.104983 0.277720
1.000000 0.102186 0.272187
1.000000 0.101416 0.271071
0.028274 0.225702 0.281937
0.108358 0.221125 0.277110
0.256503 0.219729 0.275364
0.434443 0.219928 0.275070
0.621033 0.220827 0.275325
0.795968 0.221493 0.275229
0.940075 0.220966 0.273889
1.000000 0.216513 0.268778
1.000000 0.215463 0.267657
0.044135 0.380918 0.281578
0.112368 0.374589 0.276266
0.254621 0.371290 0.274297
0.428014 0.369431 0.273847
0.611665 0.368230 0.274028
0.785501 0.366873 0.273951
0.930569 0.364524 0.272729
1.000000 0.359050 0.268124
1.000000 0.357839 0.267009
0.061334 0.545308 0.282301
0.118419 0.538095 0.276616
0.254598 0.533589 0.274503
0.423137 0.530310 0.273972
0.603441 0.527602 0.274152
0.775703 0.524791 0.274163
0.921230 0.521189 0.273129
1.000000 0.515261 0.269112
1.000000 0.514001 0.268014
0.078448 0.704855 0.282977
0.125197 0.697623 0.277029
0.255338 0.692638 0.274856
0.418986 0.688619 0.274329
0.595818 0.685047 0.274588
0.766302 0.681393 0.274768
0.912008 0.677129 0.273995
1.000000 0.671268 0.270651
1.000000 0.670065 0.269582
0.094022 0.846566 0.282517
0.131304 0.840147 0.276411
0.255643 0.835436 0.274263
0.414621 0.831410 0.273826
0.588145 0.827674 0.274251
0.756928 0.823842 0.274681
0.902784 0.819546 0.274248
1.000000 0.814242 0.271662
1.000000 0.813192 0.270630
0.106585 0.958642 0.279856
0.135273 0.953811 0.273687
0.254219 0.950166 0.271644
0.408997 0.946931 0.271383
0.579662 0.943816 0.272060
0.747117 0.940557 0.272823
0.893360 0.936922 0.272808
1.000000 0.932686 0.271066
1.000000 0.931873 0.270081
0.109835 0.988624 0.272054
0.132383 0.988871 0.266178
0.247973 0.990245 0.264590
0.400547 0.991993 0.264863
0.570087 0.993830 0.266151
0.737508 0.995524 0.267601
0.884858 0.996907 0.268348
0.995413 0.997872 0.267520
1.000000 0.997909 0.266860
0.009517 0.009136 0.423225
0.112774 0.014099 0.419392
0.270362 0.021866 0.417967
0.454600 0.031139 0.417752
0.644076 0.040876 0.417822
0.818331 0.050002 0.417285
0.958111 0.057424 0.415283
1.000000 0.059548 0.408963
1.000000 0.059522 0.407795
0.017906 0.095190 0.415641
0.108311 0.093159 0.410753
0.260973 0.094338 0.408625
0.442139 0.097217 0.407809
0.630502 0.100812 0.407389
0.805628 0.104099 0.406478
0.948239 0.106021 0.404216
1.000000 0.103345 0.397968
1.000000 0.102580 0.396748
0.030968 0.225844 0.411856
0.109102 0.221217 0.406311
0.256289 0.219823 0.403801
0.433482 0.220037 0.402666
0.619581 0.220965 0.402012
0.794320 0.221674 0.400963
0.938568 0.221200 0.398668
1.000000 0.216856 0.392766
1.000000 0.215809 0.391534
0.046771 0.380481 0.410116
0.113172 0.374103 0.404025
0.254467 0.370797 0.401196
0.427107 0.368942 0.399798
0.610255 0.367757 0.398959
0.783877 0.366429 0.397819
0.929059 0.364121 0.395543
1.000000 0.358738 0.390058
1.000000 0.357529 0.388827
0.063933 0.544473 0.409229
0.119302 0.537213 0.402711
0.254520 0.532690 0.399642
0.422300 0.529403 0.398054
0.602086 0.526698 0.397097
0.774113 0.523900 0.395932
0.919723 0.520322 0.393735
1.000000 0.514465 0.388742
1.000000 0.513206 0.387522
0.081031 0.703815 0.408089
0.126177 0.696538 0.401261
0.255354 0.691526 0.398039
0.418232 0.687487 0.396347
0.594530 0.683902 0.395355
0.764754 0.680245 0.394241
0.910512 0.675988 0.392195
1.000000 0.670173 0.387767
1.000000 0.668970 0.386570
0.096608 0.845534 0.405676
0.132398 0.839069 0.398646
0.255764 0.834320 0.395361
0.413960 0.830260 0.393657
0.586930 0.826495 0.392720
0.755428 0.822642 0.391743
0.901301 0.818332 0.389925
1.000000 0.813048 0.386139
1.000000 0.811997 0.384972
0.109196 0.957852 0.401028
0.136496 0.952972 0.393892
0.254457 0.949276 0.390632
0.408436 0.945990 0.389009
0.578526 0.942827 0.388222
0.745666 0.939526 0.387471
0.891892 0.935857 0.385964
1.000000 0.931611 0.382897
1.000000 0.930796 0.381770
0.112586 0.989218 0.391881
0.133830 0.989441 0.384986
0.248409 0.990776 0.382110
0.400151 0.992478 0.380942
0.569074 0.994269 0.380676
0.736133 0.995920 0.380516
0.883417 0.997266 0.379667
0.994240 0.998204 0.377346
1.000000 0.998249 0.376567
0.012563 0.012060 0.558676
0.113654 0.016931 0.554773
0.270260 0.024670 0.553256
0.453724 0.033929 0.552872
0.642684 0.043666 0.552697
0.816729 0.052806 0.551862
0.956655 0.060256 0.549553
1.000000 0.062464 0.543087
1.000000 0.062438 0.541896
0.020772 0.096181 0.550938
0.109134 0.094111 0.545924
0.260830 0.095313 0.543635
0.441235 0.098229 0.542580
0.629091 0.101876 0.541850
0.804009 0.105228 0.540578
0.946755 0.107228 0.537949
1.000000 0.104687 0.531498
1.000000 0.103928 0.530250
0.033779 0.226095 0.546900
0.109985 0.221429 0.541162
0.256204 0.220048 0.538397
0.432628 0.220287 0.536922
0.618207 0.221254 0.535851
0.792719 0.222015 0.534338
0.937075 0.221607 0.531580
1.000000 0.217382 0.525391
1.000000 0.216341 0.524125
0.049546 0.380153 0.544677
0.114135 0.373736 0.538333
0.254458 0.370432 0.535149
0.426323 0.368591 0.533298
0.608935 0.367432 0.531925
0.782307 0.366141 0.530204
0.927566 0.363881 0.527354
1.000000 0.358601 0.521488
1.000000 0.357396 0.520216
0.066692 0.543738 0.543060
0.120365 0.536439 0.536234
0.254608 0.531907 0.532710
0.421601 0.528620 0.530552
0.600834 0.525926 0.528937
0.772586 0.523149 0.527065
0.918239 0.519602 0.524176
1.000000 0.513825 0.518692
1.000000 0.512569 0.517426
0.083794 0.702860 0.540968
0.127359 0.695545 0.533783
0.255553 0.690512 0.530007
0.417632 0.686459 0.527629
0.593357 0.682867 0.525852
0.763278 0.679212 0.523903
0.909043 0.674966 0.521042
1.000000 0.669205 0.516000
1.000000 0.668003 0.514749
0.099396 0.844564 0.537453
0.133715 0.838061 0.530021
0.256090 0.833278 0.526087
0.413471 0.829187 0.523584
0.585845 0.825396 0.521738
0.754009 0.821524 0.519799
0.899853 0.817205 0.517042
1.000000 0.811945 0.512507
1.000000 0.810894 0.511280
0.112029 0.957101 0.531666
0.137966 0.952179 0.524084
0.254921 0.948433 0.520085
0.408067 0.945098 0.517560
0.577534 0.941889 0.515749
0.744307 0.938546 0.513915
0.890465 0.934843 0.511347
0.999240 0.930580 0.507356
1.000000 0.929772 0.506190
0.115579 0.989851 0.521913
0.135545 0.990053 0.514517
0.249090 0.991348 0.510823
0.399963 0.993004 0.508662
0.568219 0.994746 0.507270
0.734862 0.996350 0.505914
0.882024 0.997657 0.503883
0.993067 0.998567 0.500493
1.000000 0.998620 0.499652
0.015486 0.014867 0.688638
0.114454 0.019657 0.685200
0.270103 0.027380 0.684118
0.452815 0.036637 0.684086
0.641276 0.046385 0.684186
0.815123 0.055551 0.683572
0.955199 0.063040 0.681475
1.000000 0.065345 0.675392
1.000000 0.065320 0.674256
0.023538 0.097094 0.681705
0.109897 0.094998 0.677102
0.260648 0.096233 0.675181
0.440310 0.099197 0.674411
0.627672 0.102907 0.673890
0.802388 0.106336 0.672776
0.945270 0.108426 0.670300
1.000000 0.106032 0.664170
1.000000 0.105280 0.662971
0.036511 0.226292 0.678358
0.110826 0.221598 0.672968
0.256094 0.220239 0.670476
0.431766 0.220515 0.669182
0.616834 0.221531 0.668213
0.791121 0.222355 0.666751
0.935582 0.222022 0.664044
1.000000 0.217928 0.658088
1.000000 0.216893 0.656864
0.052265 0.379791 0.676588
0.115075 0.373345 0.670530
0.254443 0.370051 0.667519
0.425542 0.368233 0.665735
0.607625 0.367109 0.664341
0.780746 0.365865 0.662551
0.926076 0.363664 0.659637
1.000000 0.358495 0.653900
1.000000 0.357295 0.652664
0.069416 0.542984 0.675167
0.121425 0.535656 0.668573
0.254705 0.531122 0.665117
0.420919 0.527843 0.662905
0.599602 0.525167 0.661140
0.771074 0.522418 0.659067
0.916761 0.518911 0.655988
1.000000 0.513222 0.650516
1.000000 0.511969 0.649279
0.086543 0.701896 0.673040
0.128557 0.694551 0.666037
0.255779 0.689503 0.662225
0.417064 0.685441 0.659671
0.592213 0.681848 0.657610
0.761824 0.678201 0.655323
0.907584 0.673973 0.652140
1.000000 0.668272 0.646977
1.000000 0.667073 0.645748
0.102191 0.843590 0.669329
0.135069 0.837053 0.662032
0.256460 0.832241 0.657962
0.413027 0.828124 0.655164
0.584800 0.824311 0.652903
0.752619 0.820425 0.650488
0.898417 0.816100 0.647275
1.000000 0.810869 0.642469
1.000000 0.809818 0.641256
0.114891 0.956343 0.663304
0.139494 0.951381 0.655810
0.255448 0.947590 0.651582
0.407758 0.944209 0.648649
0.576593 0.940955 0.646298
0.742986 0.937574 0.643857
0.889057 0.933840 0.640700
0.998084 0.929556 0.636241
1.000000 0.928762 0.635118
0.118620 0.990480 0.653709
0.137337 0.990663 0.646341
0.249851 0.991920 0.642332
0.399851 0.993531 0.639663
0.567428 0.995226 0.637619
0.733636 0.996784 0.635530
0.880654 0.998051 0.632775
0.991893 0.998933 0.628777
1.000000 0.998993 0.627932
0.018086 0.017363 0.804226
0.114993 0.022086 0.801801
0.269741 0.029805 0.801697
0.451759 0.039071 0.802562
0.639778 0.048842 0.803483
0.813472 0.058045 0.803635
0.953730 0.065586 0.802294
1.000000 0.067999 0.797131
1.000000 0.067977 0.796127
0.026004 0.097748 0.799080
0.110415 0.095636 0.795439
0.260273 0.096916 0.794430
0.439248 0.099939 0.794490
0.626167 0.103722 0.794723
0.800725 0.107238 0.794312
0.943773 0.109430 0.792530
1.000000 0.107193 0.787259
1.000000 0.106451 0.786187
0.038966 0.226269 0.797399
0.111439 0.221556 0.792907
0.255805 0.220230 0.791234
0.430774 0.220551 0.790668
0.615380 0.221628 0.790346
0.789482 0.222524 0.789480
0.934076 0.222276 0.787365
1.000000 0.218324 0.782175
1.000000 0.217297 0.781070
0.054727 0.379250 0.797057
0.115806 0.372783 0.791838
0.254261 0.369510 0.789545
0.424642 0.367723 0.788374
0.606239 0.366643 0.787505
0.779146 0.365455 0.786187
0.924572 0.363321 0.783748
1.000000 0.358274 0.778670
1.000000 0.357080 0.777546
0.071905 0.542093 0.796811
0.122294 0.534741 0.790998
0.254650 0.530214 0.788156
0.420128 0.526951 0.786436
0.598300 0.524300 0.785063
0.769526 0.521588 0.783328
0.915270 0.518127 0.780595
1.000000 0.512534 0.775658
1.000000 0.511286 0.774525
0.089079 0.700830 0.795624
0.129583 0.693459 0.789348
0.255869 0.688403 0.786046
0.416397 0.684340 0.783858
0.591008 0.680753 0.782054
0.760337 0.677121 0.779964
0.906113 0.672917 0.776989
1.000000 0.667282 0.772219
1.000000 0.666085 0.771087
0.104796 0.842542 0.792686
0.136271 0.835976 0.786066
0.256710 0.831140 0.782403
0.412498 0.827002 0.779847
0.583701 0.823174 0.777707
0.751202 0.819279 0.775346
0.896972 0.814953 0.772200
1.000000 0.809754 0.767631
1.000000 0.808704 0.766506
0.117584 0.955530 0.787378
0.140889 0.950533 0.780512
0.255871 0.946701 0.776592
0.407377 0.943277 0.773785
0.575609 0.939984 0.771423
0.741643 0.936568 0.768898
0.887640 0.932807 0.765668
0.996926 0.928505 0.761252
1.000000 0.927724 0.760234
0.121512 0.991064 0.778723
0.139016 0.991233 0.771922
0.250524 0.992456 0.768131
0.399679 0.994026 0.765482
0.566602 0.995676 0.763307
0.732394 0.997192 0.761000
0.879280 0.998422 0.758029
0.990718 0.999278 0.753926
1.000000 0.999345 0.753137
0.020163 0.019357 0.896518
0.115086 0.024024 0.895663
0.269019 0.031752 0.897098
0.450439 0.041038 0.899427
0.638109 0.050844 0.901739
0.811736 0.060096 0.903232
0.952238 0.067700 0.903217
1.000000 0.070234 0.899522
1.000000 0.070217 0.898727
0.027971 0.097959 0.894155
0.110504 0.095842 0.892034
0.259549 0.097175 0.892499
0.437926 0.100267 0.893957
0.624493 0.104134 0.895516
0.798973 0.107749 0.896381
0.942249 0.110051 0.895862
1.000000 0.107984 0.891995
1.000000 0.107253 0.891126
0.040943 0.225858 0.895144
0.111638 0.221136 0.892110
0.255177 0.219851 0.891822
0.429530 0.220229 0.892553
0.613759 0.221374 0.893453
0.787754 0.222353 0.893756
0.932541 0.222200 0.892803
1.000000 0.218399 0.888924
1.000000 0.217381 0.888015
0.056733 0.378385 0.897251
0.116138 0.371905 0.893426
0.253752 0.368659 0.892420
0.423496 0.366913 0.892436
0.604690 0.365886 0.892669
0.777457 0.364762 0.892400
0.923038 0.362705 0.891005
1.000000 0.357787 0.887129
1.000000 0.356600 0.886193
0.073960 0.540941 0.899210
0.122780 0.533573 0.894733
0.254280 0.529060 0.893075
0.419099 0.525820 0.892422
0.596838 0.523203 0.892022
0.767888 0.520536 0.891203
0.913746 0.517130 0.889385
1.000000 0.511639 0.885523
1.000000 0.510396 0.884570
0.091204 0.699568 0.900001
0.130243 0.692176 0.895005
0.255657 0.687118 0.892781
0.415501 0.683060 0.891537
0.589647 0.679487 0.890570
0.758763 0.675876 0.889254
0.904608 0.671703 0.887056
1.000000 0.666140 0.883219
1.000000 0.664946 0.882258
0.107010 0.841353 0.898868
0.137124 0.834761 0.893474
0.256670 0.829907 0.890784
0.411749 0.825754 0.889049
0.582452 0.821917 0.887608
0.749698 0.818019 0.885878
0.895492 0.813698 0.883365
1.000000 0.808537 0.879571
1.000000 0.807488 0.878608
0.119909 0.954618 0.895291
0.141954 0.949588 0.889597
0.256019 0.945720 0.886552
0.406784 0.942260 0.884445
0.574479 0.938934 0.882650
0.740215 0.935489 0.880614
0.886188 0.931705 0.877875
0.995763 0.927389 0.874048
1.000000 0.926622 0.873197
0.124055 0.991566 0.888380
0.140383 0.991724 0.882688
0.250937 0.992919 0.879679
0.399307 0.994455 0.877623
0.565638 0.996068 0.875892
0.731071 0.997547 0.873938
0.877871 0.998746 0.871311
0.989539 0.999580 0.867647
1.000000 0.999653 0.866978
