app/src/main/assets/luts/era_2026.cube
TITLE "Generation Camera 2026"
LUT_3D_SIZE 17
DOMAIN_MIN 0.0 0.0 0.0
DOMAIN_MAX 1.0 1.0 1.0
0.000000 0.000000 0.000000
0.060687 0.000000 0.000000
0.122654 0.000000 0.000000
0.185712 0.000000 0.000000
0.249674 0.000000 0.000000
0.314355 0.000000 0.000000
0.379566 0.000000 0.000000
0.445120 0.000000 0.000000
0.510830 0.000000 0.000000
0.576510 0.000000 0.000000
0.641972 0.000000 0.000000
0.707028 0.000000 0.000000
0.771493 0.000000 0.000000
0.835178 0.000000 0.000000
0.897897 0.000000 0.000000
0.959463 0.000000 0.000000
1.000000 0.000000 0.000000
0.000000 0.060168 0.000000
0.059629 0.059629 0.000000
0.121575 0.059090 0.000000
0.184616 0.058552 0.000000
0.248565 0.058013 0.000000
0.313234 0.057475 0.000000
0.378437 0.056936 0.000000
0.443987 0.056398 0.000000
0.509697 0.055860 0.000000
0.575378 0.055322 0.000000
0.640846 0.054784 0.000000
0.705911 0.054246 0.000000
0.770387 0.053708 0.000000
0.834087 0.053170 0.000000
0.896825 0.052633 0.000000
0.958412 0.052095 0.000000
1.000000 0.051558 0.000000
0.000000 0.121595 0.000000
0.058572 0.121046 0.000000
0.120497 0.120497 0.000000
0.183520 0.119948 0.000000
0.247455 0.119399 0.000000
0.312114 0.118850 0.000000
0.377309 0.118301 0.000000
0.442855 0.117752 0.000000
0.508563 0.117204 0.000000
0.574247 0.116655 0.000000
0.639719 0.116107 0.000000
0.704793 0.115558 0.000000
0.769281 0.115010 0.000000
0.832996 0.114462 0.000000
0.895752 0.113913 0.000000
0.957360 0.113365 0.000000
1.000000 0.112817 0.000000
0.000000 0.184099 0.000000
0.057514 0.183541 0.000000
0.119419 0.182983 0.000000
0.182425 0.182425 0.000000
0.246346 0.181867 0.000000
0.310993 0.181310 0.000000
0.376181 0.180752 0.000000
0.441722 0.180194 0.000000
0.507429 0.179637 0.000000
0.573115 0.179079 0.000000
0.638593 0.178522 0.000000
0.703675 0.177965 0.000000
0.768175 0.177408 0.000000
0.831905 0.176850 0.000000
0.894679 0.176293 0.000000
0.956308 0.175736 0.000000
1.000000 0.175180 0.000000
0.000000 0.247497 0.000000
0.056457 0.246931 0.000000
0.118341 0.246366 0.000000
0.181330 0.245801 0.000000
0.245236 0.245236 0.000000
0.309873 0.244672 0.000000
0.375054 0.244107 0.000000
0.440590 0.243542 0.000000
0.506296 0.242977 0.000000
0.571984 0.242413 0.000000
0.637466 0.241848 0.000000
0.702557 0.241283 0.000000
0.767068 0.240719 0.000000
0.830814 0.240155 0.000000
0.893605 0.239590 0.000000
0.955256 0.239026 0.000000
1.000000 0.238462 0.000000
0.000000 0.311606 0.000000
0.055401 0.311035 0.000000
0.117264 0.310465 0.000000
0.180235 0.309894 0.000000
0.244128 0.309324 0.000000
0.308753 0.308753 0.000000
0.373926 0.308183 0.000000
0.439458 0.307613 0.000000
0.505162 0.307042 0.000000
0.570852 0.306472 0.000000
0.636340 0.305902 0.000000
0.701439 0.305332 0.000000
0.765962 0.304761 0.000000
0.829722 0.304191 0.000000
0.892531 0.303621 0.000000
0.954204 0.303051 0.000000
1.000000 0.302481 0.000000
0.000000 0.376245 0.000000
0.054345 0.375670 0.000000
0.116187 0.375096 0.000000
0.179141 0.374521 0.000000
0.243019 0.373947 0.000000
0.307634 0.373373 0.000000
0.372798 0.372798 0.000000
0.438326 0.372224 0.000000
0.504029 0.371650 0.000000
0.569720 0.371075 0.000000
0.635213 0.370501 0.000000
0.700320 0.369927 0.000000
0.764855 0.369353 0.000000
0.828629 0.368778 0.000000
0.891457 0.368204 0.000000
0.953151 0.367630 0.000000
1.000000 0.367056 0.000000
0.000000 0.441231 0.000000
0.053289 0.440654 0.000000
0.115111 0.440077 0.000000
0.178047 0.439500 0.000000
0.241910 0.438924 0.000000
0.306514 0.438347 0.000000
0.371671 0.437770 0.000000
0.437193 0.437193 0.000000
0.502895 0.436617 0.000000
0.568588 0.436040 0.000000
0.634086 0.435463 0.000000
0.699202 0.434887 0.000000
0.763748 0.434310 0.000000
0.827537 0.433733 0.000000
0.890383 0.433157 0.000000
0.952097 0.432580 0.000000
1.000000 0.432004 0.000000
0.000000 0.506381 0.000000
0.052234 0.505803 0.000000
0.114034 0.505226 0.000000
0.176953 0.504649 0.000000
0.240802 0.504071 0.000000
0.305394 0.503494 0.000000
0.370543 0.502916 0.000000
0.436061 0.502339 0.000000
0.501761 0.501761 0.000000
0.567456 0.501184 0.000000
0.632959 0.500606 0.000000
0.698083 0.500029 0.000000
0.762640 0.499452 0.000000
0.826444 0.498874 0.000000
0.889308 0.498297 0.000000
0.951043 0.497719 0.000000
1.000000 0.497142 0.000000
0.000000 0.571513 0.000000
0.051179 0.570937 0.000000
0.112959 0.570360 0.000000
0.175859 0.569784 0.000000
0.239694 0.569207 0.000000
0.304275 0.568631 0.000000
0.369416 0.568054 0.000000
0.434929 0.567478 0.000000
0.500628 0.566901 0.000000
0.566324 0.566324 0.000000
0.631832 0.565748 0.000000
0.696964 0.565171 0.000000
0.761533 0.564594 0.000000
0.825351 0.564018 0.000000
0.888232 0.563441 0.000000
0.949989 0.562864 0.000000
1.000000 0.562288 0.000000
0.000000 0.636445 0.000000
0.050124 0.635871 0.000000
0.111883 0.635298 0.000000
0.174766 0.634724 0.000000
0.238586 0.634150 0.000000
0.303156 0.633576 0.000000
0.368289 0.633002 0.000000
0.433797 0.632427 0.000000
0.499494 0.631853 0.000000
0.565192 0.631279 0.000000
0.630705 0.630705 0.000000
0.695845 0.630131 0.000000
0.760425 0.629557 0.000000
0.824258 0.628982 0.000000
0.887157 0.628408 0.000000
0.948935 0.627834 0.000000
1.000000 0.627259 0.000000
0.000000 0.700995 0.000000
0.049070 0.700425 0.000000
0.110808 0.699855 0.000000
0.173673 0.699286 0.000000
0.237479 0.698716 0.000000
0.302037 0.698146 0.000000
0.367162 0.697576 0.000000
0.432665 0.697006 0.000000
0.498360 0.696436 0.000000
0.564060 0.695866 0.000000
0.629578 0.695296 0.000000
0.694726 0.694726 0.000000
0.759317 0.694155 0.000000
0.823164 0.693585 0.000000
0.886081 0.693015 0.000000
0.947880 0.692445 0.000000
1.000000 0.691874 0.000000
0.000000 0.764979 0.000000
0.048016 0.764415 0.000000
0.109733 0.763851 0.000000
0.172580 0.763287 0.000000
0.236371 0.762723 0.000000
0.300918 0.762159 0.000000
0.366035 0.761595 0.000000
0.431533 0.761031 0.000000
0.497227 0.760466 0.000000
0.562928 0.759902 0.000000
0.628450 0.759338 0.000000
0.693606 0.758773 0.000000
0.758209 0.758209 0.000000
0.822071 0.757644 0.000000
0.885005 0.757079 0.000000
0.946824 0.756515 0.000000
1.000000 0.755950 0.000000
0.000000 0.828216 0.000000
0.046962 0.827660 0.000000
0.108658 0.827103 0.000000
0.171488 0.826547 0.000000
0.235264 0.825990 0.000000
0.299800 0.825433 0.000000
0.364908 0.824876 0.000000
0.430401 0.824319 0.000000
0.496093 0.823762 0.000000
0.561796 0.823205 0.000000
0.627323 0.822648 0.000000
0.692487 0.822091 0.000000
0.757100 0.821534 0.000000
0.820976 0.820976 0.000000
0.883928 0.820419 0.000000
0.945769 0.819862 0.000000
1.000000 0.819304 0.000000
0.000000 0.890524 0.000000
0.045909 0.889976 0.000000
0.107584 0.889429 0.000000
0.170396 0.888881 0.000000
0.234157 0.888333 0.000000
0.298681 0.887785 0.000000
0.363781 0.887238 0.000000
0.429270 0.886690 0.000000
0.494959 0.886142 0.000000
0.560664 0.885593 0.000000
0.626195 0.885045 0.000000
0.691367 0.884497 0.000000
0.755991 0.883948 0.000000
0.819882 0.883400 0.000000
0.882851 0.882851 0.000000
0.944713 0.882303 0.000000
1.000000 0.881754 0.000000
0.000000 0.951718 0.000000
0.044857 0.951182 0.000000
0.106510 0.950645 0.000000
0.169304 0.950108 0.000000
0.233050 0.949571 0.000000
0.297563 0.949033 0.000000
0.362654 0.948496 0.000000
0.428138 0.947959 0.000000
0.493826 0.947421 0.000000
0.559531 0.946884 0.000000
0.625067 0.946346 0.000000
0.690247 0.945808 0.000000
0.754883 0.945270 0.000000
0.818787 0.944732 0.000000
0.881774 0.944194 0.000000
0.943656 0.943656 0.000000
1.000000 0.943118 0.000000
0.000000 1.000000 0.000000
0.043805 1.000000 0.000000
0.105437 1.000000 0.000000
0.168212 1.000000 0.000000
0.231944 1.000000 0.000000
0.296445 1.000000 0.000000
0.361528 1.000000 0.000000
0.427006 1.000000 0.000000
0.492692 1.000000 0.000000
0.558399 1.000000 0.000000
0.623940 1.000000 0.000000
0.689127 1.000000 0.000000
0.753773 1.000000 0.000000
0.817692 1.000000 0.000000
0.880697 1.000000 0.000000
0.942599 1.000000 0.000000
1.000000 1.000000 0.000000
0.000000 0.000000 0.061021
0.060482 0.000000 0.060482
0.122444 0.000000 0.059943
0.185499 0.000000 0.059404
0.249459 0.000000 0.058865
0.314137 0.000000 0.058327
0.379346 0.000000 0.057788
0.444900 0.000000 0.057250
0.510610 0.000000 0.056711
0.576290 0.000000 0.056173
0.641753 0.000000 0.055635
0.706811 0.000000 0.055097
0.771278 0.000000 0.054559
0.834966 0.000000 0.054021
0.897689 0.000000 0.053483
0.959259 0.000000 0.052945
1.000000 0.000000 0.052408
0.000000 0.059963 0.059963
0.059424 0.059424 0.059424
0.121366 0.058885 0.058885
0.184403 0.058346 0.058346
0.248349 0.057808 0.057808
0.313017 0.057269 0.057269
0.378218 0.056731 0.056731
0.443767 0.056193 0.056193
0.509477 0.055655 0.055655
0.575159 0.055117 0.055117
0.640627 0.054579 0.054579
0.705694 0.054041 0.054041
0.770172 0.053503 0.053503
0.833876 0.052965 0.052965
0.896616 0.052428 0.052428
0.958207 0.051890 0.051890
1.000000 0.051353 0.051353
0.000000 0.121386 0.058905
0.058366 0.120837 0.058366
0.120287 0.120287 0.057828
0.183308 0.119738 0.057289
0.247240 0.119189 0.056751
0.311896 0.118641 0.056213
0.377090 0.118092 0.055674
0.442635 0.117543 0.055136
0.508343 0.116994 0.054598
0.574027 0.116446 0.054060
0.639501 0.115897 0.053523
0.704576 0.115349 0.052985
0.769066 0.114801 0.052447
0.832785 0.114253 0.051910
0.895543 0.113704 0.051373
0.957156 0.113156 0.050835
1.000000 0.112609 0.050298
0.000000 0.183886 0.057847
0.057309 0.183328 0.057309
0.119210 0.182770 0.056771
0.182212 0.182212 0.056232
0.246130 0.181655 0.055694
0.310776 0.181097 0.055156
0.375962 0.180539 0.054618
0.441503 0.179982 0.054080
0.507209 0.179424 0.053542
0.572896 0.178867 0.053005
0.638374 0.178310 0.052467
0.703458 0.177752 0.051930
0.767960 0.177195 0.051392
0.831693 0.176638 0.050855
0.894470 0.176081 0.050318
0.956104 0.175524 0.049781
1.000000 0.174967 0.049244
0.000000 0.247281 0.056790
0.056252 0.246716 0.056252
0.118132 0.246151 0.055714
0.181118 0.245586 0.055176
0.245021 0.245021 0.054638
0.309656 0.244456 0.054100
0.374835 0.243891 0.053562
0.440370 0.243327 0.053025
0.506076 0.242762 0.052487
0.571764 0.242197 0.051950
0.637248 0.241633 0.051412
0.702340 0.241068 0.050875
0.766854 0.240504 0.050338
0.830601 0.239939 0.049801
0.893397 0.239375 0.049264
0.955052 0.238811 0.048727
1.000000 0.238246 0.048190
0.000000 0.311388 0.055734
0.055196 0.310818 0.055196
0.117055 0.310247 0.054658
0.180023 0.309677 0.054120
0.243912 0.309106 0.053582
0.308536 0.308536 0.053044
0.373707 0.307966 0.052507
0.439238 0.307395 0.051969
0.504942 0.306825 0.051432
0.570632 0.306255 0.050895
0.636121 0.305684 0.050357
0.701222 0.305114 0.049820
0.765747 0.304544 0.049283
0.829510 0.303974 0.048747
0.892323 0.303404 0.048210
0.953999 0.302834 0.047673
1.000000 0.302264 0.047137
0.000000 0.376026 0.054677
0.054140 0.375451 0.054140
0.115978 0.374877 0.053602
0.178928 0.374302 0.053064
0.242804 0.373728 0.052527
0.307416 0.373154 0.051989
0.372579 0.372579 0.051452
0.438106 0.372005 0.050914
0.503808 0.371431 0.050377
0.569500 0.370856 0.049840
0.634994 0.370282 0.049303
0.700103 0.369708 0.048766
0.764640 0.369134 0.048230
0.828417 0.368560 0.047693
0.891248 0.367985 0.047156
0.952946 0.367411 0.046620
1.000000 0.366837 0.046083
0.000000 0.441011 0.053622
0.053084 0.440434 0.053084
0.114902 0.439857 0.052546
0.177834 0.439280 0.052009
0.241695 0.438704 0.051471
0.306297 0.438127 0.050934
0.371452 0.437550 0.050397
0.436974 0.436974 0.049860
0.502675 0.436397 0.049323
0.568368 0.435820 0.048786
0.633867 0.435244 0.048249
0.698984 0.434667 0.047713
0.763533 0.434090 0.047176
0.827325 0.433514 0.046640
0.890174 0.432937 0.046103
0.951893 0.432360 0.045567
1.000000 0.431784 0.045031
0.000000 0.506161 0.052566
0.052029 0.505583 0.052029
0.113825 0.505006 0.051491
0.176741 0.504428 0.050954
0.240587 0.503851 0.050417
0.305177 0.503273 0.049880
0.370324 0.502696 0.049343
0.435841 0.502119 0.048806
0.501541 0.501541 0.048269
0.567237 0.500964 0.047732
0.632740 0.500386 0.047196
0.697866 0.499809 0.046659
0.762425 0.499231 0.046123
0.826232 0.498654 0.045587
0.889099 0.498076 0.045050
0.950839 0.497499 0.044514
1.000000 0.496922 0.043978
0.000000 0.571293 0.051511
0.050974 0.570717 0.050974
0.112750 0.570140 0.050436
0.175647 0.569564 0.049899
0.239479 0.568987 0.049362
0.304058 0.568411 0.048826
0.369197 0.567834 0.048289
0.434709 0.567258 0.047752
0.500407 0.566681 0.047215
0.566105 0.566105 0.046679
0.631613 0.565528 0.046143
0.696747 0.564951 0.045606
0.761318 0.564375 0.045070
0.825139 0.563798 0.044534
0.888024 0.563221 0.043998
0.949784 0.562645 0.043462
1.000000 0.562068 0.042926
0.000000 0.636227 0.050456
0.049919 0.635653 0.049919
0.111674 0.635079 0.049382
0.174554 0.634505 0.048845
0.238371 0.633931 0.048308
0.302939 0.633357 0.047772
0.368070 0.632783 0.047235
0.433577 0.632209 0.046699
0.499274 0.631634 0.046162
0.564972 0.631060 0.045626
0.630486 0.630486 0.045090
0.695628 0.629912 0.044554
0.760210 0.629338 0.044018
0.824046 0.628763 0.043482
0.886948 0.628189 0.042946
0.948730 0.627615 0.042411
1.000000 0.627040 0.041875
0.000000 0.700778 0.049402
0.048865 0.700208 0.048865
0.110599 0.699638 0.048328
0.173461 0.699068 0.047792
0.237263 0.698498 0.047255
0.301820 0.697929 0.046718
0.366943 0.697359 0.046182
0.432445 0.696789 0.045646
0.498140 0.696219 0.045110
0.563840 0.695649 0.044574
0.629359 0.695078 0.044038
0.694508 0.694508 0.043502
0.759102 0.693938 0.042966
0.822952 0.693368 0.042430
0.885872 0.692797 0.041895
0.947675 0.692227 0.041359
1.000000 0.691657 0.040824
0.000000 0.764764 0.048348
0.047811 0.764200 0.047811
0.109524 0.763636 0.047275
0.172368 0.763072 0.046738
0.236156 0.762508 0.046202
0.300701 0.761944 0.045666
0.365816 0.761380 0.045129
0.431313 0.760816 0.044593
0.497007 0.760251 0.044057
0.562708 0.759687 0.043521
0.628231 0.759122 0.042986
0.693389 0.758558 0.042450
0.757993 0.757993 0.041914
0.821858 0.757429 0.041379
0.884796 0.756864 0.040844
0.946619 0.756299 0.040308
1.000000 0.755735 0.039773
0.000000 0.828004 0.047294
0.046758 0.827448 0.046758
0.108450 0.826891 0.046222
0.171276 0.826334 0.045685
0.235049 0.825778 0.045149
0.299582 0.825221 0.044613
0.364689 0.824664 0.044077
0.430182 0.824107 0.043541
0.495873 0.823550 0.043005
0.561576 0.822993 0.042470
0.627104 0.822436 0.041934
0.692269 0.821879 0.041399
0.756885 0.821321 0.040863
0.820764 0.820764 0.040328
0.883719 0.820206 0.039793
0.945564 0.819649 0.039258
1.000000 0.819091 0.038723
0.000000 0.890315 0.046241
0.045705 0.889767 0.045705
0.107375 0.889220 0.045169
0.170183 0.888672 0.044633
0.233942 0.888124 0.044097
0.298464 0.887577 0.043561
0.363562 0.887029 0.043025
0.429050 0.886481 0.042489
0.494739 0.885933 0.041954
0.560444 0.885384 0.041418
0.625976 0.884836 0.040883
0.691149 0.884288 0.040348
0.755776 0.883739 0.039812
0.819669 0.883191 0.039277
0.882642 0.882642 0.038742
0.944507 0.882094 0.038208
1.000000 0.881545 0.037673
0.000000 0.951514 0.045189
0.044652 0.950977 0.044652
0.106302 0.950440 0.044116
0.169092 0.949903 0.043581
0.232835 0.949366 0.043045
0.297346 0.948829 0.042509
0.362436 0.948291 0.041973
0.427918 0.947754 0.041438
0.493606 0.947216 0.040903
0.559311 0.946679 0.040367
0.624848 0.946141 0.039832
0.690029 0.945603 0.039297
0.754667 0.945065 0.038762
0.818575 0.944527 0.038227
0.881565 0.943989 0.037693
0.943451 0.943451 0.037158
1.000000 0.942912 0.036623
0.000000 1.000000 0.044136
0.043600 1.000000 0.043600
0.105228 1.000000 0.043064
0.168000 1.000000 0.042529
0.231729 1.000000 0.041993
0.296228 1.000000 0.041458
0.361309 1.000000 0.040922
0.426786 1.000000 0.040387
0.492472 1.000000 0.039852
0.558179 1.000000 0.039317
0.623721 1.000000 0.038782
0.688909 1.000000 0.038247
0.753558 1.000000 0.037712
0.817480 1.000000 0.037178
0.880487 1.000000 0.036643
0.942394 1.000000 0.036109
1.000000 1.000000 0.035574
0.000000 0.000000 0.123334
0.060276 0.000000 0.122784
0.122235 0.000000 0.122235
0.185286 0.000000 0.121685
0.249243 0.000000 0.121136
0.313919 0.000000 0.120587
0.379127 0.000000 0.120038
0.444680 0.000000 0.119489
0.510390 0.000000 0.118940
0.576070 0.000000 0.118391
0.641534 0.000000 0.117842
0.706594 0.000000 0.117294
0.771063 0.000000 0.116745
0.834755 0.000000 0.116196
0.897481 0.000000 0.115648
0.959054 0.000000 0.115100
1.000000 0.000000 0.114551
0.000000 0.059757 0.122255
0.059218 0.059218 0.121705
0.121156 0.058680 0.121156
0.184190 0.058141 0.120607
0.248134 0.057603 0.120058
0.312799 0.057064 0.119509
0.377999 0.056526 0.118960
0.443547 0.055988 0.118411
0.509256 0.055449 0.117862
0.574939 0.054911 0.117314
0.640408 0.054373 0.116765
0.705477 0.053836 0.116217
0.769958 0.053298 0.115668
0.833664 0.052760 0.115120
0.896408 0.052223 0.114572
0.958003 0.051685 0.114023
1.000000 0.051148 0.113475
0.000000 0.121176 0.121176
0.058161 0.120627 0.120627
0.120078 0.120078 0.120078
0.183095 0.119529 0.119529
0.247024 0.118980 0.118980
0.311679 0.118431 0.118431
0.376871 0.117883 0.117883
0.442415 0.117334 0.117334
0.508123 0.116785 0.116785
0.573807 0.116237 0.116237
0.639282 0.115688 0.115688
0.704359 0.115140 0.115140
0.768852 0.114592 0.114592
0.832573 0.114044 0.114044
0.895335 0.113496 0.113496
0.956952 0.112948 0.112948
1.000000 0.112400 0.112400
0.000000 0.183673 0.120098
0.057104 0.183115 0.119549
0.119000 0.182558 0.119000
0.182000 0.182000 0.118452
0.245915 0.181442 0.117903
0.310558 0.180884 0.117354
0.375743 0.180327 0.116805
0.441283 0.179769 0.116257
0.506989 0.179212 0.115709
0.572676 0.178654 0.115160
0.638155 0.178097 0.114612
0.703241 0.177540 0.114064
0.767745 0.176983 0.113516
0.831481 0.176426 0.112968
0.894262 0.175869 0.112420
0.955900 0.175312 0.111872
1.000000 0.174755 0.111324
0.000000 0.247066 0.119021
0.056047 0.246501 0.118472
0.117923 0.245936 0.117923
0.180905 0.245371 0.117374
0.244806 0.244806 0.116826
0.309438 0.244241 0.116277
0.374616 0.243676 0.115729
0.440150 0.243111 0.115180
0.505856 0.242547 0.114632
0.571544 0.241982 0.114084
0.637029 0.241418 0.113536
0.702123 0.240853 0.112988
0.766639 0.240289 0.112440
0.830389 0.239724 0.111892
0.893188 0.239160 0.111344
0.954847 0.238596 0.110797
1.000000 0.238031 0.110249
0.000000 0.311171 0.117943
0.054991 0.310600 0.117394
0.116846 0.310030 0.116846
0.179810 0.309459 0.116297
0.243697 0.308889 0.115749
0.308318 0.308318 0.115201
0.373488 0.307748 0.114652
0.439018 0.307178 0.114104
0.504722 0.306607 0.113556
0.570412 0.306037 0.113008
0.635902 0.305467 0.112460
0.701004 0.304897 0.111912
0.765532 0.304327 0.111365
0.829297 0.303757 0.110817
0.892114 0.303187 0.110269
0.953795 0.302617 0.109722
1.000000 0.302047 0.109174
0.000000 0.375807 0.116866
0.053935 0.375232 0.116317
0.115769 0.374658 0.115769
0.178716 0.374083 0.115221
0.242588 0.373509 0.114672
0.307199 0.372935 0.114124
0.372360 0.372360 0.113576
0.437886 0.371786 0.113028
0.503588 0.371212 0.112480
0.569280 0.370637 0.111932
0.634775 0.370063 0.111385
0.699886 0.369489 0.110837
0.764425 0.368915 0.110289
0.828205 0.368341 0.109742
0.891040 0.367766 0.109195
0.952741 0.367192 0.108647
1.000000 0.366618 0.108100
0.000000 0.440791 0.115789
0.052879 0.440214 0.115241
0.114693 0.439637 0.114693
0.177622 0.439060 0.114144
0.241480 0.438484 0.113596
0.306079 0.437907 0.113048
0.371233 0.437330 0.112500
0.436754 0.436754 0.111953
0.502455 0.436177 0.111405
0.568149 0.435600 0.110857
0.633649 0.435024 0.110310
0.698767 0.434447 0.109762
0.763318 0.433870 0.109215
0.827113 0.433294 0.108667
0.889965 0.432717 0.108120
0.951688 0.432141 0.107573
1.000000 0.431564 0.107026
0.000000 0.505941 0.114713
0.051824 0.505363 0.114165
0.113616 0.504786 0.113616
0.176528 0.504208 0.113068
0.240372 0.503631 0.112521
0.304960 0.503053 0.111973
0.370105 0.502476 0.111425
0.435622 0.501898 0.110877
0.501321 0.501321 0.110330
0.567017 0.500744 0.109782
0.632522 0.500166 0.109235
0.697648 0.499589 0.108688
0.762210 0.499011 0.108140
0.826020 0.498434 0.107593
0.888890 0.497856 0.107046
0.950634 0.497279 0.106499
1.000000 0.496701 0.105952
0.000000 0.571074 0.113637
0.050769 0.570497 0.113089
0.112541 0.569921 0.112541
0.175435 0.569344 0.111993
0.239264 0.568768 0.111445
0.303840 0.568191 0.110897
0.368978 0.567614 0.110350
0.434489 0.567038 0.109802
0.500187 0.566461 0.109255
0.565885 0.565885 0.108708
0.631394 0.565308 0.108160
0.696529 0.564731 0.107613
0.761102 0.564155 0.107066
0.824927 0.563578 0.106519
0.887815 0.563001 0.105972
0.949580 0.562425 0.105426
1.000000 0.561848 0.104879
0.000000 0.636008 0.112561
0.049714 0.635434 0.112013
0.111465 0.634860 0.111465
0.174341 0.634286 0.110918
0.238156 0.633712 0.110370
0.302721 0.633138 0.109823
0.367851 0.632564 0.109275
0.433357 0.631990 0.108728
0.499054 0.631416 0.108181
0.564753 0.630841 0.107633
0.630267 0.630267 0.107086
0.695410 0.629693 0.106539
0.759995 0.629119 0.105993
0.823833 0.628544 0.105446
0.886739 0.627970 0.104899
0.948525 0.627396 0.104352
1.000000 0.626821 0.103806
0.000000 0.700560 0.111485
0.048660 0.699991 0.110938
0.110390 0.699421 0.110390
0.173249 0.698851 0.109843
0.237048 0.698281 0.109295
0.301603 0.697711 0.108748
0.366724 0.697141 0.108201
0.432225 0.696571 0.107654
0.497920 0.696001 0.107106
0.563621 0.695431 0.106560
0.629140 0.694861 0.106013
0.694291 0.694291 0.105466
0.758886 0.693721 0.104919
0.822740 0.693150 0.104372
0.885663 0.692580 0.103826
0.947470 0.692010 0.103280
1.000000 0.691439 0.102733
0.000000 0.764549 0.110410
0.047607 0.763985 0.109863
0.109315 0.763421 0.109315
0.172156 0.762857 0.108768
0.235941 0.762293 0.108221
0.300484 0.761729 0.107674
0.365597 0.761165 0.107127
0.431094 0.760600 0.106580
0.496786 0.760036 0.106033
0.562488 0.759472 0.105486
0.628012 0.758907 0.104939
0.693171 0.758343 0.104393
0.757778 0.757778 0.103846
0.821646 0.757213 0.103300
0.884587 0.756649 0.102753
0.946414 0.756084 0.102207
1.000000 0.755519 0.101661
0.000000 0.827792 0.109336
0.046553 0.827235 0.108788
0.108241 0.826679 0.108241
0.171064 0.826122 0.107694
0.234834 0.825565 0.107147
0.299365 0.825009 0.106600
0.364470 0.824452 0.106053
0.429962 0.823895 0.105506
0.495653 0.823338 0.104959
0.561356 0.822781 0.104413
0.626885 0.822223 0.103866
0.692052 0.821666 0.103320
0.756670 0.821109 0.102773
0.820551 0.820551 0.102227
0.883510 0.819994 0.101681
0.945358 0.819436 0.101135
1.000000 0.818879 0.100589
0.000000 0.890106 0.108261
0.045501 0.889559 0.107714
0.107167 0.889011 0.107167
0.169971 0.888463 0.106620
0.233727 0.887916 0.106073
0.298247 0.887368 0.105526
0.363343 0.886820 0.104979
0.428830 0.886272 0.104433
0.494519 0.885724 0.103886
0.560224 0.885175 0.103340
0.625757 0.884627 0.102793
0.690932 0.884079 0.102247
0.755561 0.883530 0.101701
0.819457 0.882982 0.101155
0.882433 0.882433 0.100609
0.944302 0.881884 0.100063
1.000000 0.881336 0.099517
0.000000 0.951309 0.107187
0.044448 0.950772 0.106640
0.106093 0.950235 0.106093
0.168880 0.949698 0.105546
0.232620 0.949161 0.105000
0.297129 0.948624 0.104453
0.362217 0.948086 0.103906
0.427698 0.947549 0.103360
0.493386 0.947011 0.102814
0.559092 0.946474 0.102267
0.624629 0.945936 0.101721
0.689812 0.945398 0.101175
0.754452 0.944860 0.100629
0.818362 0.944322 0.100083
0.881356 0.943784 0.099537
0.943246 0.943246 0.098991
1.000000 0.942707 0.098446
0.000000 1.000000 0.106113
0.043396 1.000000 0.105566
0.105020 1.000000 0.105020
0.167788 1.000000 0.104473
0.231514 1.000000 0.103926
0.296011 1.000000 0.103380
0.361090 1.000000 0.102834
0.426567 1.000000 0.102287
0.492252 1.000000 0.101741
0.557959 1.000000 0.101195
0.623502 1.000000 0.100649
0.688692 1.000000 0.100103
0.753343 1.000000 0.099557
0.817267 1.000000 0.099012
0.880278 1.000000 0.098466
0.942189 1.000000 0.097920
1.000000 1.000000 0.097375
0.000000 0.000000 0.186748
0.060071 0.000000 0.186190
0.122025 0.000000 0.185631
0.185073 0.000000 0.185073
0.249028 0.000000 0.184515
0.313702 0.000000 0.183957
0.378908 0.000000 0.183399
0.444460 0.000000 0.182841
0.510170 0.000000 0.182283
0.575851 0.000000 0.181726
0.641316 0.000000 0.181168
0.706377 0.000000 0.180610
0.770849 0.000000 0.180053
0.834543 0.000000 0.179495
0.897272 0.000000 0.178938
0.958850 0.000000 0.178380
1.000000 0.000000 0.177823
0.000000 0.059552 0.185652
