app/src/main/assets/luts/era_1970s.cube
TITLE "Generation Camera 1970s"
LUT_3D_SIZE 9
DOMAIN_MIN 0.0 0.0 0.0
DOMAIN_MAX 1.0 1.0 1.0
0.186716 0.182538 0.173853
0.272563 0.190951 0.184935
0.357541 0.199326 0.195984
0.441651 0.207663 0.206998
0.524892 0.215961 0.217975
0.607265 0.224221 0.228914
0.688769 0.232442 0.239812
0.769405 0.240624 0.250669
0.807533 0.244509 0.255829
0.202368 0.270207 0.193257
0.287363 0.278250 0.204277
0.371490 0.286252 0.215262
0.454749 0.294214 0.226208
0.537139 0.302134 0.237114
0.618661 0.310013 0.247979
0.699314 0.317851 0.258801
0.779099 0.325645 0.269579
0.816822 0.329346 0.274699
0.217867 0.356624 0.212547
0.302012 0.364288 0.223501
0.385288 0.371908 0.234415
0.467696 0.379485 0.245288
0.549235 0.387018 0.256119
0.629906 0.394507 0.266905
0.709708 0.401950 0.277645
0.788642 0.409349 0.288337
0.825959 0.412859 0.293416
0.233214 0.441764 0.231714
0.316508 0.449039 0.242595
0.398933 0.456269 0.253434
0.480490 0.463451 0.264229
0.561178 0.470587 0.274978
0.640998 0.477676 0.285680
0.719950 0.484717 0.296333
0.798033 0.491709 0.306935
0.834944 0.495026 0.311971
0.248409 0.525601 0.250749
0.330852 0.532479 0.261552
0.412427 0.539308 0.272310
0.493133 0.546087 0.283021
0.572970 0.552816 0.293684
0.651939 0.559495 0.304296
0.730039 0.566124 0.314857
0.807271 0.572701 0.325364
0.843777 0.575818 0.330352
0.263453 0.608112 0.269641
0.345045 0.614582 0.280361
0.425768 0.621000 0.291033
0.505623 0.627366 0.301655
0.584609 0.633679 0.312226
0.662728 0.639939 0.322743
0.739977 0.646146 0.333206
0.816358 0.652299 0.343612
0.852459 0.655213 0.348552
0.278344 0.689269 0.288381
0.359085 0.695322 0.299013
0.438957 0.701321 0.309593
0.517961 0.707264 0.320121
0.596097 0.713152 0.330595
0.673364 0.718983 0.341012
0.749763 0.724759 0.351372
0.825293 0.730477 0.361672
0.860988 0.733183 0.366560
0.293083 0.769048 0.306959
0.372973 0.774675 0.317497
0.451995 0.780244 0.327982
0.530148 0.785755 0.338410
0.607433 0.791208 0.348781
0.683849 0.796602 0.359093
0.759396 0.801936 0.369344
0.834076 0.807211 0.379533
0.869365 0.809704 0.384367
0.305392 0.835223 0.322491
0.384565 0.840483 0.332946
0.462869 0.845683 0.343345
0.540305 0.850822 0.353685
0.616872 0.855901 0.363965
0.692571 0.860918 0.374184
0.767401 0.865873 0.384340
0.841363 0.870767 0.394431
0.876310 0.873077 0.399217
0.189144 0.184967 0.227780
0.274866 0.193369 0.238775
0.359719 0.201733 0.249731
0.443704 0.210059 0.260648
0.526821 0.218346 0.271523
0.609069 0.226595 0.282356
0.690449 0.234805 0.293143
0.770960 0.242975 0.303885
0.809028 0.246855 0.308988
0.204772 0.272534 0.247017
0.289643 0.280565 0.257941
0.373645 0.288556 0.268825
0.456779 0.296506 0.279665
0.539045 0.304415 0.290461
0.620442 0.312282 0.301211
0.700971 0.320107 0.311914
0.780631 0.327890 0.322567
0.818294 0.331584 0.327627
0.220247 0.358847 0.266124
0.304268 0.366499 0.276973
0.387419 0.374107 0.287778
0.469702 0.381672 0.298537
0.551117 0.389192 0.309248
0.631663 0.396668 0.319911
0.711341 0.404099 0.330523
0.790150 0.411484 0.341083
0.827408 0.414988 0.346097
0.235571 0.443881 0.285093
0.318740 0.451143 0.295860
0.401041 0.458359 0.306581
0.482473 0.465529 0.317253
0.563037 0.472651 0.327875
0.642732 0.479726 0.338445
0.721559 0.486754 0.348961
0.799517 0.493733 0.359423
0.836369 0.497042 0.364389
0.250743 0.527610 0.303912
0.333061 0.534473 0.314593
0.414511 0.541288 0.325225
0.495092 0.548053 0.335805
0.574805 0.554768 0.346332
0.653649 0.561433 0.356803
0.731625 0.568047 0.367219
0.808733 0.574610 0.377576
0.845179 0.577720 0.382492
0.265763 0.610008 0.322573
0.347230 0.616464 0.333163
0.427829 0.622867 0.343700
0.507559 0.629219 0.354182
0.586421 0.635517 0.364609
0.664414 0.641762 0.374977
0.741539 0.647953 0.385286
0.817796 0.654091 0.395534
0.853837 0.656997 0.400397
0.280630 0.691052 0.341067
0.361247 0.697089 0.351560
0.440995 0.703072 0.361997
0.519874 0.709000 0.372376
0.597885 0.714872 0.382697
0.675027 0.720688 0.392957
0.751301 0.726447 0.403154
0.826707 0.732150 0.413287
0.862342 0.734848 0.418094
0.295346 0.770714 0.359383
0.375112 0.776325 0.369773
0.454009 0.781877 0.380105
0.532037 0.787372 0.390377
0.609197 0.792808 0.400586
0.685489 0.798185 0.410732
0.760912 0.803503 0.420813
0.835466 0.808761 0.430826
0.870696 0.811246 0.435575
0.307636 0.836788 0.374681
0.386684 0.842032 0.384981
0.464863 0.847214 0.395220
0.542174 0.852337 0.405397
0.618617 0.857398 0.415508
0.694191 0.862398 0.425554
0.768896 0.867336 0.435532
0.842733 0.872212 0.445440
0.877621 0.874514 0.450138
0.191568 0.187392 0.281663
0.277165 0.195783 0.292567
0.361894 0.204136 0.303429
0.445754 0.212451 0.314246
0.528746 0.220728 0.325018
0.610870 0.228966 0.335741
0.692125 0.237164 0.346416
0.772511 0.245323 0.357039
0.810521 0.249198 0.362084
0.207172 0.274858 0.300728
0.291918 0.282878 0.311554
0.375796 0.290857 0.322334
0.458806 0.298795 0.333066
0.540947 0.306692 0.343750
0.622219 0.314547 0.354383
0.702623 0.322360 0.364964
0.782159 0.330131 0.375490
0.819763 0.333819 0.380489
0.222624 0.361067 0.319648
0.306520 0.368707 0.330390
0.389547 0.376302 0.341082
0.471705 0.383854 0.351725
0.552995 0.391362 0.362315
0.633417 0.398825 0.372852
0.712970 0.406243 0.383334
0.791655 0.413616 0.393759
0.828853 0.417114 0.398707
0.237925 0.445994 0.338413
0.320969 0.453244 0.349065
0.403145 0.460447 0.359665
0.484453 0.467603 0.370212
0.564892 0.474712 0.380704
0.644462 0.481773 0.391140
0.723165 0.488787 0.401517
0.800998 0.495752 0.411835
0.837791 0.499055 0.416732
0.253073 0.529614 0.357013
0.335266 0.536464 0.367570
0.416591 0.543264 0.378073
0.497048 0.550015 0.388519
0.576636 0.556716 0.398907
0.655356 0.563367 0.409236
0.733207 0.569966 0.419504
0.810190 0.576515 0.429710
0.846577 0.579618 0.434551
0.268069 0.611901 0.375439
0.349412 0.618342 0.385896
0.429886 0.624731 0.396296
0.509492 0.631067 0.406636
0.588229 0.637350 0.416915
0.666098 0.643580 0.427132
0.743098 0.649756 0.437286
0.819230 0.655878 0.447373
0.855211 0.658777 0.452158
0.282913 0.692830 0.393682
0.363405 0.698852 0.404033
0.443028 0.704820 0.414324
0.521783 0.710731 0.424553
0.599669 0.716588 0.434718
0.676687 0.722387 0.444818
0.752837 0.728131 0.454851
0.828117 0.733817 0.464815
0.863693 0.736507 0.469540
0.297606 0.772375 0.411731
0.377246 0.777970 0.421972
0.456019 0.783506 0.432149
0.533923 0.788984 0.442261
0.610958 0.794404 0.452307
0.687125 0.799764 0.462284
0.762423 0.805065 0.472192
0.836853 0.810306 0.482027
0.872024 0.812783 0.486690
0.309875 0.838349 0.426792
0.388798 0.843575 0.436935
0.466853 0.848741 0.447012
0.544040 0.853846 0.457022
0.620358 0.858890 0.466963
0.695807 0.863873 0.476832
0.770388 0.868793 0.486630
0.844101 0.873651 0.496353
0.878929 0.875945 0.500962
0.193988 0.189815 0.335501
0.279461 0.198195 0.346312
0.364065 0.206537 0.357077
0.447801 0.214841 0.367792
0.530668 0.223106 0.378457
0.612667 0.231333 0.389070
0.693797 0.239520 0.399628
0.774059 0.247667 0.410132
0.812009 0.251537 0.415118
0.209569 0.277179 0.354390
0.294191 0.285187 0.365114
0.377944 0.293155 0.375788
0.460829 0.301081 0.386410
0.542845 0.308966 0.396979
0.623993 0.316809 0.407492
0.704272 0.324610 0.417949
0.783683 0.332368 0.428347
0.821228 0.336051 0.433282
0.224998 0.363284 0.373118
0.308768 0.370911 0.383749
0.391671 0.378494 0.394328
0.473705 0.386033 0.404851
0.554870 0.393528 0.415318
0.635167 0.400979 0.425727
0.714595 0.408384 0.436076
0.793155 0.415743 0.446364
0.830294 0.419235 0.451245
0.240274 0.448104 0.391675
0.323194 0.455340 0.402208
0.405246 0.462530 0.412686
0.486429 0.469673 0.423105
0.566743 0.476768 0.433465
0.646189 0.483816 0.443764
0.724767 0.490816 0.454001
0.802476 0.497768 0.464173
0.839209 0.501064 0.468998
0.255399 0.531615 0.410051
0.337468 0.538450 0.420482
0.418668 0.545237 0.430853
0.499000 0.551974 0.441163
0.578464 0.558660 0.451411
0.657059 0.565296 0.461595
0.734786 0.571881 0.471713
0.811644 0.578415 0.481764
0.847972 0.581512 0.486530
0.270372 0.613790 0.428238
0.351590 0.620216 0.438559
0.431939 0.626590 0.448819
0.511420 0.632911 0.459014
0.590033 0.639179 0.469145
0.667777 0.645394 0.479208
0.744653 0.651555 0.489203
0.820660 0.657661 0.499128
0.856582 0.660553 0.503833
0.285193 0.694604 0.446225
0.365560 0.700611 0.456432
0.445058 0.706562 0.466575
0.523688 0.712459 0.476651
0.601450 0.718299 0.486658
0.678343 0.724083 0.496596
0.754368 0.729810 0.506462
0.829524 0.735480 0.516255
0.865041 0.738163 0.520896
0.299861 0.774032 0.464003
0.379377 0.779610 0.474091
0.458025 0.785130 0.484111
0.535804 0.790592 0.494062
0.612715 0.795995 0.503941
0.688757 0.801338 0.513748
0.763931 0.806622 0.523480
0.838237 0.811846 0.533136
0.873347 0.814315 0.537711
0.312111 0.839905 0.478822
0.390910 0.845115 0.488806
0.468840 0.850263 0.498719
0.545902 0.855351 0.508560
0.622095 0.860378 0.518327
0.697420 0.865343 0.528019
0.771876 0.870246 0.537634
0.845464 0.875086 0.547170
0.880233 0.877372 0.551688
0.196405 0.192234 0.389292
0.281753 0.200603 0.400009
0.366232 0.208935 0.410673
0.449844 0.217227 0.421285
0.532586 0.225482 0.431841
0.614460 0.233697 0.442340
0.695466 0.241873 0.452781
0.775603 0.250009 0.463161
0.813494 0.253872 0.468087
0.211962 0.279496 0.408001
0.296459 0.287493 0.418621
0.380088 0.295449 0.429187
0.462848 0.303363 0.439697
0.544740 0.311236 0.450148
0.625763 0.319067 0.460539
0.705918 0.326856 0.470869
0.785204 0.334602 0.481136
0.822689 0.338279 0.486007
0.227367 0.365497 0.426532
0.311013 0.373111 0.437052
0.393791 0.380682 0.447513
0.475700 0.388209 0.457915
0.556741 0.395691 0.468257
0.636913 0.403129 0.478535
0.716217 0.410521 0.488749
0.794653 0.417868 0.498897
0.831732 0.421353 0.503710
0.242620 0.450210 0.444877
0.325416 0.457433 0.455290
0.407342 0.464610 0.465642
0.488401 0.471739 0.475932
0.568591 0.478821 0.486157
0.647912 0.485855 0.496317
0.726365 0.492841 0.506410
0.803949 0.499779 0.516434
0.840623 0.503069 0.521187
0.257722 0.533611 0.463025
0.339666 0.540433 0.473326
0.420742 0.547205 0.483564
0.500949 0.553928 0.493736
0.580288 0.560600 0.503840
0.658759 0.567222 0.513877
0.736361 0.573793 0.523843
0.813094 0.580312 0.533737
0.849362 0.583401 0.538427
0.272671 0.615674 0.480968
0.353764 0.622085 0.491152
0.433989 0.628444 0.501269
0.513346 0.634750 0.511318
0.591834 0.641003 0.521296
0.669453 0.647203 0.531204
0.746204 0.653349 0.541038
0.822087 0.659440 0.550797
0.857949 0.662324 0.555422
0.287468 0.696374 0.498695
0.367711 0.702365 0.508756
0.447085 0.708301 0.518748
0.525590 0.714181 0.528668
0.603227 0.720005 0.538516
0.679996 0.725773 0.548289
0.755896 0.731485 0.557986
0.830928 0.737139 0.567605
0.866385 0.739813 0.572162
0.302113 0.775684 0.516197
0.381505 0.781246 0.526131
0.460028 0.786750 0.535991
0.537683 0.792195 0.545778
0.614469 0.797581 0.555489
0.690386 0.802908 0.565122
0.765436 0.808175 0.574677
0.839616 0.813382 0.584150
0.874668 0.815843 0.588637
0.314343 0.841457 0.530772
0.393017 0.846649 0.540594
0.470823 0.851780 0.550340
0.547760 0.856851 0.560010
0.623829 0.861860 0.569601
0.699029 0.866808 0.579113
0.773361 0.871693 0.588543
0.846824 0.876516 0.597890
0.881534 0.878793 0.602315
0.198818 0.194650 0.443036
0.284041 0.203008 0.453655
0.368396 0.211329 0.464218
0.451883 0.219611 0.474722
0.534501 0.227854 0.485167
0.616250 0.236058 0.495551
0.697131 0.244222 0.505871
0.777144 0.252347 0.516127
0.814975 0.256205 0.520992
0.214352 0.281810 0.461560
0.298724 0.289795 0.472074
0.382228 0.297740 0.482530
0.464864 0.305642 0.492924
0.546631 0.313503 0.503255
0.627529 0.321322 0.513523
0.707559 0.329099 0.523724
0.786721 0.336833 0.533857
0.824147 0.340504 0.538663
0.229733 0.367706 0.479891
0.313255 0.375309 0.490295
0.395908 0.382867 0.500638
0.477692 0.390381 0.510916
0.558609 0.397850 0.521129
0.638656 0.405275 0.531275
0.717836 0.412654 0.541351
0.796146 0.419988 0.551357
0.833166 0.423467 0.556101
0.244963 0.452313 0.498019
0.327634 0.459522 0.508308
0.409436 0.466685 0.518533
0.490369 0.473801 0.528690
0.570435 0.480870 0.538779
0.649631 0.487890 0.548798
0.727960 0.494863 0.558745
0.805419 0.501787 0.568618
0.842034 0.505070 0.573297
0.260041 0.535604 0.515935
0.341860 0.542412 0.526104
0.422812 0.549170 0.536205
0.502894 0.555878 0.546236
0.582109 0.562536 0.556196
0.660454 0.569143 0.566082
0.737932 0.575699 0.575894
0.814541 0.582204 0.585629
0.850750 0.585286 0.590241
0.274966 0.617554 0.533629
0.355935 0.623951 0.543672
0.436035 0.630295 0.553645
0.515267 0.636586 0.563544
0.593631 0.642824 0.573369
0.671125 0.649008 0.583118
0.747752 0.655138 0.592789
0.823510 0.661214 0.602381
0.859313 0.664091 0.606924
0.289740 0.698139 0.551092
0.369858 0.704114 0.561004
0.449107 0.710035 0.570842
0.527488 0.715899 0.580605
0.605001 0.721708 0.590290
0.681645 0.727460 0.599896
0.757420 0.733155 0.609421
0.832327 0.738792 0.618864
0.867725 0.741459 0.623336
0.304362 0.777332 0.568313
0.383629 0.782877 0.578090
0.462027 0.788364 0.587789
0.539557 0.793793 0.597409
0.616219 0.799162 0.606949
0.692012 0.804472 0.616407
0.766936 0.809723 0.625781
0.840992 0.814913 0.635070
0.875984 0.817365 0.639467
0.316572 0.843003 0.582640
0.395121 0.848178 0.592297
0.472802 0.853293 0.601874
0.549615 0.858346 0.611371
0.625559 0.863338 0.620784
0.700634 0.868268 0.630113
0.774842 0.873136 0.639355
0.848180 0.877941 0.648510
0.882830 0.880209 0.652842
0.201227 0.197063 0.496731
0.286326 0.205411 0.507251
0.370556 0.213720 0.517709
0.453918 0.221991 0.528105
0.536412 0.230223 0.538436
0.618036 0.238415 0.548701
0.698793 0.246568 0.558899
0.778681 0.254681 0.569027
0.816453 0.258534 0.573830
0.216737 0.284121 0.515066
0.300985 0.292095 0.525472
0.384365 0.300027 0.535815
0.466876 0.307918 0.546092
0.548518 0.315767 0.556301
0.629292 0.323574 0.566441
0.709198 0.331338 0.576511
0.788235 0.339060 0.586509
0.825601 0.342725 0.591248
0.232096 0.369912 0.533192
0.315493 0.377502 0.543480
0.398021 0.385048 0.553701
0.479681 0.392549 0.563853
0.560473 0.400006 0.573935
0.640396 0.407418 0.583946
0.719450 0.414784 0.593882
0.797636 0.422104 0.603744
0.834597 0.425577 0.608417
0.247302 0.454411 0.551099
0.329848 0.461608 0.561263
0.411525 0.468757 0.571358
0.492334 0.475860 0.581380
0.572275 0.482915 0.591330
0.651347 0.489922 0.601205
0.729551 0.496880 0.611003
0.806886 0.503790 0.620724
0.843441 0.507067 0.625329
0.262356 0.537592 0.568778
0.344051 0.544386 0.578813
0.424878 0.551130 0.588776
0.504836 0.557824 0.598664
0.583925 0.564468 0.608475
0.662147 0.571061 0.618210
0.739499 0.577602 0.627864
0.815984 0.584092 0.637438
0.852133 0.587167 0.641972
0.277258 0.619430 0.586219
0.358102 0.625812 0.596120
0.438078 0.632141 0.605945
0.517185 0.638417 0.615693
0.595424 0.644640 0.625362
0.672794 0.650809 0.634950
0.749296 0.656924 0.644456
0.824929 0.662984 0.653877
0.860673 0.665854 0.658338
0.292008 0.699900 0.603413
0.372002 0.705860 0.613175
0.451126 0.711764 0.622857
0.529383 0.717613 0.632460
0.606770 0.723405 0.641980
0.683290 0.729141 0.651417
0.758941 0.734820 0.660768
0.833723 0.740442 0.670032
0.869061 0.743101 0.674417
0.306607 0.778975 0.620350
0.385749 0.784504 0.629967
0.464023 0.789974 0.639502
0.541428 0.795386 0.648954
0.617965 0.800739 0.658320
0.693633 0.806032 0.667600
0.768433 0.811265 0.676792
0.842365 0.816439 0.685893
0.877297 0.818883 0.690200
0.318797 0.844545 0.634424
0.397222 0.849703 0.643915
0.474778 0.854800 0.653321
0.551466 0.859836 0.662641
0.627285 0.864811 0.671874
0.702236 0.869723 0.681018
0.776319 0.874573 0.690071
0.849533 0.879361 0.699031
0.884124 0.881621 0.703269
0.203633 0.199473 0.550378
0.288607 0.207810 0.560795
0.372713 0.216108 0.571147
0.455950 0.224368 0.581431
0.538319 0.232589 0.591646
0.619819 0.240770 0.601791
0.700451 0.248911 0.611864
0.780214 0.257013 0.621862
0.817927 0.260860 0.626602
0.219120 0.286429 0.568519
0.303243 0.294390 0.578814
0.386498 0.302311 0.589041
0.468884 0.310190 0.599198
0.550402 0.318027 0.609283
0.631051 0.325822 0.619295
0.710832 0.333574 0.629231
0.789744 0.341283 0.639090
0.827051 0.344942 0.643762
0.234454 0.372115 0.586435
0.317727 0.379692 0.596604
0.400131 0.387225 0.606701
0.481666 0.394714 0.616725
0.562333 0.402158 0.626674
0.642131 0.409557 0.636547
0.721061 0.416910 0.646341
0.799123 0.424217 0.656056
0.836024 0.427684 0.660658
0.249637 0.456506 0.604116
0.332058 0.463689 0.614153
0.413611 0.470826 0.624115
0.494296 0.477915 0.634001
0.574112 0.484956 0.643809
0.653059 0.491949 0.653538
0.731138 0.498894 0.663185
0.808349 0.505790 0.672750
0.844844 0.509060 0.677280
0.264668 0.539577 0.621554
0.346238 0.546357 0.631453
0.426940 0.553087 0.641275
0.506774 0.559766 0.651017
0.585739 0.566396 0.660679
0.663835 0.572974 0.670258
0.741063 0.579501 0.679754
0.817423 0.585976 0.689163
0.853513 0.589044 0.693618
0.279547 0.621302 0.638738
0.360266 0.627669 0.648494
0.440117 0.633983 0.658170
0.519100 0.640244 0.667764
0.597214 0.646452 0.677274
0.674459 0.652605 0.686699
0.750836 0.658705 0.696037
0.826345 0.664750 0.705286
0.862030 0.667612 0.709663
0.294273 0.701656 0.655659
0.374142 0.707600 0.665267
0.453142 0.713489 0.674792
0.531274 0.719322 0.684232
0.608537 0.725098 0.693585
0.684931 0.730818 0.702850
0.760458 0.736481 0.712025
0.835115 0.742086 0.721108
0.870394 0.744738 0.725405
0.308848 0.780614 0.672307
0.387866 0.786126 0.681762
0.466015 0.791580 0.691130
0.543295 0.796975 0.700411
0.619708 0.802311 0.709602
0.695251 0.807587 0.718701
0.769927 0.812804 0.727708
0.843734 0.817960 0.736620
0.878607 0.820396 0.740834
0.321018 0.846082 0.686125
0.399319 0.851223 0.695446
0.476750 0.856303 0.704679
0.553313 0.861321 0.713821
0.629008 0.866278 0.722871
0.703835 0.871173 0.731827
0.777792 0.876006 0.740688
0.850882 0.880776 0.749452
0.885413 0.883027 0.753594
0.206035 0.201880 0.603974
0.290885 0.210206 0.614287
0.374866 0.218493 0.624529
0.457978 0.226742 0.634700
0.540222 0.234951 0.644797
0.621598 0.243121 0.654819
0.702105 0.251251 0.664764
0.781744 0.259341 0.674630
0.819397 0.263183 0.679305
0.221498 0.288733 0.621917
0.305497 0.296683 0.632099
0.388627 0.304592 0.642209
0.470889 0.312459 0.652243
0.552282 0.320284 0.662201
0.632807 0.328066 0.672081
0.712463 0.335806 0.681881
0.791251 0.343503 0.691600
0.828498 0.347156 0.696203
0.236810 0.374314 0.639619
0.319957 0.381879 0.649666
0.402236 0.389399 0.659637
0.483647 0.396875 0.669530
0.564189 0.404306 0.679344
0.643863 0.411692 0.689077
0.722668 0.419032 0.698727
0.800605 0.426326 0.708292
0.837447 0.429787 0.712821
0.251969 0.458597 0.657070
0.334265 0.465767 0.666977
0.415694 0.472890 0.676804
0.496254 0.479965 0.686551
0.575945 0.486993 0.696215
0.654768 0.493973 0.705795
0.732722 0.500904 0.715290
0.809808 0.507786 0.724697
0.846244 0.511049 0.729149
0.266976 0.541558 0.674262
0.348422 0.548323 0.684023
0.428999 0.555039 0.693701
0.508708 0.561704 0.703296
0.587548 0.568319 0.712805
0.665520 0.574883 0.722227
0.742624 0.581395 0.731561
0.818859 0.587856 0.740804
0.854889 0.590917 0.745178
0.281831 0.623170 0.691185
0.362426 0.629522 0.700794
0.442152 0.635821 0.710318
0.521010 0.642067 0.719755
0.599000 0.648259 0.729104
0.676121 0.654397 0.738363
0.752373 0.660482 0.747531
0.827757 0.666511 0.756605
0.863382 0.669366 0.760897
0.296534 0.703408 0.707828
0.376278 0.709337 0.717280
0.455154 0.715210 0.726645
0.533161 0.721027 0.735920
0.610299 0.726787 0.745103
0.686569 0.732491 0.754194
0.761971 0.738137 0.763190
0.836504 0.743726 0.772090
0.871724 0.746370 0.776298
0.311086 0.782247 0.724183
0.389979 0.787743 0.733473
0.468003 0.793181 0.742673
0.545159 0.798559 0.751780
0.621447 0.803878 0.760793
0.696866 0.809138 0.769710
0.771417 0.814337 0.778529
0.845099 0.819476 0.787249
0.879913 0.821904 0.791371
0.323236 0.847614 0.737741
0.401412 0.852738 0.746891
0.478719 0.857800 0.755947
0.555157 0.862802 0.764909
0.630728 0.867741 0.773773
0.705429 0.872619 0.782539
0.779262 0.877434 0.791206
0.852227 0.882186 0.799771
0.886699 0.884429 0.803817
