app/src/main/assets/luts/era_2000s.cube
TITLE "Generation Camera 2000s"
LUT_3D_SIZE 5
DOMAIN_MIN 0.0 0.0 0.0
DOMAIN_MAX 1.0 1.0 1.0
0.000001 0.000001 0.000001
0.238999 0.000001 0.000001
0.611958 0.000001 0.000001
0.934652 0.000001 0.000001
1.000000 0.000001 0.000001
0.000001 0.224803 0.000001
0.183430 0.197600 0.000001
0.546203 0.171507 0.000001
0.890996 0.146629 0.000001
1.000000 0.123068 0.000001
0.000001 0.579446 0.000001
0.132738 0.547174 0.000001
0.479936 0.514777 0.000001
0.841211 0.482365 0.000001
1.000000 0.450049 0.000001
0.000001 0.902772 0.000001
0.087801 0.879885 0.000001
0.414106 0.855586 0.000001
0.786265 0.829989 0.000001
1.000000 0.803206 0.000001
0.000001 1.000000 0.000001
0.049487 1.000000 0.000001
0.349658 1.000000 0.000001
0.727127 1.000000 0.000001
0.995193 1.000000 0.000001
0.000001 0.000001 0.302707
0.226984 0.000001 0.273038
0.598256 0.000001 0.244196
0.926051 0.000001 0.216287
1.000000 0.000001 0.189416
0.000001 0.213005 0.242919
0.172364 0.186266 0.215055
0.532315 0.160681 0.188233
0.881030 0.136356 0.162558
1.000000 0.113391 0.138135
0.000001 0.565626 0.187052
0.122806 0.533287 0.161431
0.466061 0.500870 0.137066
0.830082 0.468485 0.114059
1.000000 0.436245 0.092512
0.000001 0.893135 0.136001
0.079187 0.869628 0.113057
0.400443 0.844759 0.091578
0.774176 0.818639 0.071663
1.000000 0.791384 0.053414
0.000001 1.000000 0.090647
0.042372 1.000000 0.070805
0.336403 1.000000 0.052634
0.714282 1.000000 0.036235
0.989596 1.000000 0.021721
0.000001 0.000001 0.746234
0.215152 0.000001 0.716568
0.584498 0.000001 0.686171
0.917147 0.000001 0.655156
1.000000 0.000001 0.623636
0.000001 0.201401 0.684787
0.161520 0.175144 0.653747
0.518412 0.150087 0.622207
0.870803 0.126333 0.590279
1.000000 0.103983 0.558075
0.000001 0.551771 0.620777
0.113136 0.519385 0.588834
0.452213 0.486968 0.556621
0.818735 0.454633 0.524249
1.000000 0.422488 0.491829
0.000001 0.883226 0.555166
0.070873 0.859121 0.522789
0.386849 0.833702 0.490371
0.761912 0.807081 0.458021
1.000000 0.779373 0.425851
0.000001 1.000000 0.488912
0.035596 1.000000 0.456569
0.323258 1.000000 0.424409
0.701304 1.000000 0.392545
0.983619 1.000000 0.361086
0.000001 0.000001 1.000000
0.203512 0.000001 1.000000
0.570694 0.000001 1.000000
0.907949 0.000001 0.993030
1.000000 0.000001 0.979045
0.000001 0.189998 1.000000
0.150908 0.164244 0.992444
0.504505 0.139733 0.978368
0.860324 0.116568 0.962313
1.000000 0.094852 0.944391
0.000001 0.537891 0.977687
0.103736 0.505478 0.961546
0.438403 0.473082 0.943542
0.807178 0.440815 0.923790
1.000000 0.408786 0.902401
0.000001 0.873055 0.942690
0.062865 0.848373 0.922861
0.373333 0.822424 0.901401
0.749481 0.795323 0.878424
1.000000 0.767182 0.854041
0.000001 1.000000 0.900399
0.029166 1.000000 0.877356
0.310232 1.000000 0.852913
0.688202 1.000000 0.827184
0.977270 1.000000 0.800282
0.000001 0.000001 1.000000
0.195440 0.000001 1.000000
0.560956 0.000001 1.000000
0.901304 0.000001 1.000000
1.000000 0.000001 1.000000
0.000001 0.182100 1.000000
0.143583 0.156710 1.000000
0.494720 0.132594 1.000000
0.852803 0.109856 1.000000
1.000000 0.088597 1.000000
0.000001 0.528112 1.000000
0.097286 0.495693 1.000000
0.428711 0.463324 1.000000
0.798925 0.431117 1.000000
1.000000 0.399182 1.000000
0.000001 0.865745 1.000000
0.057419 0.840668 1.000000
0.363873 0.814360 1.000000
0.740639 0.786933 1.000000
1.000000 0.758501 1.000000
0.000001 1.000000 1.000000
0.024855 1.000000 1.000000
0.301142 1.000000 1.000000
0.678912 1.000000 1.000000
0.972585 1.000000 1.000000
