app/src/main/assets/luts/era_1920s.cube
TITLE "Generation Camera 1920s"
LUT_3D_SIZE 9
DOMAIN_MIN 0.0 0.0 0.0
DOMAIN_MAX 1.0 1.0 1.0
0.071470 0.067110 0.058420
0.090890 0.086285 0.077124
0.112062 0.107189 0.097515
0.134869 0.129707 0.119480
0.159193 0.153724 0.142908
0.184919 0.179125 0.167685
0.211929 0.205793 0.193699
0.240107 0.233615 0.220838
0.269336 0.262474 0.248989
0.116496 0.111567 0.101786
0.139616 0.134394 0.124053
0.164230 0.158697 0.147759
0.190222 0.184360 0.172792
0.217475 0.211269 0.199041
0.245873 0.239308 0.226391
0.275298 0.268361 0.254731
0.305634 0.298313 0.283948
0.336764 0.329050 0.313930
0.169322 0.163725 0.152663
0.195576 0.189646 0.177948
0.223067 0.216790 0.204426
0.251680 0.245041 0.231983
0.281296 0.274283 0.260508
0.311800 0.304401 0.289887
0.343075 0.335281 0.320008
0.375004 0.366806 0.350759
0.407470 0.398861 0.382028
0.228704 0.222355 0.209855
0.257526 0.250814 0.237614
0.287330 0.280240 0.266319
0.317997 0.310520 0.295855
0.349412 0.341538 0.326112
0.381458 0.373178 0.356975
0.414017 0.405326 0.388334
0.446974 0.437865 0.420075
0.480210 0.470682 0.452086
0.293398 0.286232 0.272163
0.324224 0.316668 0.301853
0.355775 0.347820 0.332239
0.387932 0.379571 0.363211
0.420581 0.411806 0.394655
0.453602 0.444410 0.426459
0.486881 0.477268 0.458510
0.520300 0.510264 0.490696
0.553742 0.543284 0.522905
0.362161 0.354126 0.338391
0.394427 0.385983 0.369466
0.427159 0.418301 0.400991
0.460241 0.450965 0.432853
0.493557 0.483860 0.464940
0.526990 0.516870 0.497140
0.560423 0.549880 0.529340
0.593739 0.582775 0.561427
0.626821 0.615439 0.593289
0.433751 0.424810 0.407340
0.466889 0.457529 0.439256
0.500238 0.490456 0.471375
0.533680 0.523476 0.503584
0.567099 0.556472 0.535770
0.600378 0.589330 0.567821
0.633399 0.621934 0.599625
0.666048 0.654169 0.631069
0.698205 0.685920 0.662041
0.506923 0.497057 0.477813
0.540370 0.530080 0.510026
0.573770 0.563058 0.542194
0.607006 0.595875 0.574205
0.639963 0.628414 0.605946
0.672522 0.660562 0.637305
0.704568 0.692202 0.668168
0.735983 0.723220 0.698425
0.766650 0.753500 0.727961
0.580434 0.569638 0.548613
0.613624 0.602408 0.580579
0.646510 0.634879 0.612252
0.678976 0.666934 0.643521
0.710905 0.698459 0.674272
0.742180 0.729339 0.704393
0.772684 0.759457 0.733772
0.802300 0.788699 0.762297
0.830913 0.816950 0.789854
0.086862 0.082308 0.073245
0.107693 0.102875 0.093307
0.130182 0.125080 0.114967
0.154212 0.148806 0.138111
0.179667 0.173939 0.162627
0.206430 0.200364 0.188403
0.234384 0.227964 0.215326
0.263412 0.256625 0.243283
0.293398 0.286232 0.272163
0.134869 0.129707 0.119480
0.159193 0.153724 0.142908
0.184919 0.179125 0.167685
0.211929 0.205793 0.193699
0.240107 0.233615 0.220838
0.269336 0.262474 0.248989
0.299500 0.292256 0.278040
0.330480 0.322845 0.307878
0.362161 0.354126 0.338391
0.190222 0.184360 0.172792
0.217475 0.211269 0.199041
0.245873 0.239308 0.226391
0.275298 0.268361 0.254731
0.305634 0.298313 0.283948
0.336764 0.329050 0.313930
0.368572 0.360455 0.344564
0.400939 0.392413 0.375738
0.433751 0.424810 0.407340
0.251680 0.245041 0.231983
0.281296 0.274283 0.260508
0.311800 0.304401 0.289887
0.343075 0.335281 0.320008
0.375004 0.366806 0.350759
0.407470 0.398861 0.382028
0.440356 0.431332 0.413701
0.473546 0.464102 0.445667
0.506923 0.497057 0.477813
0.317997 0.310520 0.295855
0.349412 0.341538 0.326112
0.381458 0.373178 0.356975
0.414017 0.405326 0.388334
0.446974 0.437865 0.420075
0.480210 0.470682 0.452086
0.513610 0.503660 0.484254
0.547057 0.536683 0.516467
0.580434 0.569638 0.548613
0.387932 0.379571 0.363211
0.420581 0.411806 0.394655
0.453602 0.444410 0.426459
0.486881 0.477268 0.458510
0.520300 0.510264 0.490696
0.553742 0.543284 0.522905
0.587091 0.576211 0.555024
0.620229 0.608930 0.586940
0.653041 0.641327 0.618542
0.460241 0.450965 0.432853
0.493557 0.483860 0.464940
0.526990 0.516870 0.497140
0.560423 0.549880 0.529340
0.593739 0.582775 0.561427
0.626821 0.615439 0.593289
0.659553 0.647757 0.624814
0.691819 0.679614 0.655889
0.723500 0.710895 0.686402
0.533680 0.523476 0.503584
0.567099 0.556472 0.535770
0.600378 0.589330 0.567821
0.633399 0.621934 0.599625
0.666048 0.654169 0.631069
0.698205 0.685920 0.662041
0.729756 0.717072 0.692427
0.760582 0.747508 0.722117
0.790568 0.777115 0.750997
0.607006 0.595875 0.574205
0.639963 0.628414 0.605946
0.672522 0.660562 0.637305
0.704568 0.692202 0.668168
0.735983 0.723220 0.698425
0.766650 0.753500 0.727961
0.796454 0.782926 0.756666
0.825276 0.811385 0.784425
0.853001 0.838759 0.811128
0.103391 0.098627 0.089163
0.125557 0.120513 0.110512
0.149289 0.143945 0.133369
0.174468 0.168806 0.157619
0.200979 0.194981 0.183152
0.228704 0.222355 0.209855
0.257526 0.250814 0.237614
0.287330 0.280240 0.266319
0.317997 0.310520 0.295855
0.154212 0.148806 0.138111
0.179667 0.173939 0.162627
0.206430 0.200364 0.188403
0.234384 0.227964 0.215326
0.263412 0.256625 0.243283
0.293398 0.286232 0.272163
0.324224 0.316668 0.301853
0.355775 0.347820 0.332239
0.387932 0.379571 0.363211
0.211929 0.205793 0.193699
0.240107 0.233615 0.220838
0.269336 0.262474 0.248989
0.299500 0.292256 0.278040
0.330480 0.322845 0.307878
0.362161 0.354126 0.338391
0.394427 0.385983 0.369466
0.427159 0.418301 0.400991
0.460241 0.450965 0.432853
0.275298 0.268361 0.254731
0.305634 0.298313 0.283948
0.336764 0.329050 0.313930
0.368572 0.360455 0.344564
0.400939 0.392413 0.375738
0.433751 0.424810 0.407340
0.466889 0.457529 0.439256
0.500238 0.490456 0.471375
0.533680 0.523476 0.503584
0.343075 0.335281 0.320008
0.375004 0.366806 0.350759
0.407470 0.398861 0.382028
0.440356 0.431332 0.413701
0.473546 0.464102 0.445667
0.506923 0.497057 0.477813
0.540370 0.530080 0.510026
0.573770 0.563058 0.542194
0.607006 0.595875 0.574205
0.414017 0.405326 0.388334
0.446974 0.437865 0.420075
0.480210 0.470682 0.452086
0.513610 0.503660 0.484254
0.547057 0.536683 0.516467
0.580434 0.569638 0.548613
0.613624 0.602408 0.580579
0.646510 0.634879 0.612252
0.678976 0.666934 0.643521
0.486881 0.477268 0.458510
0.520300 0.510264 0.490696
0.553742 0.543284 0.522905
0.587091 0.576211 0.555024
0.620229 0.608930 0.586940
0.653041 0.641327 0.618542
0.685408 0.673285 0.649716
0.717216 0.704690 0.680350
0.748346 0.735427 0.710332
0.560423 0.549880 0.529340
0.593739 0.582775 0.561427
0.626821 0.615439 0.593289
0.659553 0.647757 0.624814
0.691819 0.679614 0.655889
0.723500 0.710895 0.686402
0.754480 0.741484 0.716240
0.784644 0.771266 0.745291
0.813873 0.800125 0.773442
0.633399 0.621934 0.599625
0.666048 0.654169 0.631069
0.698205 0.685920 0.662041
0.729756 0.717072 0.692427
0.760582 0.747508 0.722117
0.790568 0.777115 0.750997
0.819596 0.805776 0.778954
0.847550 0.833376 0.805877
0.874313 0.859801 0.831653
0.120995 0.116009 0.106118
0.144423 0.139140 0.128682
0.169322 0.163725 0.152663
0.195576 0.189646 0.177948
0.223067 0.216790 0.204426
0.251680 0.245041 0.231983
0.281296 0.274283 0.260508
0.311800 0.304401 0.289887
0.343075 0.335281 0.320008
0.174468 0.168806 0.157619
0.200979 0.194981 0.183152
0.228704 0.222355 0.209855
0.257526 0.250814 0.237614
0.287330 0.280240 0.266319
0.317997 0.310520 0.295855
0.349412 0.341538 0.326112
0.381458 0.373178 0.356975
0.414017 0.405326 0.388334
0.234384 0.227964 0.215326
0.263412 0.256625 0.243283
0.293398 0.286232 0.272163
0.324224 0.316668 0.301853
0.355775 0.347820 0.332239
0.387932 0.379571 0.363211
0.420581 0.411806 0.394655
0.453602 0.444410 0.426459
0.486881 0.477268 0.458510
0.299500 0.292256 0.278040
0.330480 0.322845 0.307878
0.362161 0.354126 0.338391
0.394427 0.385983 0.369466
0.427159 0.418301 0.400991
0.460241 0.450965 0.432853
0.493557 0.483860 0.464940
0.526990 0.516870 0.497140
0.560423 0.549880 0.529340
0.368572 0.360455 0.344564
0.400939 0.392413 0.375738
0.433751 0.424810 0.407340
0.466889 0.457529 0.439256
0.500238 0.490456 0.471375
0.533680 0.523476 0.503584
0.567099 0.556472 0.535770
0.600378 0.589330 0.567821
0.633399 0.621934 0.599625
0.440356 0.431332 0.413701
0.473546 0.464102 0.445667
0.506923 0.497057 0.477813
0.540370 0.530080 0.510026
0.573770 0.563058 0.542194
0.607006 0.595875 0.574205
0.639963 0.628414 0.605946
0.672522 0.660562 0.637305
0.704568 0.692202 0.668168
0.513610 0.503660 0.484254
0.547057 0.536683 0.516467
0.580434 0.569638 0.548613
0.613624 0.602408 0.580579
0.646510 0.634879 0.612252
0.678976 0.666934 0.643521
0.710905 0.698459 0.674272
0.742180 0.729339 0.704393
0.772684 0.759457 0.733772
0.587091 0.576211 0.555024
0.620229 0.608930 0.586940
0.653041 0.641327 0.618542
0.685408 0.673285 0.649716
0.717216 0.704690 0.680350
0.748346 0.735427 0.710332
0.778682 0.765379 0.739549
0.808107 0.794432 0.767889
0.836505 0.822471 0.795239
0.659553 0.647757 0.624814
0.691819 0.679614 0.655889
0.723500 0.710895 0.686402
0.754480 0.741484 0.716240
0.784643 0.771265 0.745291
0.813873 0.800125 0.773442
0.842051 0.827947 0.800581
0.869061 0.854615 0.826595
0.894787 0.880016 0.851372
0.139616 0.134394 0.124053
0.164230 0.158697 0.147759
0.190222 0.184360 0.172792
0.217475 0.211269 0.199041
0.245873 0.239308 0.226391
0.275298 0.268361 0.254731
0.305634 0.298313 0.283948
0.336764 0.329050 0.313930
0.368572 0.360455 0.344564
0.195576 0.189646 0.177948
0.223067 0.216790 0.204426
0.251680 0.245041 0.231983
0.281296 0.274283 0.260508
0.311800 0.304401 0.289887
0.343075 0.335281 0.320008
0.375004 0.366806 0.350759
0.407470 0.398861 0.382028
0.440356 0.431332 0.413701
0.257526 0.250814 0.237614
0.287330 0.280240 0.266319
0.317997 0.310520 0.295855
0.349412 0.341538 0.326112
0.381458 0.373178 0.356975
0.414017 0.405326 0.388334
0.446974 0.437865 0.420075
0.480210 0.470682 0.452086
0.513610 0.503660 0.484254
0.324224 0.316668 0.301853
0.355775 0.347820 0.332239
0.387932 0.379571 0.363211
0.420581 0.411806 0.394655
0.453602 0.444410 0.426459
0.486881 0.477268 0.458510
0.520300 0.510264 0.490696
0.553742 0.543284 0.522905
0.587091 0.576211 0.555024
0.394427 0.385983 0.369466
0.427159 0.418301 0.400991
0.460241 0.450965 0.432853
0.493557 0.483860 0.464940
0.526990 0.516870 0.497140
0.560423 0.549880 0.529340
0.593739 0.582775 0.561427
0.626821 0.615439 0.593289
0.659553 0.647757 0.624814
0.466889 0.457529 0.439256
0.500238 0.490456 0.471375
0.533680 0.523476 0.503584
0.567099 0.556472 0.535770
0.600378 0.589330 0.567821
0.633399 0.621934 0.599625
0.666048 0.654169 0.631069
0.698205 0.685920 0.662041
0.729756 0.717072 0.692427
0.540370 0.530080 0.510026
0.573770 0.563058 0.542194
0.607006 0.595875 0.574205
0.639963 0.628414 0.605946
0.672522 0.660562 0.637305
0.704568 0.692202 0.668168
0.735983 0.723220 0.698425
0.766650 0.753500 0.727961
0.796454 0.782926 0.756666
0.613624 0.602408 0.580579
0.646510 0.634879 0.612252
0.678976 0.666934 0.643521
0.710905 0.698459 0.674272
0.742180 0.729339 0.704393
0.772684 0.759457 0.733772
0.802300 0.788699 0.762297
0.830913 0.816950 0.789854
0.858404 0.844094 0.816332
0.685408 0.673285 0.649716
0.717216 0.704690 0.680350
0.748346 0.735427 0.710332
0.778682 0.765379 0.739549
0.808107 0.794432 0.767889
0.836505 0.822471 0.795239
0.863758 0.849380 0.821488
0.889750 0.875043 0.846521
0.914364 0.899346 0.870227
0.159193 0.153724 0.142908
0.184919 0.179125 0.167685
0.211929 0.205793 0.193699
0.240107 0.233615 0.220838
0.269336 0.262474 0.248989
0.299500 0.292256 0.278040
0.330480 0.322845 0.307878
0.362161 0.354126 0.338391
0.394427 0.385983 0.369466
0.217475 0.211269 0.199041
0.245873 0.239308 0.226391
0.275298 0.268361 0.254731
0.305634 0.298313 0.283948
0.336764 0.329050 0.313930
0.368572 0.360455 0.344564
0.400939 0.392413 0.375738
0.433751 0.424810 0.407340
0.466889 0.457529 0.439256
0.281296 0.274283 0.260508
0.311800 0.304401 0.289887
0.343075 0.335281 0.320008
0.375004 0.366806 0.350759
0.407470 0.398861 0.382028
0.440356 0.431332 0.413701
0.473546 0.464102 0.445667
0.506923 0.497057 0.477813
0.540370 0.530080 0.510026
0.349412 0.341538 0.326112
0.381458 0.373178 0.356975
0.414017 0.405326 0.388334
0.446974 0.437865 0.420075
0.480210 0.470682 0.452086
0.513610 0.503660 0.484254
0.547057 0.536683 0.516467
0.580434 0.569638 0.548613
0.613624 0.602408 0.580579
0.420581 0.411806 0.394655
0.453602 0.444410 0.426459
0.486881 0.477268 0.458510
0.520300 0.510264 0.490696
0.553742 0.543284 0.522905
0.587091 0.576211 0.555024
0.620229 0.608930 0.586940
0.653041 0.641327 0.618542
0.685408 0.673285 0.649716
0.493557 0.483860 0.464940
0.526990 0.516870 0.497140
0.560423 0.549880 0.529340
0.593739 0.582775 0.561427
0.626821 0.615439 0.593289
0.659553 0.647757 0.624814
0.691819 0.679614 0.655889
0.723500 0.710895 0.686402
0.754480 0.741484 0.716240
0.567099 0.556472 0.535770
0.600378 0.589330 0.567821
0.633399 0.621934 0.599625
0.666048 0.654169 0.631069
0.698205 0.685920 0.662041
0.729756 0.717072 0.692427
0.760582 0.747508 0.722117
0.790568 0.777115 0.750997
0.819596 0.805776 0.778954
0.639963 0.628414 0.605946
0.672522 0.660562 0.637305
0.704568 0.692202 0.668168
0.735983 0.723220 0.698425
0.766650 0.753500 0.727961
0.796454 0.782926 0.756666
0.825276 0.811385 0.784425
0.853001 0.838759 0.811128
0.879512 0.864934 0.836661
0.710905 0.698459 0.674272
0.742180 0.729339 0.704393
0.772684 0.759457 0.733772
0.802300 0.788699 0.762297
0.830913 0.816950 0.789854
0.858404 0.844094 0.816332
0.884658 0.870015 0.841617
0.909557 0.894600 0.865598
0.932985 0.917731 0.888162
0.179667 0.173939 0.162627
0.206430 0.200364 0.188403
0.234384 0.227964 0.215326
0.263412 0.256625 0.243283
0.293398 0.286232 0.272163
0.324224 0.316668 0.301853
0.355775 0.347820 0.332239
0.387932 0.379571 0.363211
0.420581 0.411806 0.394655
0.240107 0.233615 0.220838
0.269336 0.262474 0.248989
0.299500 0.292256 0.278040
0.330480 0.322845 0.307878
0.362161 0.354126 0.338391
0.394427 0.385983 0.369466
0.427159 0.418301 0.400991
0.460241 0.450965 0.432853
0.493557 0.483860 0.464940
0.305634 0.298313 0.283948
0.336764 0.329050 0.313930
0.368572 0.360455 0.344564
0.400939 0.392413 0.375738
0.433751 0.424810 0.407340
0.466889 0.457529 0.439256
0.500238 0.490456 0.471375
0.533680 0.523476 0.503584
0.567099 0.556472 0.535770
0.375004 0.366806 0.350759
0.407470 0.398861 0.382028
0.440356 0.431332 0.413701
0.473546 0.464102 0.445667
0.506923 0.497057 0.477813
0.540370 0.530080 0.510026
0.573770 0.563058 0.542194
0.607006 0.595875 0.574205
0.639963 0.628414 0.605946
0.446974 0.437865 0.420075
0.480210 0.470682 0.452086
0.513610 0.503660 0.484254
0.547057 0.536683 0.516467
0.580434 0.569638 0.548613
0.613624 0.602408 0.580579
0.646510 0.634879 0.612252
0.678976 0.666934 0.643521
0.710905 0.698459 0.674272
0.520300 0.510264 0.490696
0.553742 0.543284 0.522905
0.587091 0.576211 0.555024
0.620229 0.608930 0.586940
0.653041 0.641327 0.618542
0.685408 0.673285 0.649716
0.717216 0.704690 0.680350
0.748346 0.735427 0.710332
0.778682 0.765379 0.739549
0.593739 0.582775 0.561427
0.626821 0.615439 0.593289
0.659553 0.647757 0.624814
0.691819 0.679614 0.655889
0.723500 0.710895 0.686402
0.754480 0.741484 0.716240
0.784644 0.771266 0.745291
0.813873 0.800125 0.773442
0.842051 0.827947 0.800581
0.666048 0.654169 0.631069
0.698205 0.685920 0.662041
0.729756 0.717072 0.692427
0.760582 0.747508 0.722117
0.790568 0.777115 0.750997
0.819596 0.805776 0.778954
0.847550 0.833376 0.805877
0.874313 0.859801 0.831653
0.899768 0.884934 0.856169
0.735983 0.723220 0.698425
0.766650 0.753500 0.727961
0.796454 0.782926 0.756666
0.825276 0.811385 0.784425
0.853001 0.838759 0.811128
0.879512 0.864934 0.836661
0.904691 0.889795 0.860911
0.928423 0.913227 0.883768
0.950589 0.935113 0.905117
0.200979 0.194981 0.183152
0.228704 0.222355 0.209855
0.257526 0.250814 0.237614
0.287330 0.280240 0.266319
0.317997 0.310520 0.295855
0.349412 0.341538 0.326112
0.381458 0.373178 0.356975
0.414017 0.405326 0.388334
0.446974 0.437865 0.420075
0.263412 0.256625 0.243283
0.293398 0.286232 0.272163
0.324224 0.316668 0.301853
0.355775 0.347820 0.332239
0.387932 0.379571 0.363211
0.420581 0.411806 0.394655
0.453602 0.444410 0.426459
0.486881 0.477268 0.458510
0.520300 0.510264 0.490696
0.330480 0.322845 0.307878
0.362161 0.354126 0.338391
0.394427 0.385983 0.369466
0.427159 0.418301 0.400991
0.460241 0.450965 0.432853
0.493557 0.483860 0.464940
0.526990 0.516870 0.497140
0.560423 0.549880 0.529340
0.593739 0.582775 0.561427
0.400939 0.392413 0.375738
0.433751 0.424810 0.407340
0.466889 0.457529 0.439256
0.500238 0.490456 0.471375
0.533680 0.523476 0.503584
0.567099 0.556472 0.535770
0.600378 0.589330 0.567821
0.633399 0.621934 0.599625
0.666048 0.654169 0.631069
0.473546 0.464102 0.445667
0.506923 0.497057 0.477813
0.540370 0.530080 0.510026
0.573770 0.563058 0.542194
0.607006 0.595875 0.574205
0.639963 0.628414 0.605946
0.672522 0.660562 0.637305
0.704568 0.692202 0.668168
0.735983 0.723220 0.698425
0.547057 0.536683 0.516467
0.580434 0.569638 0.548613
0.613624 0.602408 0.580579
0.646510 0.634879 0.612252
0.678976 0.666934 0.643521
0.710905 0.698459 0.674272
0.742180 0.729339 0.704393
0.772684 0.759457 0.733772
0.802300 0.788699 0.762297
0.620229 0.608930 0.586940
0.653041 0.641327 0.618542
0.685408 0.673285 0.649716
0.717216 0.704690 0.680350
0.748346 0.735427 0.710332
0.778682 0.765379 0.739549
0.808107 0.794432 0.767889
0.836505 0.822471 0.795239
0.863758 0.849380 0.821488
0.691819 0.679614 0.655889
0.723500 0.710895 0.686402
0.754480 0.741484 0.716240
0.784644 0.771266 0.745291
0.813873 0.800125 0.773442
0.842051 0.827947 0.800581
0.869061 0.854615 0.826595
0.894787 0.880016 0.851372
0.919111 0.904033 0.874800
0.760582 0.747508 0.722117
0.790568 0.777115 0.750997
0.819596 0.805776 0.778954
0.847550 0.833376 0.805877
0.874313 0.859801 0.831653
0.899768 0.884934 0.856169
0.923798 0.908660 0.879313
0.946287 0.930865 0.900973
0.967118 0.951432 0.921035
0.223067 0.216790 0.204426
0.251680 0.245041 0.231983
0.281296 0.274283 0.260508
0.311800 0.304401 0.289887
0.343075 0.335281 0.320008
0.375004 0.366806 0.350759
0.407470 0.398861 0.382028
0.440356 0.431332 0.413701
0.473546 0.464102 0.445667
0.287330 0.280240 0.266319
0.317997 0.310520 0.295855
0.349412 0.341538 0.326112
0.381458 0.373178 0.356975
0.414017 0.405326 0.388334
0.446974 0.437865 0.420075
0.480210 0.470682 0.452086
0.513610 0.503660 0.484254
0.547057 0.536683 0.516467
0.355775 0.347820 0.332239
0.387932 0.379571 0.363211
0.420581 0.411806 0.394655
0.453602 0.444410 0.426459
0.486881 0.477268 0.458510
0.520300 0.510264 0.490696
0.553742 0.543284 0.522905
0.587091 0.576211 0.555024
0.620229 0.608930 0.586940
0.427159 0.418301 0.400991
0.460241 0.450965 0.432853
0.493557 0.483860 0.464940
0.526990 0.516870 0.497140
0.560423 0.549880 0.529340
0.593739 0.582775 0.561427
0.626821 0.615439 0.593289
0.659553 0.647757 0.624814
0.691819 0.679614 0.655889
0.500238 0.490456 0.471375
0.533680 0.523476 0.503584
0.567099 0.556472 0.535770
0.600378 0.589330 0.567821
0.633399 0.621934 0.599625
0.666048 0.654169 0.631069
0.698205 0.685920 0.662041
0.729756 0.717072 0.692427
0.760582 0.747508 0.722117
0.573770 0.563058 0.542194
0.607006 0.595875 0.574205
0.639963 0.628414 0.605946
0.672522 0.660562 0.637305
0.704568 0.692202 0.668168
0.735983 0.723220 0.698425
0.766650 0.753500 0.727961
0.796454 0.782926 0.756666
0.825276 0.811385 0.784425
0.646510 0.634879 0.612252
0.678976 0.666934 0.643521
0.710905 0.698459 0.674272
0.742180 0.729339 0.704393
0.772684 0.759457 0.733772
0.802300 0.788699 0.762297
0.830913 0.816950 0.789854
0.858404 0.844094 0.816332
0.884658 0.870015 0.841617
0.717216 0.704690 0.680350
0.748346 0.735427 0.710332
0.778682 0.765379 0.739549
0.808107 0.794432 0.767889
0.836505 0.822471 0.795239
0.863758 0.849380 0.821488
0.889750 0.875043 0.846521
0.914364 0.899346 0.870227
0.937484 0.922173 0.892494
0.784643 0.771265 0.745291
0.813873 0.800125 0.773442
0.842051 0.827947 0.800581
0.869061 0.854615 0.826595
0.894787 0.880016 0.851372
0.919111 0.904033 0.874800
0.941918 0.926551 0.896765
0.963090 0.947455 0.917156
0.982510 0.966630 0.935860
