app/src/main/assets/luts/era_1900s.cube
TITLE "Generation Camera 1900s"
LUT_3D_SIZE 5
DOMAIN_MIN 0.0 0.0 0.0
DOMAIN_MAX 1.0 1.0 1.0
0.339949 0.283024 0.226124
0.346190 0.289325 0.231915
0.352430 0.295627 0.237707
0.358670 0.301928 0.243499
0.364910 0.308230 0.249291
0.383630 0.327134 0.266666
0.389870 0.333436 0.272458
0.396110 0.339737 0.278250
0.402350 0.346039 0.284041
0.408590 0.352341 0.289833
0.427310 0.371245 0.307209
0.433550 0.377547 0.313000
0.439790 0.383848 0.318792
0.446030 0.390150 0.324584
0.452270 0.396451 0.330376
0.470990 0.415356 0.347751
0.477230 0.421657 0.353543
0.483470 0.427959 0.359335
0.489710 0.434260 0.365126
0.495950 0.440562 0.370918
0.514670 0.459467 0.388294
0.520910 0.465768 0.394085
0.527150 0.472070 0.399877
0.533390 0.478371 0.405669
0.539630 0.484673 0.411461
0.414830 0.358642 0.295625
0.421070 0.364944 0.301417
0.427310 0.371245 0.307209
0.433550 0.377547 0.313000
0.439790 0.383848 0.318792
0.458510 0.402753 0.336167
0.464750 0.409054 0.341959
0.470990 0.415356 0.347751
0.477230 0.421657 0.353543
0.483470 0.427959 0.359335
0.502190 0.446864 0.376710
0.508430 0.453165 0.382502
0.514670 0.459467 0.388294
0.520910 0.465768 0.394085
0.527150 0.472070 0.399877
0.545870 0.490974 0.417252
0.552110 0.497276 0.423044
0.558350 0.503577 0.428836
0.564590 0.509879 0.434628
0.570830 0.516180 0.440420
0.589550 0.535085 0.457795
0.595790 0.541387 0.463587
0.602030 0.547688 0.469379
0.608270 0.553990 0.475170
0.614510 0.560291 0.480962
0.489710 0.434260 0.365126
0.495950 0.440562 0.370918
0.502190 0.446864 0.376710
0.508430 0.453165 0.382502
0.514670 0.459467 0.388294
0.533390 0.478371 0.405669
0.539630 0.484673 0.411461
0.545870 0.490974 0.417252
0.552110 0.497276 0.423044
0.558350 0.503577 0.428836
0.577070 0.522482 0.446211
0.583310 0.528783 0.452003
0.589550 0.535085 0.457795
0.595790 0.541387 0.463587
0.602030 0.547688 0.469379
0.620750 0.566593 0.486754
0.626990 0.572894 0.492546
0.633230 0.579196 0.498338
0.639470 0.585497 0.504129
0.645710 0.591799 0.509921
0.664430 0.610703 0.527296
0.670670 0.617005 0.533088
0.676910 0.623306 0.538880
0.683150 0.629608 0.544672
0.689390 0.635910 0.550464
0.564590 0.509879 0.434628
0.570830 0.516180 0.440420
0.577070 0.522482 0.446211
0.583310 0.528783 0.452003
0.589550 0.535085 0.457795
0.608270 0.553990 0.475170
0.614510 0.560291 0.480962
0.620750 0.566593 0.486754
0.626990 0.572894 0.492546
0.633230 0.579196 0.498338
0.651950 0.598100 0.515713
0.658190 0.604402 0.521505
0.664430 0.610703 0.527296
0.670670 0.617005 0.533088
0.676910 0.623306 0.538880
0.695630 0.642211 0.556255
0.701870 0.648513 0.562047
0.708110 0.654814 0.567839
0.714350 0.661116 0.573631
0.720590 0.667417 0.579423
0.739310 0.686322 0.596798
0.745550 0.692623 0.602590
0.751790 0.698925 0.608381
0.758030 0.705226 0.614173
0.764270 0.711528 0.619965
0.639470 0.585497 0.504129
0.645710 0.591799 0.509921
0.651950 0.598100 0.515713
0.658190 0.604402 0.521505
0.664430 0.610703 0.527296
0.683150 0.629608 0.544672
0.689390 0.635910 0.550464
0.695630 0.642211 0.556255
0.701870 0.648513 0.562047
0.708110 0.654814 0.567839
0.726830 0.673719 0.585214
0.733070 0.680020 0.591006
0.739310 0.686322 0.596798
0.745550 0.692623 0.602590
0.751790 0.698925 0.608381
0.770510 0.717829 0.625757
0.776750 0.724131 0.631549
0.782990 0.730433 0.637340
0.789230 0.736734 0.643132
0.795470 0.743036 0.648924
0.814190 0.761940 0.666299
0.820430 0.768242 0.672091
0.826670 0.774543 0.677883
0.832910 0.780845 0.683675
0.839150 0.787146 0.689466
