app/src/main/assets/luts/era_2010s.cube
TITLE "Generation Camera 2010s"
LUT_3D_SIZE 17
DOMAIN_MIN 0.0 0.0 0.0
DOMAIN_MAX 1.0 1.0 1.0
0.024529 0.024529 0.024529
0.082916 0.022680 0.022680
0.145649 0.020835 0.020835
0.212005 0.018997 0.018997
0.281262 0.017164 0.017164
0.352696 0.015337 0.015337
0.425584 0.013515 0.013515
0.499202 0.011700 0.011700
0.572829 0.009889 0.009889
0.645740 0.008085 0.008085
0.717213 0.006287 0.006287
0.786524 0.004494 0.004494
0.852951 0.002707 0.002707
0.915770 0.000926 0.000926
0.974259 0.000000 0.000000
1.000000 0.000000 0.000000
1.000000 0.000000 0.000000
0.020974 0.079835 0.020974
0.079059 0.077837 0.019135
0.141537 0.075843 0.017302
0.207684 0.073854 0.015474
0.276778 0.071870 0.013652
0.348094 0.069891 0.011836
0.420911 0.067917 0.010026
0.494505 0.065948 0.008221
0.568153 0.063984 0.006422
0.641131 0.062025 0.004629
0.712717 0.060070 0.002841
0.782188 0.058121 0.001060
0.848820 0.056177 0.000000
0.911890 0.054238 0.000000
0.970676 0.052305 0.000000
1.000000 0.050376 0.000000
1.000000 0.049056 0.000000
0.017440 0.139090 0.017440
0.075221 0.136964 0.015612
0.137440 0.134842 0.013789
0.203375 0.132725 0.011973
0.272303 0.130611 0.010162
0.343499 0.128502 0.008356
0.416242 0.126397 0.006557
0.489808 0.124296 0.004763
0.563474 0.122199 0.002976
0.636516 0.120107 0.001194
0.708212 0.118018 0.000000
0.777839 0.115935 0.000000
0.844674 0.113855 0.000000
0.907993 0.111780 0.000000
0.967073 0.109709 0.000000
1.000000 0.107643 0.000000
1.000000 0.106227 0.000000
0.013926 0.201675 0.013926
0.071400 0.199444 0.012109
0.133358 0.197215 0.010298
0.199078 0.194990 0.008492
0.267837 0.192769 0.006692
0.338910 0.190551 0.004898
0.411576 0.188336 0.003110
0.485111 0.186125 0.001328
0.558792 0.183917 0.000000
0.631896 0.181713 0.000000
0.703699 0.179512 0.000000
0.773480 0.177315 0.000000
0.840514 0.175122 0.000000
0.904078 0.172932 0.000000
0.963450 0.170746 0.000000
1.000000 0.168563 0.000000
1.000000 0.167067 0.000000
0.010434 0.266972 0.010434
0.067598 0.264657 0.008628
0.129292 0.262343 0.006828
0.194794 0.260033 0.005033
0.263380 0.257725 0.003244
0.334328 0.255420 0.001462
0.406914 0.253117 0.000000
0.480415 0.250817 0.000000
0.554108 0.248520 0.000000
0.627270 0.246226 0.000000
0.699178 0.243934 0.000000
0.769109 0.241645 0.000000
0.836339 0.239359 0.000000
0.900146 0.237076 0.000000
0.959807 0.234796 0.000000
1.000000 0.232519 0.000000
1.000000 0.230958 0.000000
0.006963 0.334363 0.006963
0.063813 0.331985 0.005168
0.125241 0.329608 0.003379
0.190522 0.327234 0.001596
0.258933 0.324861 0.000000
0.329752 0.322490 0.000000
0.402255 0.320121 0.000000
0.475719 0.317754 0.000000
0.549422 0.315389 0.000000
0.622639 0.313026 0.000000
0.694649 0.310665 0.000000
0.764727 0.308306 0.000000
0.832151 0.305950 0.000000
0.896198 0.303595 0.000000
0.956144 0.301242 0.000000
1.000000 0.298892 0.000000
1.000000 0.297280 0.000000
0.003513 0.403230 0.003513
0.060048 0.400811 0.001730
0.121205 0.398392 0.000000
0.186262 0.395975 0.000000
0.254496 0.393559 0.000000
0.325183 0.391144 0.000000
0.397600 0.388730 0.000000
0.471025 0.386318 0.000000
0.544734 0.383906 0.000000
0.618004 0.381496 0.000000
0.690112 0.379088 0.000000
0.760335 0.376680 0.000000
0.827949 0.374274 0.000000
0.892233 0.371869 0.000000
0.952462 0.369466 0.000000
1.000000 0.367064 0.000000
1.000000 0.365416 0.000000
0.000086 0.472954 0.000086
0.056301 0.470515 0.000000
0.117185 0.468076 0.000000
0.182016 0.465638 0.000000
0.250068 0.463200 0.000000
0.320621 0.460763 0.000000
0.392949 0.458326 0.000000
0.466332 0.455889 0.000000
0.540044 0.453453 0.000000
0.613364 0.451018 0.000000
0.685567 0.448583 0.000000
0.755932 0.446148 0.000000
0.823734 0.443714 0.000000
0.888251 0.441281 0.000000
0.948760 0.438848 0.000000
1.000000 0.436416 0.000000
1.000000 0.434748 0.000000
0.000000 0.542916 0.000000
0.052573 0.540480 0.000000
0.113182 0.538042 0.000000
0.177782 0.535605 0.000000
0.245651 0.533167 0.000000
0.316066 0.530729 0.000000
0.388303 0.528290 0.000000
0.461640 0.525851 0.000000
0.535353 0.523412 0.000000
0.608719 0.520972 0.000000
0.681015 0.518532 0.000000
0.751518 0.516092 0.000000
0.819505 0.513652 0.000000
0.884253 0.511212 0.000000
0.945039 0.508772 0.000000
1.000000 0.506331 0.000000
1.000000 0.504656 0.000000
0.000000 0.612500 0.000000
0.048865 0.610087 0.000000
0.109194 0.607672 0.000000
0.173562 0.605257 0.000000
0.241244 0.602840 0.000000
0.311518 0.600423 0.000000
0.383661 0.598004 0.000000
0.456949 0.595584 0.000000
0.530660 0.593163 0.000000
0.604069 0.590741 0.000000
0.676455 0.588318 0.000000
0.747094 0.585894 0.000000
0.815263 0.583470 0.000000
0.880239 0.581044 0.000000
0.941299 0.578618 0.000000
0.997719 0.576190 0.000000
1.000000 0.574524 0.000000
0.000000 0.681086 0.000000
0.045175 0.678718 0.000000
0.105223 0.676348 0.000000
0.169355 0.673976 0.000000
0.236848 0.671602 0.000000
0.306979 0.669227 0.000000
0.379024 0.666850 0.000000
0.452260 0.664470 0.000000
0.525966 0.662089 0.000000
0.599416 0.659707 0.000000
0.671889 0.657322 0.000000
0.742661 0.654936 0.000000
0.811009 0.652548 0.000000
0.876210 0.650159 0.000000
0.937540 0.647768 0.000000
0.994278 0.645375 0.000000
1.000000 0.643732 0.000000
0.000000 0.748056 0.000000
0.041505 0.745755 0.000000
0.101269 0.743451 0.000000
0.165162 0.741144 0.000000
0.232462 0.738835 0.000000
0.302446 0.736523 0.000000
0.374391 0.734209 0.000000
0.447574 0.731892 0.000000
0.521271 0.729572 0.000000
0.594759 0.727250 0.000000
0.667315 0.724926 0.000000
0.738217 0.722599 0.000000
0.806741 0.720270 0.000000
0.872164 0.717938 0.000000
0.933763 0.715604 0.000000
0.990814 0.713267 0.000000
1.000000 0.711662 0.000000
0.000000 0.812792 0.000000
0.037855 0.810579 0.000000
0.097331 0.808362 0.000000
0.160983 0.806143 0.000000
0.228088 0.803919 0.000000
0.297922 0.801693 0.000000
0.369764 0.799463 0.000000
0.442889 0.797230 0.000000
0.516575 0.794994 0.000000
0.590098 0.792754 0.000000
0.662735 0.790511 0.000000
0.733764 0.788265 0.000000
0.802461 0.786015 0.000000
0.868103 0.783763 0.000000
0.929967 0.781507 0.000000
0.987330 0.779249 0.000000
1.000000 0.777697 0.000000
0.000000 0.874675 0.000000
0.034225 0.872572 0.000000
0.093410 0.870465 0.000000
0.156818 0.868353 0.000000
0.223724 0.866238 0.000000
0.293406 0.864118 0.000000
0.365142 0.861994 0.000000
0.438206 0.859867 0.000000
0.511878 0.857735 0.000000
0.585433 0.855599 0.000000
0.658149 0.853459 0.000000
0.729301 0.851315 0.000000
0.798168 0.849168 0.000000
0.864027 0.847016 0.000000
0.926153 0.844860 0.000000
0.983824 0.842701 0.000000
1.000000 0.841217 0.000000
0.000000 0.933088 0.000000
0.030615 0.931116 0.000000
0.089506 0.929139 0.000000
0.152667 0.927158 0.000000
0.219372 0.925172 0.000000
0.288899 0.923180 0.000000
0.360525 0.921184 0.000000
0.433526 0.919183 0.000000
0.507181 0.917178 0.000000
0.580765 0.915167 0.000000
0.653555 0.913152 0.000000
0.724829 0.911132 0.000000
0.793864 0.909108 0.000000
0.859935 0.907079 0.000000
0.922320 0.905045 0.000000
0.980297 0.903006 0.000000
1.000000 0.901605 0.000000
0.000000 0.987411 0.000000
0.027025 0.985593 0.000000
0.085620 0.983768 0.000000
0.148530 0.981938 0.000000
0.215031 0.980103 0.000000
0.284400 0.978261 0.000000
0.355913 0.976415 0.000000
0.428849 0.974562 0.000000
0.502484 0.972704 0.000000
0.576094 0.970841 0.000000
0.648956 0.968972 0.000000
0.720348 0.967097 0.000000
0.789547 0.965218 0.000000
0.855828 0.963332 0.000000
0.918470 0.961442 0.000000
0.976749 0.959546 0.000000
1.000000 0.958241 0.000000
0.000000 1.000000 0.000000
0.023455 1.000000 0.000000
0.081751 1.000000 0.000000
0.144408 1.000000 0.000000
0.210701 1.000000 0.000000
0.279909 1.000000 0.000000
0.351308 1.000000 0.000000
0.424175 1.000000 0.000000
0.497786 1.000000 0.000000
0.571419 1.000000 0.000000
0.644351 1.000000 0.000000
0.715858 1.000000 0.000000
0.785218 1.000000 0.000000
0.851707 1.000000 0.000000
0.914602 1.000000 0.000000
0.973181 1.000000 0.000000
1.000000 1.000000 0.000000
0.023851 0.023851 0.081731
0.082181 0.022003 0.079728
0.144865 0.020161 0.077730
0.211182 0.018325 0.075736
0.280408 0.016494 0.073748
0.351820 0.014669 0.071764
0.424694 0.012849 0.069785
0.498308 0.011036 0.067811
0.571939 0.009228 0.065842
0.644863 0.007426 0.063878
0.716358 0.005629 0.061920
0.785700 0.003839 0.059966
0.852166 0.002054 0.058017
0.915033 0.000275 0.056073
0.973579 0.000000 0.054135
1.000000 0.000000 0.052201
1.000000 0.000000 0.050877
0.020300 0.079103 0.077880
0.078327 0.077106 0.075886
0.140756 0.075114 0.073897
0.206863 0.073127 0.071913
0.275925 0.071145 0.069934
0.347219 0.069167 0.067960
0.420022 0.067195 0.065990
0.493611 0.065228 0.064026
0.567262 0.063265 0.062067
0.640253 0.061308 0.060113
0.711860 0.059356 0.058163
0.781361 0.057409 0.056219
0.848032 0.055466 0.054280
0.911150 0.053529 0.052346
0.969992 0.051598 0.050418
1.000000 0.049671 0.048494
1.000000 0.048352 0.047177
0.016769 0.138311 0.074047
0.074492 0.136186 0.072062
0.136662 0.134066 0.070083
0.202556 0.131950 0.068108
0.271452 0.129838 0.066138
0.342625 0.127730 0.064174
0.415354 0.125627 0.062214
0.488914 0.123527 0.060260
0.562583 0.121432 0.058310
0.635637 0.119341 0.056365
0.707354 0.117255 0.054426
0.777011 0.115172 0.052492
0.843883 0.113094 0.050563
0.907249 0.111021 0.048639
0.966385 0.108952 0.046720
1.000000 0.106887 0.044807
1.000000 0.105472 0.043497
0.013260 0.200857 0.070232
0.070675 0.198627 0.068257
0.132583 0.196400 0.066287
0.198262 0.194176 0.064322
0.266988 0.191956 0.062361
0.338038 0.189739 0.060406
0.410688 0.187526 0.058457
0.484217 0.185316 0.056512
0.557901 0.183109 0.054572
0.631016 0.180907 0.052637
0.702840 0.178707 0.050708
0.772649 0.176511 0.048784
0.839720 0.174319 0.046865
0.903331 0.172131 0.044951
0.962758 0.169946 0.043042
1.000000 0.167764 0.041139
1.000000 0.166270 0.039836
0.009772 0.266124 0.066435
0.066876 0.263809 0.064469
0.128520 0.261497 0.062509
0.193980 0.259187 0.060553
0.262533 0.256880 0.058603
0.333456 0.254576 0.056658
0.406027 0.252274 0.054718
0.479521 0.249975 0.052783
0.553216 0.247679 0.050853
0.626389 0.245386 0.048928
0.698317 0.243095 0.047009
0.768276 0.240808 0.045095
0.835543 0.238523 0.043186
0.899396 0.236241 0.041282
0.959111 0.233961 0.039384
1.000000 0.231685 0.037491
1.000000 0.230125 0.036195
0.006305 0.333492 0.062656
0.063095 0.331114 0.060701
0.124471 0.328738 0.058750
0.189710 0.326364 0.056804
0.258088 0.323992 0.054864
0.328882 0.321622 0.052928
0.401369 0.319254 0.050998
0.474826 0.316888 0.049073
0.548530 0.314523 0.047153
0.621758 0.312161 0.045239
0.693786 0.309801 0.043329
0.763892 0.307443 0.041425
0.831353 0.305087 0.039527
0.895445 0.302733 0.037633
0.955445 0.300381 0.035745
1.000000 0.298031 0.033863
1.000000 0.296420 0.032574
0.002859 0.402343 0.058896
0.059333 0.399925 0.056950
0.120439 0.397507 0.055010
0.185453 0.395090 0.053074
0.253652 0.392674 0.051143
0.324314 0.390260 0.049218
0.396715 0.387846 0.047298
0.470132 0.385434 0.045383
0.543841 0.383023 0.043473
0.617121 0.380614 0.041568
0.689247 0.378205 0.039669
0.759498 0.375798 0.037775
0.827148 0.373393 0.035887
0.891476 0.370989 0.034004
0.951759 0.368586 0.032126
1.000000 0.366184 0.030254
1.000000 0.364537 0.028973
0.000000 0.472060 0.055156
0.055590 0.469622 0.053219
0.116422 0.467183 0.051288
0.181209 0.464745 0.049363
0.249227 0.462307 0.047442
0.319753 0.459870 0.045527
0.392065 0.457433 0.043616
0.465438 0.454997 0.041712
0.539151 0.452561 0.039812
0.612480 0.450126 0.037918
0.684701 0.447691 0.036029
0.755092 0.445256 0.034146
0.822930 0.442823 0.032268
0.887492 0.440390 0.030395
0.948053 0.437957 0.028528
1.000000 0.435526 0.026666
1.000000 0.433857 0.025392
0.000000 0.542024 0.051434
0.051866 0.539587 0.049507
0.112422 0.537150 0.047586
0.176978 0.534712 0.045671
0.244812 0.532274 0.043760
0.315200 0.529835 0.041855
0.387419 0.527396 0.039955
0.460747 0.524957 0.038060
0.534459 0.522518 0.036171
0.607834 0.520078 0.034287
0.680148 0.517639 0.032409
0.750677 0.515199 0.030536
0.818699 0.512758 0.028668
0.883491 0.510318 0.026806
0.944329 0.507878 0.024950
1.000000 0.505437 0.023099
1.000000 0.503762 0.021832
0.000000 0.611616 0.047731
0.048161 0.609203 0.045815
0.108437 0.606788 0.043904
0.172760 0.604372 0.041998
0.240407 0.601955 0.040098
0.310654 0.599537 0.038203
0.382778 0.597117 0.036313
0.456057 0.594697 0.034429
0.529766 0.592276 0.032550
0.603184 0.589854 0.030677
0.675587 0.587430 0.028809
0.746251 0.585006 0.026946
0.814455 0.582581 0.025089
0.879474 0.580155 0.023238
0.940585 0.577728 0.021392
0.997066 0.575301 0.019552
1.000000 0.573634 0.018292
0.000000 0.680219 0.044047
0.044475 0.677850 0.042141
0.104469 0.675479 0.040241
0.168556 0.673107 0.038345
0.236012 0.670732 0.036455
0.306115 0.668356 0.034571
0.378142 0.665978 0.032691
0.451368 0.663598 0.030817
0.525072 0.661217 0.028949
0.598530 0.658833 0.027086
0.671019 0.656448 0.025229
0.741816 0.654062 0.023377
0.810197 0.651673 0.021531
0.875441 0.649283 0.019690
0.936823 0.646891 0.017855
0.993620 0.644498 0.016026
1.000000 0.642855 0.014774
0.000000 0.747213 0.040383
0.040809 0.744911 0.038488
0.100518 0.742606 0.036597
0.164366 0.740299 0.034712
0.231629 0.737988 0.032833
0.301585 0.735676 0.030958
0.373510 0.733360 0.029090
0.446682 0.731042 0.027226
0.520377 0.728722 0.025369
0.593872 0.726399 0.023516
0.666444 0.724074 0.021670
0.737370 0.721746 0.019829
0.805927 0.719416 0.017993
0.871392 0.717083 0.016164
0.933042 0.714748 0.014339
0.990153 0.712411 0.012521
1.000000 0.710805 0.011276
0.000000 0.811981 0.036739
0.037163 0.809767 0.034854
0.096583 0.807550 0.032974
0.160189 0.805329 0.031099
0.227256 0.803104 0.029230
0.297062 0.800877 0.027366
0.368884 0.798645 0.025508
0.441998 0.796411 0.023656
0.515681 0.794173 0.021809
0.589210 0.791933 0.019967
0.661863 0.789688 0.018131
0.732915 0.787441 0.016301
0.801645 0.785191 0.014477
0.867328 0.782937 0.012658
0.929242 0.780680 0.010845
0.986664 0.778421 0.009037
1.000000 0.776868 0.007800
0.000000 0.873905 0.033115
0.033536 0.871801 0.031240
0.092666 0.869692 0.029371
0.156026 0.867579 0.027507
0.222895 0.865462 0.025648
0.292548 0.863341 0.023795
0.364262 0.861215 0.021947
0.437316 0.859086 0.020106
0.510984 0.856953 0.018269
0.584545 0.854816 0.016439
0.657275 0.852674 0.014614
0.728451 0.850529 0.012794
0.797350 0.848380 0.010981
0.863249 0.846227 0.009173
0.925425 0.844070 0.007371
0.983154 0.841909 0.005575
1.000000 0.840424 0.004346
0.000000 0.932366 0.029511
0.029930 0.930393 0.027647
0.088765 0.928414 0.025788
0.151878 0.926431 0.023934
0.218545 0.924443 0.022086
0.288042 0.922450 0.020244
0.359647 0.920452 0.018407
0.432636 0.918449 0.016576
0.506287 0.916442 0.014751
0.579876 0.914430 0.012931
0.652681 0.912413 0.011117
0.723977 0.910391 0.009309
0.793043 0.908365 0.007507
0.859155 0.906334 0.005710
0.921589 0.904298 0.003919
0.979623 0.902258 0.002134
1.000000 0.900856 0.000913
0.000000 0.986746 0.025927
0.026344 0.984925 0.024074
0.084882 0.983099 0.022225
0.147744 0.981267 0.020383
0.214206 0.979429 0.018545
0.283544 0.977586 0.016714
0.355036 0.975737 0.014888
0.427959 0.973882 0.013068
0.501590 0.972022 0.011254
0.575204 0.970157 0.009445
0.648080 0.968286 0.007642
0.719495 0.966409 0.005845
0.788724 0.964528 0.004054
0.855045 0.962640 0.002268
0.917736 0.960748 0.000489
0.976072 0.958850 0.000000
1.000000 0.957544 0.000000
0.000000 1.000000 0.022364
0.022778 1.000000 0.020521
0.081017 1.000000 0.018684
0.143625 1.000000 0.016852
0.209879 1.000000 0.015025
0.279055 1.000000 0.013205
0.350432 1.000000 0.011390
0.423285 1.000000 0.009581
0.496892 1.000000 0.007778
0.570529 1.000000 0.005980
0.643474 1.000000 0.004188
0.715003 1.000000 0.002403
0.784393 1.000000 0.000623
0.850921 1.000000 0.000000
0.913864 1.000000 0.000000
0.972499 1.000000 0.000000
1.000000 1.000000 0.000000
0.023174 0.023174 0.143124
0.081446 0.021328 0.140991
0.144082 0.019488 0.138862
0.210359 0.017654 0.136736
0.279554 0.015825 0.134615
0.350944 0.014002 0.132498
0.423805 0.012184 0.130385
0.497414 0.010373 0.128276
0.571049 0.008567 0.126171
0.643986 0.006767 0.124071
0.715503 0.004973 0.121974
0.784875 0.003184 0.119882
0.851380 0.001402 0.117795
0.914296 0.000000 0.115711
0.972897 0.000000 0.113632
1.000000 0.000000 0.111557
1.000000 0.000000 0.110136
0.019626 0.078371 0.139022
0.077596 0.076376 0.136896
0.139976 0.074385 0.134774
0.206043 0.072400 0.132657
0.275073 0.070420 0.130544
0.346345 0.068444 0.128434
0.419134 0.066474 0.126329
0.492717 0.064508 0.124229
0.566372 0.062548 0.122132
0.639375 0.060592 0.120040
0.711003 0.058642 0.117952
0.780534 0.056697 0.115868
0.847243 0.054756 0.113788
0.910409 0.052821 0.111713
0.969307 0.050891 0.109643
1.000000 0.048967 0.107577
1.000000 0.047649 0.106161
0.016100 0.137532 0.134934
0.073764 0.135409 0.132816
0.135885 0.133291 0.130703
0.201738 0.131176 0.128593
0.270602 0.129065 0.126488
0.341752 0.126959 0.124387
0.414465 0.124857 0.122290
0.488020 0.122759 0.120197
0.561692 0.120666 0.118109
0.634758 0.118576 0.116025
0.706496 0.116491 0.113945
0.776181 0.114411 0.111869
0.843092 0.112334 0.109798
0.906505 0.110262 0.107732
0.965696 0.108195 0.105670
1.000000 0.106132 0.103612
1.000000 0.104718 0.102203
0.012594 0.200040 0.130862
0.069950 0.197811 0.128752
0.131809 0.195585 0.126646
0.197446 0.193363 0.124545
0.266139 0.191144 0.122447
0.337165 0.188928 0.120354
0.409801 0.186716 0.118266
0.483323 0.184507 0.116181
0.557009 0.182302 0.114101
0.630136 0.180100 0.112026
0.701979 0.177902 0.109954
0.771817 0.175708 0.107887
0.838926 0.173517 0.105825
0.902584 0.171330 0.103767
0.962066 0.169146 0.101713
1.000000 0.166966 0.099664
1.000000 0.165472 0.098261
0.009110 0.265275 0.126804
0.066155 0.262962 0.124703
0.127748 0.260650 0.122605
0.193166 0.258342 0.120512
0.261686 0.256036 0.118423
0.332585 0.253733 0.116338
0.405140 0.251432 0.114258
0.478627 0.249134 0.112182
0.552324 0.246839 0.110110
0.625508 0.244547 0.108043
0.697455 0.242257 0.105980
0.767442 0.239970 0.103922
0.834747 0.237686 0.101868
0.898645 0.235405 0.099819
0.958415 0.233127 0.097774
1.000000 0.230852 0.095734
1.000000 0.229293 0.094336
0.005647 0.332621 0.122763
0.062378 0.330244 0.120669
0.123703 0.327869 0.118580
0.188899 0.325495 0.116495
0.257243 0.323124 0.114414
0.328012 0.320754 0.112338
0.400483 0.318387 0.110266
0.473932 0.316021 0.108198
0.547638 0.313658 0.106135
0.620875 0.311296 0.104076
0.692923 0.308937 0.102022
0.763057 0.306579 0.099973
0.830553 0.304224 0.097928
0.894691 0.301871 0.095887
0.954745 0.299520 0.093851
1.000000 0.297171 0.091820
1.000000 0.295560 0.090428
0.002206 0.401457 0.118737
0.058619 0.399039 0.116652
0.119673 0.396621 0.114571
0.184644 0.394205 0.112494
0.252809 0.391790 0.110422
0.323445 0.389376 0.108354
0.395829 0.386963 0.106290
0.469238 0.384551 0.104231
0.542949 0.382141 0.102177
0.616238 0.379731 0.100127
0.688383 0.377324 0.098081
0.758660 0.374917 0.096040
0.826346 0.372512 0.094004
0.890719 0.370108 0.091972
0.951055 0.367706 0.089945
1.000000 0.365305 0.087923
1.000000 0.363658 0.086538
0.000000 0.471167 0.114727
0.054880 0.468728 0.112650
0.115660 0.466290 0.110578
0.180403 0.463852 0.108509
0.248386 0.461415 0.106446
0.318886 0.458977 0.104386
0.391180 0.456541 0.102331
0.464545 0.454105 0.100281
0.538258 0.451669 0.098235
0.611596 0.449234 0.096194
0.683835 0.446799 0.094157
0.754253 0.444365 0.092125
0.822126 0.441931 0.090098
0.886731 0.439499 0.088075
0.947346 0.437066 0.086057
1.000000 0.434635 0.084044
1.000000 0.432967 0.082665
0.000000 0.541131 0.110733
0.051159 0.538694 0.108665
0.111662 0.536257 0.106601
0.176174 0.533819 0.104541
0.243972 0.531380 0.102486
0.314334 0.528942 0.100435
0.386536 0.526503 0.098389
0.459854 0.524064 0.096347
0.533566 0.521624 0.094310
0.606949 0.519185 0.092278
0.679280 0.516745 0.090250
0.749836 0.514305 0.088227
0.817892 0.511864 0.086209
0.882727 0.509424 0.084195
0.943618 0.506984 0.082186
0.999840 0.504543 0.080182
1.000000 0.502868 0.078809
0.000000 0.610732 0.106756
0.047458 0.608318 0.104696
0.107681 0.605903 0.102640
0.171959 0.603487 0.100589
0.239570 0.601069 0.098543
0.309789 0.598651 0.096501
0.381895 0.596231 0.094464
0.455164 0.593810 0.092431
0.528873 0.591389 0.090403
0.602299 0.588966 0.088379
0.674718 0.586543 0.086361
0.745408 0.584118 0.084347
0.813645 0.581693 0.082337
0.878707 0.579266 0.080333
0.939870 0.576839 0.078333
0.996412 0.574411 0.076338
1.000000 0.572745 0.074972
0.000000 0.679351 0.102795
0.043776 0.676982 0.100744
0.103716 0.674610 0.098697
0.167757 0.672237 0.096655
0.235177 0.669862 0.094617
0.305253 0.667485 0.092584
0.377260 0.665107 0.090555
0.450476 0.662726 0.088532
0.524179 0.660344 0.086512
0.597644 0.657960 0.084498
0.670149 0.655574 0.082488
0.740970 0.653187 0.080484
0.809386 0.650798 0.078483
0.874671 0.648407 0.076488
0.936105 0.646015 0.074498
0.992962 0.643621 0.072512
1.000000 0.641977 0.071152
0.000000 0.746370 0.098851
0.040114 0.744067 0.096808
0.099768 0.741761 0.094770
0.163570 0.739453 0.092737
0.230796 0.737141 0.090708
0.300723 0.734828 0.088684
0.372629 0.732512 0.086664
0.445790 0.730193 0.084650
0.519483 0.727871 0.082640
0.592985 0.725548 0.080634
0.665573 0.723221 0.078634
0.736523 0.720893 0.076638
0.805113 0.718561 0.074647
0.870620 0.716228 0.072662
0.932320 0.713892 0.070681
0.989490 0.711554 0.068704
1.000000 0.709948 0.067351
0.000000 0.811171 0.094923
0.036471 0.808955 0.092890
0.095837 0.806736 0.090860
0.159396 0.804514 0.088836
0.226425 0.802289 0.086816
0.296202 0.800060 0.084801
0.368004 0.797827 0.082791
0.441106 0.795592 0.080785
0.514787 0.793353 0.078784
0.588323 0.791111 0.076788
0.660990 0.788866 0.074797
0.732066 0.786617 0.072811
0.800828 0.784366 0.070830
0.866553 0.782111 0.068853
0.928517 0.779853 0.066882
0.985998 0.777592 0.064915
1.000000 0.776039 0.063568
0.000000 0.873135 0.091013
0.032848 0.871029 0.088988
0.091922 0.868918 0.086968
0.155236 0.866804 0.084953
0.222066 0.864685 0.082942
0.291690 0.862563 0.080936
0.363384 0.860436 0.078935
0.436425 0.858305 0.076938
0.510090 0.856170 0.074947
0.583657 0.854032 0.072960
0.656401 0.851889 0.070979
0.727600 0.849742 0.069002
0.796531 0.847592 0.067030
0.862471 0.845437 0.065063
0.924696 0.843279 0.063101
0.982484 0.841117 0.061144
1.000000 0.839631 0.059804
0.000000 0.931644 0.087120
0.029246 0.929668 0.085104
0.088025 0.927688 0.083093
0.151090 0.925703 0.081087
0.217718 0.923713 0.079085
0.287185 0.921718 0.077089
0.358769 0.919719 0.075097
0.431746 0.917714 0.073110
0.505393 0.915705 0.071128
0.578987 0.913691 0.069150
0.651806 0.911673 0.067178
0.723125 0.909649 0.065211
0.792222 0.907622 0.063248
0.858374 0.905589 0.061291
0.920857 0.903552 0.059339
0.978949 0.901510 0.057392
1.000000 0.900106 0.056058
0.000000 0.986079 0.083244
0.025664 0.984257 0.081238
0.084145 0.982428 0.079236
0.146959 0.980594 0.077239
0.213381 0.978754 0.075246
0.282689 0.976909 0.073259
0.354160 0.975058 0.071277
0.427069 0.973202 0.069299
0.500695 0.971340 0.067326
0.574315 0.969472 0.065359
0.647204 0.967599 0.063396
0.718640 0.965721 0.061438
0.787901 0.963837 0.059486
0.854261 0.961948 0.057538
0.917000 0.960053 0.055596
0.975393 0.958153 0.053658
1.000000 0.956846 0.052332
0.000000 1.000000 0.079386
0.022102 1.000000 0.077389
0.080283 1.000000 0.075396
0.142843 1.000000 0.073409
0.209057 1.000000 0.071426
0.278202 1.000000 0.069448
0.349556 1.000000 0.067475
0.422396 1.000000 0.065507
0.495998 1.000000 0.063544
0.569639 1.000000 0.061586
0.642597 1.000000 0.059633
0.714147 1.000000 0.057685
0.783567 1.000000 0.055742
0.850135 1.000000 0.053804
0.913126 1.000000 0.051871
0.971817 1.000000 0.049944
1.000000 1.000000 0.048624
0.022497 0.022497 0.208028
0.080712 0.020653 0.205787
0.143299 0.018815 0.203550
0.209537 0.016983 0.201316
0.278701 0.015156 0.199085
0.350068 0.013335 0.196857
0.422915 0.011520 0.194633
0.496520 0.009711 0.192412
0.570159 0.007907 0.190194
0.643109 0.006109 0.187980
0.714647 0.004317 0.185769
0.784050 0.002531 0.183562
0.850594 0.000750 0.181359
0.913557 0.000000 0.179158
0.972216 0.000000 0.176962
1.000000 0.000000 0.174769
1.000000 0.000000 0.173266
0.018953 0.077639 0.203718
