app/src/main/assets/luts/era_1960s.cube
TITLE "Generation Camera 1960s"
LUT_3D_SIZE 17
DOMAIN_MIN 0.0 0.0 0.0
DOMAIN_MAX 1.0 1.0 1.0
0.000001 0.000000 0.000000
0.047995 0.002359 0.002089
0.112010 0.005522 0.004890
0.188030 0.009305 0.008239
0.273211 0.013578 0.012022
0.364797 0.018214 0.016127
0.460066 0.023083 0.020439
0.556341 0.028055 0.024840
0.651011 0.032995 0.029214
0.741538 0.037767 0.033439
0.825467 0.042235 0.037396
0.900418 0.046262 0.040961
0.964077 0.049710 0.044014
1.000000 0.051668 0.045747
1.000000 0.051668 0.045747
1.000000 0.051668 0.045747
1.000000 0.051668 0.045747
0.004084 0.040742 0.003472
0.046846 0.040205 0.005127
0.109232 0.040672 0.007655
0.183871 0.041805 0.010746
0.267920 0.043477 0.014283
0.358631 0.045567 0.018155
0.453289 0.047950 0.022246
0.549224 0.050496 0.026442
0.643821 0.053077 0.030623
0.734542 0.055558 0.034670
0.818924 0.057805 0.038462
0.894579 0.059683 0.041877
0.959187 0.061054 0.044795
1.000000 0.061214 0.046586
1.000000 0.059216 0.046410
1.000000 0.058655 0.046361
1.000000 0.058655 0.046361
0.009461 0.094109 0.008042
0.047286 0.092696 0.009441
0.108113 0.092413 0.011863
0.181394 0.092781 0.014857
0.264279 0.093678 0.018306
0.354032 0.094985 0.022100
0.447949 0.096582 0.026123
0.543369 0.098343 0.030258
0.637685 0.100143 0.034389
0.728364 0.101851 0.038395
0.812949 0.103337 0.042155
0.889058 0.104469 0.045548
0.954376 0.105112 0.048452
1.000000 0.104779 0.050424
1.000000 0.102074 0.050185
1.000000 0.101307 0.050117
1.000000 0.101307 0.050117
0.015849 0.157087 0.013472
0.048876 0.154920 0.014627
0.108082 0.153984 0.016951
0.179930 0.153681 0.019857
0.261563 0.153893 0.023228
0.350257 0.154505 0.026952
0.443323 0.155403 0.030914
0.538110 0.156467 0.034999
0.632024 0.157576 0.039088
0.722539 0.158605 0.043063
0.807209 0.159430 0.046802
0.883658 0.159922 0.050183
0.949581 0.159954 0.053086
1.000000 0.159256 0.055255
1.000000 0.156016 0.054967
1.000000 0.155096 0.054885
1.000000 0.155096 0.054885
0.023071 0.227725 0.019610
0.051460 0.224923 0.020537
0.108993 0.223422 0.022769
0.179347 0.222530 0.025594
0.259655 0.222135 0.028893
0.347207 0.222128 0.032554
0.439329 0.222399 0.036463
0.533385 0.222835 0.040505
0.626793 0.223321 0.044560
0.717040 0.223739 0.048511
0.801689 0.223971 0.052236
0.878378 0.223894 0.055613
0.944811 0.223388 0.058522
0.998743 0.222329 0.060840
1.000000 0.218725 0.060573
1.000000 0.217681 0.060479
1.000000 0.217681 0.060479
0.030957 0.304157 0.026313
0.054882 0.300837 0.027023
0.110703 0.298861 0.029171
0.179518 0.297465 0.031922
0.258443 0.296542 0.035157
0.344786 0.295991 0.038763
0.435889 0.295708 0.042626
0.529132 0.295585 0.046631
0.621948 0.295516 0.050660
0.711837 0.295390 0.054593
0.796376 0.295095 0.058311
0.873215 0.294518 0.061691
0.940074 0.293545 0.064613
0.994721 0.292059 0.066954
1.000000 0.288313 0.066854
1.000000 0.287175 0.066750
1.000000 0.287175 0.066750
0.039335 0.384532 0.033435
0.058985 0.380817 0.033942
0.113063 0.378457 0.036012
0.180307 0.376644 0.038697
0.257810 0.375276 0.041874
0.342893 0.374259 0.045432
0.432919 0.373496 0.049256
0.525284 0.372888 0.053232
0.617438 0.372334 0.057241
0.706896 0.371733 0.061165
0.791250 0.370980 0.064882
0.868164 0.369972 0.068273
0.935373 0.368601 0.071215
0.990666 0.366761 0.073585
1.000000 0.362951 0.073666
1.000000 0.361748 0.073555
1.000000 0.361748 0.073555
0.048030 0.467027 0.040826
0.063606 0.463041 0.041146
0.115919 0.460390 0.043144
0.181574 0.458248 0.045770
0.257629 0.456520 0.048897
0.341419 0.455119 0.052414
0.430327 0.453954 0.056207
0.521767 0.452935 0.060160
0.613206 0.451970 0.064157
0.702177 0.450965 0.068079
0.786285 0.449826 0.071804
0.863213 0.448456 0.075212
0.930711 0.446760 0.078180
0.986587 0.444639 0.080588
1.000000 0.440835 0.080862
1.000000 0.439595 0.080747
1.000000 0.439595 0.080747
0.056867 0.549858 0.048337
0.068578 0.545724 0.048483
0.119110 0.542876 0.050417
0.183172 0.540496 0.052991
0.257767 0.538496 0.056075
0.340248 0.536793 0.059559
0.428014 0.535307 0.063328
0.518500 0.533956 0.067267
0.609190 0.532655 0.071259
0.697633 0.531321 0.075185
0.781452 0.529869 0.078925
0.858346 0.528211 0.082358
0.926084 0.526262 0.085361
0.982491 0.523934 0.087814
1.000000 0.520200 0.088294
1.000000 0.518950 0.088177
1.000000 0.518950 0.088177
0.065664 0.631292 0.055814
0.073732 0.627131 0.055802
0.122469 0.624182 0.057678
0.184946 0.621658 0.060208
0.258086 0.619473 0.063258
0.339256 0.617556 0.066715
0.425874 0.615833 0.070468
0.515395 0.614231 0.074400
0.605319 0.612675 0.078395
0.693212 0.611089 0.082333
0.776715 0.609398 0.086096
0.853544 0.607527 0.089560
0.921484 0.605399 0.092606
0.978382 0.602936 0.095111
1.000000 0.599332 0.095811
1.000000 0.598098 0.095693
1.000000 0.598098 0.095693
0.074241 0.709666 0.063105
0.078902 0.705597 0.062951
0.125824 0.702643 0.064774
0.186734 0.700067 0.067267
0.258439 0.697790 0.070289
0.338313 0.695748 0.073729
0.423795 0.693876 0.077473
0.512356 0.692107 0.081406
0.601515 0.690377 0.085411
0.688855 0.688620 0.089369
0.772032 0.686770 0.093161
0.848778 0.684762 0.096666
0.916900 0.682530 0.099761
0.974259 0.680008 0.102326
1.000000 0.676585 0.103260
1.000000 0.675393 0.103144
1.000000 0.675393 0.103144
0.082415 0.783391 0.070053
0.083941 0.779528 0.069774
0.128997 0.776664 0.071549
0.188372 0.774132 0.074012
0.258672 0.771857 0.077016
0.337281 0.769783 0.080445
0.421654 0.767851 0.084188
0.509280 0.766006 0.088129
0.597694 0.764189 0.092152
0.684495 0.762345 0.096139
0.767353 0.760418 0.099968
0.844019 0.758353 0.103520
0.912314 0.756095 0.106673
0.970121 0.753588 0.109304
1.000000 0.750394 0.110485
1.000000 0.749269 0.110374
1.000000 0.749269 0.110374
0.090001 0.850957 0.076501
0.089602 0.847425 0.076162
0.131807 0.844729 0.077847
0.189687 0.842337 0.080289
0.258628 0.840161 0.083281
0.336018 0.838151 0.086708
0.419327 0.836256 0.090457
0.506060 0.834427 0.094414
0.593767 0.832616 0.098463
0.680060 0.830775 0.102485
0.762626 0.828858 0.106360
0.839229 0.826819 0.109967
0.907706 0.824615 0.113185
0.965958 0.822200 0.115891
1.000000 0.819283 0.117332
1.000000 0.818245 0.117228
1.000000 0.818245 0.117228
0.096817 0.910927 0.082294
0.096465 0.907849 0.081995
0.134068 0.905394 0.083511
0.190503 0.903242 0.085940
0.258143 0.901265 0.088928
0.334374 0.899419 0.092360
0.416680 0.897661 0.096124
0.502579 0.895948 0.100105
0.589635 0.894240 0.104187
0.675472 0.892498 0.108252
0.757789 0.890683 0.112180
0.834364 0.888761 0.115850
0.903049 0.886696 0.119141
0.961760 0.884454 0.121930
1.000000 0.881859 0.123644
1.000000 0.880932 0.123550
1.000000 0.880932 0.123550
0.102676 0.961926 0.087275
0.102382 0.959377 0.087025
0.135594 0.957278 0.088385
0.190641 0.955468 0.090808
0.257048 0.953794 0.093800
0.332195 0.952219 0.097245
0.413575 0.950704 0.101031
0.498717 0.949214 0.105044
0.585195 0.947715 0.109168
0.670646 0.946174 0.113284
0.752778 0.944562 0.117272
0.829379 0.942852 0.121013
0.898313 0.941017 0.124384
0.957510 0.939034 0.127264
1.000000 0.936812 0.129264
1.000000 0.936014 0.129182
1.000000 0.936014 0.129182
0.105660 0.987699 0.089811
0.105660 0.987699 0.089811
0.134955 0.988071 0.091227
0.188966 0.988750 0.093851
0.254494 0.989558 0.097058
0.328894 0.990456 0.100730
0.409654 0.991406 0.104756
0.494308 0.992374 0.109021
0.580339 0.991742 0.113248
0.665492 0.990516 0.117423
0.747519 0.989215 0.121480
0.824217 0.987822 0.125299
0.893460 0.986316 0.128758
0.953189 0.984684 0.131736
1.000000 0.982893 0.134035
1.000000 0.982244 0.133968
1.000000 0.982244 0.133968
0.105660 0.987699 0.089811
0.105660 0.987699 0.089811
0.132211 0.988037 0.091094
0.185454 0.988706 0.093680
0.250382 0.989508 0.096856
0.324331 0.990402 0.100504
0.404787 0.991350 0.104512
0.489280 0.992317 0.108766
0.575383 0.993272 0.113151
0.660733 0.994187 0.117547
0.743043 0.995038 0.121837
0.820108 0.995807 0.125898
0.889802 0.996477 0.129610
0.950074 0.997038 0.132851
0.998925 0.997478 0.135500
1.000000 0.997488 0.135558
1.000000 0.997488 0.135558
0.000691 0.000664 0.030718
0.047830 0.002936 0.030574
0.111578 0.006043 0.031201
0.187370 0.009772 0.032410
0.272365 0.013994 0.034089
0.363807 0.018582 0.036124
0.458976 0.023405 0.038403
0.555195 0.028333 0.040810
0.649854 0.033232 0.043228
0.740414 0.037966 0.045540
0.824418 0.042399 0.047626
0.899484 0.046394 0.049369
0.963299 0.049812 0.050649
1.000000 0.051775 0.050693
1.000000 0.051739 0.049025
1.000000 0.051729 0.048560
1.000000 0.051729 0.048560
0.004612 0.040557 0.030217
0.046551 0.039950 0.029701
0.108678 0.040376 0.030116
0.183100 0.041470 0.031128
0.266974 0.043106 0.032625
0.357553 0.045163 0.034493
0.452124 0.047515 0.036621
0.548015 0.050034 0.038892
0.642613 0.052589 0.041192
0.733376 0.055049 0.043403
0.817842 0.057277 0.045408
0.893621 0.059138 0.047089
0.958389 0.060497 0.048331
1.000000 0.060681 0.048547
1.000000 0.058666 0.046859
1.000000 0.058101 0.046415
1.000000 0.058101 0.046415
0.009886 0.093660 0.030971
0.046916 0.092180 0.030259
0.107489 0.091857 0.030630
0.180559 0.092187 0.031611
0.263276 0.093049 0.033085
0.352904 0.094323 0.034944
0.446740 0.095890 0.037073
0.542122 0.097624 0.039360
0.636444 0.099399 0.041688
0.727171 0.101086 0.043944
0.811845 0.102553 0.046011
0.888082 0.103668 0.047779
0.953563 0.104298 0.049150
1.000000 0.104003 0.050355
1.000000 0.101307 0.050117
1.000000 0.100542 0.050049
1.000000 0.100542 0.050049
0.016176 0.156410 0.032696
0.048439 0.154181 0.031806
0.107394 0.153206 0.032144
0.179036 0.152867 0.033104
0.260507 0.153045 0.034570
0.349082 0.153627 0.036433
0.442073 0.154497 0.038580
0.536829 0.155536 0.040899
0.630754 0.156622 0.043279
0.721323 0.157631 0.045609
0.806085 0.158439 0.047787
0.882666 0.158925 0.050052
0.948755 0.158974 0.052963
1.000000 0.158327 0.055173
1.000000 0.155095 0.054885
1.000000 0.154176 0.054803
1.000000 0.154176 0.054803
0.023306 0.226858 0.035246
0.050959 0.223996 0.034196
0.108245 0.222459 0.034512
0.178399 0.221533 0.035464
0.258550 0.221107 0.036936
0.345989 0.221071 0.038818
0.438042 0.221316 0.041002
0.532072 0.221729 0.043380
0.625498 0.222195 0.045850
0.715804 0.222597 0.048363
0.800556 0.222841 0.052086
0.877378 0.222780 0.055470
0.943975 0.222289 0.058386
0.998100 0.221247 0.060714
1.000000 0.217680 0.060479
1.000000 0.216638 0.060385
1.000000 0.216638 0.060385
0.031105 0.303135 0.038485
0.054324 0.299760 0.037292
0.109900 0.297749 0.037600
0.178520 0.296322 0.038559
0.257294 0.295370 0.040054
0.343529 0.294793 0.041979
0.434569 0.294486 0.044235
0.527792 0.294345 0.046748
0.620641 0.294279 0.050494
0.710599 0.294163 0.054430
0.795239 0.293880 0.058152
0.872210 0.293316 0.061538
0.939229 0.292356 0.064467
0.994066 0.290885 0.066818
1.000000 0.287174 0.066750
1.000000 0.286038 0.066647
1.000000 0.286038 0.066647
0.039402 0.383393 0.042276
0.058376 0.379628 0.040963
0.112211 0.377235 0.041279
0.179264 0.375393 0.042267
0.256621 0.374000 0.043818
0.341603 0.372960 0.045847
0.431583 0.372191 0.049084
0.523947 0.371589 0.053059
0.616134 0.371042 0.057069
0.705659 0.370450 0.060995
0.790110 0.369707 0.064716
0.867153 0.368710 0.068113
0.934521 0.367352 0.071061
0.989999 0.365525 0.073441
1.000000 0.361747 0.073555
1.000000 0.360545 0.073445
1.000000 0.360545 0.073445
0.048022 0.465810 0.046488
0.062951 0.461778 0.045082
0.115023 0.459097 0.045435
0.180493 0.456929 0.046503
0.256417 0.455188 0.048729
0.340132 0.453787 0.052241
0.429001 0.452625 0.056031
0.520437 0.451611 0.059983
0.611908 0.450652 0.063981
0.700942 0.449655 0.067904
0.785145 0.448524 0.071633
0.862199 0.447164 0.075046
0.929851 0.445479 0.078022
0.985909 0.443369 0.080439
1.000000 0.439594 0.080747
1.000000 0.438355 0.080632
1.000000 0.438355 0.080632
0.056790 0.548599 0.051001
0.067886 0.544424 0.049552
0.118184 0.541554 0.050262
0.182092 0.539171 0.052828
0.256573 0.537169 0.055906
0.338976 0.535467 0.059385
0.426700 0.533983 0.063151
0.517180 0.532635 0.067089
0.607898 0.531340 0.071081
0.696402 0.530012 0.075009
0.780313 0.528566 0.078752
0.857329 0.526916 0.082190
0.925218 0.524976 0.085200
0.981803 0.522657 0.087661
1.000000 0.518949 0.088177
1.000000 0.517699 0.088059
1.000000 0.517699 0.088059
0.065529 0.630031 0.055778
0.073044 0.625851 0.055660
0.121567 0.622896 0.057526
0.183887 0.620367 0.060047
0.256911 0.618180 0.063090
0.338000 0.616262 0.066543
0.424575 0.614540 0.070292
0.514086 0.612940 0.074222
0.604035 0.611387 0.078217
0.691986 0.609806 0.082157
0.775578 0.608121 0.085922
0.852525 0.606256 0.089392
0.920612 0.604134 0.092444
0.977684 0.601679 0.094957
1.000000 0.598097 0.095693
1.000000 0.596864 0.095575
1.000000 0.596864 0.095575
0.074109 0.708465 0.062992
0.078251 0.704379 0.062814
0.124947 0.701417 0.064626
0.185700 0.698836 0.067110
0.257284 0.696556 0.070126
0.337076 0.694512 0.073561
0.422511 0.692639 0.077301
0.511060 0.690872 0.081231
0.600241 0.689144 0.085236
0.687635 0.687390 0.089196
0.770897 0.685544 0.092991
0.847758 0.683540 0.096500
0.916023 0.681313 0.099601
0.973553 0.678796 0.102174
1.000000 0.675392 0.103144
1.000000 0.674200 0.103028
1.000000 0.674200 0.103028
0.082290 0.782275 0.069947
0.083344 0.778396 0.069646
0.128149 0.775523 0.071408
0.187363 0.772985 0.073863
0.257541 0.770706 0.076859
0.336065 0.768629 0.080283
0.420388 0.766696 0.084022
0.507999 0.764850 0.087961
0.596431 0.763034 0.091983
0.683282 0.761192 0.095970
0.766222 0.759267 0.099802
0.842999 0.757205 0.103359
0.911433 0.754949 0.106517
0.969406 0.752446 0.109156
1.000000 0.749268 0.110374
1.000000 0.748141 0.110263
1.000000 0.748141 0.110263
0.089888 0.849950 0.076404
0.089488 0.846411 0.076065
0.130990 0.843696 0.077715
0.188706 0.841298 0.080148
0.257523 0.839117 0.083133
0.334824 0.837102 0.086554
0.418080 0.835204 0.090299
0.504794 0.833374 0.094254
0.592515 0.831562 0.098302
0.678855 0.829721 0.102324
0.761498 0.827804 0.106201
0.838208 0.825767 0.109813
0.906821 0.823564 0.113036
0.965235 0.821151 0.115750
1.000000 0.818245 0.117228
1.000000 0.817206 0.117124
1.000000 0.817206 0.117124
0.096716 0.910050 0.082209
0.096364 0.906964 0.081909
0.133286 0.904491 0.083392
0.189553 0.902332 0.085811
0.257065 0.900348 0.088791
0.333204 0.898497 0.092218
0.415453 0.896735 0.095977
0.501330 0.895019 0.099955
0.588396 0.893309 0.104036
0.674276 0.891564 0.108102
0.756666 0.889749 0.112032
0.833344 0.887826 0.115705
0.902160 0.885760 0.119001
0.961028 0.883518 0.121798
1.000000 0.880931 0.123549
1.000000 0.880001 0.123455
1.000000 0.880001 0.123455
0.102592 0.961201 0.087203
0.102297 0.958642 0.086952
0.134847 0.956527 0.088280
0.189724 0.954707 0.090693
0.255999 0.953026 0.093678
0.331050 0.951444 0.097117
0.412369 0.949923 0.100898
0.497485 0.948429 0.104908
0.583970 0.946926 0.109030
0.669459 0.945381 0.113146
0.751660 0.943767 0.117136
0.828359 0.942054 0.120880
0.897420 0.940217 0.124256
0.956771 0.938231 0.127143
1.000000 0.936013 0.129182
1.000000 0.935213 0.129099
1.000000 0.935213 0.129099
0.105660 0.987699 0.089811
0.105660 0.987699 0.089811
0.134311 0.988063 0.091196
0.188144 0.988740 0.093811
0.253533 0.989547 0.097010
0.327828 0.990444 0.100677
0.408519 0.991393 0.104699
0.493131 0.992298 0.108955
0.579127 0.991115 0.113126
0.664314 0.989883 0.117300
0.746406 0.988578 0.121358
0.823198 0.987180 0.125180
0.892563 0.985670 0.128645
0.952441 0.984033 0.131629
1.000000 0.982243 0.133968
1.000000 0.981592 0.133900
1.000000 0.981592 0.133900
0.105660 0.987699 0.089811
0.105660 0.987699 0.089811
0.131579 0.988029 0.091064
0.184641 0.988696 0.093640
0.249428 0.989496 0.096809
0.323271 0.990389 0.100451
0.403655 0.991337 0.104455
0.488109 0.992304 0.108707
0.574206 0.993259 0.113090
0.659582 0.994175 0.117488
0.741949 0.995027 0.121779
0.819099 0.995797 0.125845
0.888909 0.996469 0.129562
0.949323 0.997031 0.132811
0.998343 0.997473 0.135468
1.000000 0.997488 0.135558
1.000000 0.997488 0.135558
0.001587 0.001524 0.070566
0.047902 0.003748 0.069903
0.111400 0.006835 0.070031
0.186975 0.010546 0.070736
0.271783 0.014751 0.071902
0.363072 0.019323 0.073417
0.458122 0.024133 0.075166
0.554260 0.029049 0.077034
0.648875 0.033938 0.078903
0.739430 0.038663 0.080656
0.823469 0.043089 0.082173
0.898611 0.047078 0.083335
0.962542 0.050493 0.084023
1.000000 0.052485 0.083492
1.000000 0.052436 0.081198
1.000000 0.052422 0.080548
1.000000 0.052422 0.080548
0.005413 0.040632 0.069130
0.046557 0.039990 0.068085
0.108439 0.040409 0.067990
0.182649 0.041498 0.068485
0.266341 0.043131 0.069457
0.356773 0.045187 0.070791
0.451231 0.047539 0.072375
0.547046 0.050060 0.074092
0.641605 0.052620 0.075826
0.732368 0.055085 0.077458
0.816873 0.057320 0.078871
0.892731 0.059191 0.079943
0.957618 0.060561 0.080556
1.000000 0.060790 0.080145
1.000000 0.058776 0.077736
1.000000 0.058212 0.077055
1.000000 0.058212 0.077055
0.010650 0.093522 0.068977
0.046912 0.092008 0.067725
0.107239 0.091676 0.067571
0.180097 0.091999 0.068019
0.262633 0.092856 0.068952
0.352114 0.094127 0.070258
0.445838 0.095692 0.071824
0.541144 0.097427 0.073533
0.635428 0.099203 0.075270
0.726155 0.100893 0.076916
0.810868 0.102364 0.078353
0.887182 0.103484 0.079460
0.952782 0.104120 0.080119
1.000000 0.103849 0.079947
1.000000 0.101118 0.077535
1.000000 0.100344 0.076852
1.000000 0.100344 0.076852
0.016905 0.156087 0.069772
0.048426 0.153824 0.068329
0.107135 0.152840 0.068126
0.178565 0.152493 0.068535
0.259856 0.152665 0.069440
0.348284 0.153242 0.070727
0.441164 0.154109 0.072285
0.535844 0.155146 0.073998
0.629732 0.156232 0.075749
0.720301 0.157243 0.077421
0.805101 0.158052 0.078894
0.881758 0.158533 0.080049
0.947963 0.158557 0.080766
1.000000 0.157919 0.080854
1.000000 0.154653 0.078455
1.000000 0.153725 0.077776
1.000000 0.153725 0.077776
0.024002 0.226375 0.071364
0.050941 0.223481 0.069746
0.107980 0.221933 0.069502
0.177922 0.220998 0.069882
0.257893 0.220565 0.070767
0.345186 0.220523 0.072045
0.437128 0.220764 0.073604
0.531083 0.221174 0.075329
0.624470 0.221638 0.077104
0.714774 0.222038 0.078810
0.799558 0.222254 0.080329
0.876455 0.222166 0.081542
0.943170 0.221652 0.082327
0.997455 0.220588 0.082566
1.000000 0.217021 0.080316
1.000000 0.215970 0.079644
1.000000 0.215970 0.079644
0.031770 0.302518 0.073610
0.054303 0.299112 0.071832
0.109630 0.297090 0.071557
0.178038 0.295653 0.071916
0.256633 0.294693 0.072791
0.342722 0.294109 0.074069
0.433650 0.293796 0.075639
0.526798 0.293649 0.077385
0.619597 0.293558 0.079193
0.709547 0.293414 0.080943
0.794223 0.293105 0.082518
0.871272 0.292517 0.083798
0.938412 0.291535 0.084662
0.993410 0.290044 0.084990
1.000000 0.286333 0.082975
1.000000 0.285188 0.082314
1.000000 0.285188 0.082314
0.040038 0.382669 0.076369
0.058354 0.378874 0.074447
0.111938 0.376469 0.074149
0.178780 0.374616 0.074497
0.255957 0.373213 0.075371
0.340792 0.372164 0.076659
0.430647 0.371373 0.078249
0.522922 0.370741 0.080027
0.615063 0.370167 0.081877
0.704585 0.369548 0.083681
0.789077 0.368782 0.085322
0.866202 0.367762 0.086678
0.933693 0.366383 0.087631
0.989333 0.364538 0.088060
1.000000 0.360761 0.086298
1.000000 0.359551 0.085651
1.000000 0.359551 0.085651
0.048631 0.465005 0.079495
0.062931 0.460945 0.077446
0.114749 0.458251 0.077134
0.180006 0.456071 0.077481
0.255739 0.454309 0.078364
0.339285 0.452877 0.079672
0.428027 0.451685 0.081292
0.519380 0.450644 0.083111
0.610810 0.449659 0.085014
0.699847 0.448638 0.086883
0.784096 0.447485 0.088600
0.861235 0.446105 0.090045
0.929013 0.444401 0.091098
0.985232 0.442274 0.091639
1.000000 0.438501 0.090149
1.000000 0.437254 0.089519
1.000000 0.437254 0.089519
0.057373 0.547741 0.082844
0.067869 0.543539 0.080685
0.117901 0.540650 0.080367
0.181568 0.538235 0.080724
0.255846 0.536201 0.081626
0.338087 0.534470 0.082964
0.425691 0.532959 0.084625
0.516093 0.531586 0.086497
0.606776 0.530267 0.088463
0.695288 0.528918 0.090408
0.779248 0.527452 0.092213
0.856353 0.525784 0.093758
0.924368 0.523827 0.094924
0.981116 0.521493 0.095591
1.000000 0.517787 0.094394
1.000000 0.516531 0.093787
1.000000 0.516531 0.093787
0.066084 0.629146 0.086271
0.072999 0.624923 0.084018
0.121228 0.621935 0.083704
0.183312 0.619376 0.084079
0.256139 0.617161 0.085012
0.337072 0.615217 0.086390
0.423532 0.613470 0.088103
0.512971 0.611848 0.090038
0.602890 0.610274 0.092080
0.690853 0.608673 0.094113
0.774498 0.606970 0.096018
0.851536 0.605089 0.097677
0.919752 0.602953 0.098972
0.976987 0.600484 0.099783
1.000000 0.596904 0.098908
1.000000 0.595664 0.098332
1.000000 0.595664 0.098332
0.074582 0.707554 0.089626
0.078162 0.703429 0.087299
0.124557 0.700437 0.086996
0.185077 0.697829 0.087400
0.256470 0.695523 0.088374
0.336111 0.693455 0.089804
0.421436 0.691560 0.091580
0.509918 0.689773 0.093591
0.599074 0.688026 0.095721
0.686484 0.686255 0.097855
0.769802 0.684393 0.099876
0.846758 0.682376 0.101667
0.915152 0.680135 0.103111
0.972846 0.677607 0.104099
1.000000 0.674205 0.103610
1.000000 0.673008 0.103100
1.000000 0.673008 0.103100
0.082686 0.781375 0.092762
0.083229 0.777462 0.090381
0.127711 0.774561 0.090094
0.186697 0.771998 0.090539
0.256688 0.769695 0.091564
0.335066 0.767597 0.093058
0.419284 0.765644 0.094910
0.506832 0.763780 0.097010
0.595244 0.761948 0.099243
0.682114 0.760090 0.101495
0.765113 0.758152 0.103652
0.841986 0.756077 0.105603
0.910551 0.753811 0.107248
0.968689 0.751302 0.109008
1.000000 0.748140 0.110263
1.000000 0.747012 0.110152
1.000000 0.747012 0.110152
0.090211 0.849096 0.095529
0.089765 0.845536 0.093199
0.130509 0.842787 0.092851
0.188000 0.840366 0.093347
0.256634 0.838163 0.094436
0.333793 0.836129 0.096006
0.416949 0.834213 0.097948
0.503605 0.832367 0.100153
0.591309 0.830540 0.102508
0.677672 0.828686 0.104905
0.760377 0.826758 0.107242
0.837186 0.824712 0.109658
0.905933 0.822511 0.112887
0.964509 0.820099 0.115608
1.000000 0.817205 0.117124
1.000000 0.816164 0.117020
1.000000 0.816164 0.117020
0.096973 0.909278 0.097776
0.096576 0.906172 0.095556
0.132765 0.903668 0.095115
0.188811 0.901488 0.095675
0.256143 0.899485 0.096842
0.332145 0.897616 0.098504
0.414298 0.895838 0.100555
0.500120 0.894108 0.102888
0.587172 0.892385 0.105404
0.673079 0.890629 0.108037
0.755542 0.888812 0.111883
0.832322 0.886888 0.115560
0.901269 0.884822 0.118861
0.960295 0.882579 0.121665
1.000000 0.880000 0.123455
1.000000 0.879069 0.123360
1.000000 0.879069 0.123360
0.102787 0.960542 0.099352
0.102449 0.957965 0.097255
0.134292 0.955822 0.096740
0.188949 0.953983 0.097378
0.255049 0.952284 0.098639
0.329966 0.950686 0.100416
0.411192 0.949151 0.102609
0.496257 0.947643 0.105140
0.582743 0.946134 0.108892
0.668270 0.944586 0.113008
0.750540 0.942969 0.117000
0.827338 0.941253 0.120747
0.896525 0.939413 0.124128
0.956029 0.937425 0.127022
1.000000 0.935212 0.129099
1.000000 0.934410 0.129017
1.000000 0.934410 0.129017
0.105865 0.987745 0.098749
0.105824 0.987736 0.096982
0.133791 0.988083 0.096613
0.187403 0.988748 0.097549
0.252616 0.989545 0.099139
0.326776 0.990434 0.101293
0.407384 0.991380 0.104642
0.491917 0.991673 0.108834
0.577915 0.990485 0.113003
0.663135 0.989248 0.117177
0.745291 0.987938 0.121237
0.822177 0.986535 0.125062
0.891664 0.985021 0.128531
0.951691 0.983379 0.131522
1.000000 0.981591 0.133900
1.000000 0.980937 0.133832
1.000000 0.980937 0.133832
0.105815 0.987734 0.096587
0.105776 0.987725 0.094879
0.131026 0.988038 0.094447
0.183869 0.988695 0.095428
0.248483 0.989486 0.097112
0.322212 0.990377 0.100399
0.402524 0.991324 0.104399
0.486938 0.992291 0.108648
0.573029 0.993246 0.113030
0.658430 0.994163 0.117428
0.740853 0.995016 0.121722
0.818090 0.995787 0.125791
0.888014 0.996460 0.129514
0.948570 0.997024 0.132770
0.997758 0.997468 0.135436
1.000000 0.997488 0.135558
1.000000 0.997488 0.135558
0.002645 0.002539 0.117596
0.048134 0.004716 0.116490
0.111375 0.007785 0.116195
0.186720 0.011479 0.116472
0.271329 0.015669 0.117205
0.362450 0.020228 0.118280
0.457367 0.025026 0.119583
0.553407 0.029932 0.120997
0.647962 0.034813 0.122407
0.738496 0.039532 0.123694
0.822554 0.043953 0.124742
0.897757 0.047939 0.125432
0.961792 0.051353 0.125647
1.000000 0.053378 0.124677
1.000000 0.053318 0.121915
1.000000 0.053301 0.121131
1.000000 0.053301 0.121131
0.006379 0.040865 0.115361
